;FLAVOR:Marlin
;TIME:27777
;Filament used: 18.4231m
;Layer height: 0.2
;MINX:68.007
;MINY:38.85
;MINZ:0.2
;MAXX:167.193
;MAXY:196.15
;MAXZ:36
;TARGET_MACHINE.NAME:Creality Ender-3
;Generated with Cura_SteamEngine 5.8.1
M140 S50
M105
M190 S50
M104 S200
M105
M109 S200
M82 ;absolute extrusion mode
; Ender 3 Custom Start G-code
G92 E0 ; Reset Extruder
G28 ; Home all axes
G1 Z2.0 F3000 ; Move Z Axis up little to prevent scratching of Heat Bed
G1 X0.1 Y20 Z0.3 F5000.0 ; Move to start position
G1 X0.1 Y200.0 Z0.3 F1500.0 E15 ; Draw the first line
G1 X0.4 Y200.0 Z0.3 F5000.0 ; Move to side a little
G1 X0.4 Y20 Z0.3 F1500.0 E30 ; Draw the second line
G92 E0 ; Reset Extruder
G1 Z2.0 F3000 ; Move Z Axis up little to prevent scratching of Heat Bed
G1 X5 Y20 Z0.3 F5000.0 ; Move over to prevent blob squish
G92 E0
G92 E0
G1 F2700 E-5
;LAYER_COUNT:180
;LAYER:0
M107
G0 F6000 X72.631 Y44.113 Z0.2
;TYPE:SKIRT
G1 F2700 E0
G1 F1200 X73.176 Y43.304 E0.03244
G1 X73.767 Y42.576 E0.06363
G1 X74.469 Y41.851 E0.0972
G1 X75.179 Y41.237 E0.12842
G1 X75.998 Y40.647 E0.16199
G1 X76.837 Y40.151 E0.19441
G1 X77.651 Y39.76 E0.22444
G1 X78.628 Y39.392 E0.25917
G1 X79.532 Y39.142 E0.29036
G1 X80.534 Y38.959 E0.32424
G1 X81.705 Y38.863 E0.36332
G1 X82.312 Y38.85 E0.38351
G1 X152.304 Y38.85 E2.71145
G1 X153.184 Y38.863 E2.74073
G1 X154.156 Y38.922 E2.77311
G1 X155.119 Y39.068 E2.80551
G1 X156.066 Y39.299 E2.83793
G1 X156.954 Y39.599 E2.86911
G1 X157.846 Y39.989 E2.90149
G1 X158.729 Y40.476 E2.93502
G1 X159.48 Y40.978 E2.96507
G1 X160.295 Y41.636 E2.99991
G1 X160.993 Y42.314 E3.03227
G1 X161.629 Y43.051 E3.06465
G1 X162.199 Y43.841 E3.09705
G1 X162.661 Y44.617 E3.12709
G1 X163.115 Y45.559 E3.16187
G1 X163.444 Y46.437 E3.19306
G1 X163.713 Y47.409 E3.2266
G1 X163.89 Y48.375 E3.25926
G1 X163.985 Y49.505 E3.29698
G1 X164 Y50.162 E3.31884
G1 X164 Y80.484 E4.32735
G1 X164.037 Y83.056 E4.41291
G1 X164.146 Y85.621 E4.49829
G1 X164.32 Y88.084 E4.58042
G1 X164.569 Y90.601 E4.66454
G1 X164.89 Y93.109 E4.74864
G1 X165.276 Y95.57 E4.83149
G1 X165.734 Y98.035 E4.91488
G1 X166.277 Y100.556 E5.00066
G1 X166.884 Y103.063 E5.08645
G1 X167.058 Y103.949 E5.11648
G1 X167.181 Y105.313 E5.16203
G1 X167.193 Y106.072 E5.18728
G1 X167.179 Y107.047 E5.21971
G1 X167.122 Y108.019 E5.25209
G1 X166.991 Y108.913 E5.28215
G1 X166.881 Y109.425 E5.29956
G1 X166.178 Y112.369 E5.40023
G1 X165.662 Y114.831 E5.4839
G1 X165.206 Y117.333 E5.56849
G1 X164.834 Y119.79 E5.65114
G1 X164.523 Y122.312 E5.73566
G1 X164.288 Y124.789 E5.81841
G1 X164.123 Y127.303 E5.90221
G1 X164.025 Y129.875 E5.98781
G1 X164 Y131.949 E6.0568
G1 X163.999 Y184.566 E7.80685
G1 X163.987 Y185.327 E7.83216
G1 X163.929 Y186.3 E7.86458
G1 X163.783 Y187.263 E7.89698
G1 X163.552 Y188.21 E7.9294
G1 X163.239 Y189.132 E7.96178
G1 X162.847 Y190.023 E7.99416
G1 X162.395 Y190.845 E8.02536
G1 X161.833 Y191.683 E8.05892
G1 X161.243 Y192.413 E8.09014
G1 X160.54 Y193.139 E8.12375
G1 X159.804 Y193.775 E8.1561
G1 X159.014 Y194.345 E8.18851
G1 X158.238 Y194.808 E8.21856
G1 X157.298 Y195.261 E8.25327
G1 X156.385 Y195.603 E8.28569
G1 X155.447 Y195.862 E8.31806
G1 X154.481 Y196.039 E8.35072
G1 X153.345 Y196.135 E8.38864
G1 X152.67 Y196.15 E8.4111
G1 X82.564 Y196.149 E10.74283
G1 X81.831 Y196.138 E10.76721
G1 X80.859 Y196.081 E10.7996
G1 X79.896 Y195.935 E10.83199
G1 X78.95 Y195.706 E10.86437
G1 X78.026 Y195.394 E10.8968
G1 X77.136 Y195.002 E10.92915
G1 X76.313 Y194.551 E10.96036
G1 X75.474 Y193.99 E10.99393
G1 X74.77 Y193.424 E11.02398
G1 X74.017 Y192.699 E11.05874
G1 X73.38 Y191.963 E11.09112
G1 X72.85 Y191.232 E11.12115
G1 X72.314 Y190.335 E11.1559
G1 X71.892 Y189.457 E11.1883
G1 X71.55 Y188.545 E11.2207
G1 X71.29 Y187.607 E11.25307
G1 X71.112 Y186.638 E11.28584
G1 X71.013 Y185.435 E11.32599
G1 X71 Y184.826 E11.34625
G1 X71 Y131.322 E13.1258
G1 X70.963 Y128.728 E13.21209
G1 X70.854 Y126.182 E13.29684
G1 X70.679 Y123.702 E13.37953
G1 X70.434 Y121.235 E13.46199
G1 X70.106 Y118.672 E13.54793
G1 X69.719 Y116.209 E13.63086
G1 X69.269 Y113.79 E13.71269
G1 X68.559 Y110.545 E13.82318
G1 X68.301 Y109.454 E13.86046
G1 X68.12 Y108.48 E13.89341
G1 X68.016 Y107.148 E13.93785
G1 X68.007 Y106.127 E13.97181
G1 X68.021 Y105.421 E13.9953
G1 X68.081 Y104.478 E14.02672
G1 X68.301 Y103.169 E14.07087
G1 X68.979 Y100.245 E14.1707
G1 X69.478 Y97.775 E14.25452
G1 X69.909 Y95.279 E14.33876
G1 X70.261 Y92.828 E14.42112
G1 X70.551 Y90.309 E14.50546
G1 X70.769 Y87.801 E14.58919
G1 X70.912 Y85.32 E14.67184
G1 X70.989 Y82.727 E14.75812
G1 X71 Y81.306 E14.80539
G1 X71.001 Y50.359 E15.83469
G1 X71.013 Y49.658 E15.85801
G1 X71.073 Y48.685 E15.89043
G1 X71.22 Y47.724 E15.92277
G1 X71.451 Y46.776 E15.95522
G1 X71.753 Y45.887 E15.98645
G1 X72.16 Y44.965 E16.01997
G1 X72.631 Y44.113 E16.05235
G0 F6000 X72.963 Y44.336
G1 F1200 X73.487 Y43.556 E16.0836
G1 X74.078 Y42.828 E16.11479
G1 X74.731 Y42.154 E16.146
G1 X75.441 Y41.54 E16.17722
G1 X76.202 Y40.991 E16.20843
G1 X77.01 Y40.512 E16.23967
G1 X77.824 Y40.121 E16.26971
G1 X78.735 Y39.778 E16.30208
G1 X79.639 Y39.528 E16.33328
G1 X80.567 Y39.358 E16.36466
G1 X81.714 Y39.263 E16.40294
G1 X82.321 Y39.25 E16.42313
G1 X152.298 Y39.25 E18.75058
G1 X153.16 Y39.262 E18.77925
G1 X154.097 Y39.318 E18.81047
G1 X155.025 Y39.457 E18.84168
G1 X155.938 Y39.678 E18.87292
G1 X156.794 Y39.966 E18.90296
G1 X157.686 Y40.356 E18.93534
G1 X158.507 Y40.809 E18.96653
G1 X159.258 Y41.311 E18.99658
G1 X160.017 Y41.923 E19.029
G1 X160.691 Y42.576 E19.06022
G1 X161.305 Y43.285 E19.09141
G1 X161.855 Y44.046 E19.12264
G1 X162.317 Y44.822 E19.15268
G1 X162.74 Y45.699 E19.18506
G1 X163.069 Y46.577 E19.21625
G1 X163.32 Y47.482 E19.24749
G1 X163.491 Y48.409 E19.27884
G1 X163.586 Y49.539 E19.31655
G1 X163.6 Y50.171 E19.33758
G1 X163.6 Y80.484 E20.34579
G1 X163.637 Y83.073 E20.43191
G1 X163.746 Y85.638 E20.5173
G1 X163.922 Y88.123 E20.60016
G1 X164.172 Y90.652 E20.68469
G1 X164.493 Y93.16 E20.76878
G1 X164.883 Y95.643 E20.85238
G1 X165.343 Y98.119 E20.93614
G1 X165.888 Y100.65 E21.02225
G1 X166.491 Y103.14 E21.10746
G1 X166.665 Y104.026 E21.1375
G1 X166.781 Y105.319 E21.18067
G1 X166.793 Y106.067 E21.20556
G1 X166.78 Y107.024 E21.23739
G1 X166.726 Y107.961 E21.26861
G1 X166.595 Y108.855 E21.29866
G1 X166.492 Y109.332 E21.31489
G1 X165.789 Y112.276 E21.41556
G1 X165.268 Y114.759 E21.49994
G1 X164.813 Y117.261 E21.58452
G1 X164.437 Y119.741 E21.66795
G1 X164.126 Y122.263 E21.75247
G1 X163.89 Y124.751 E21.83559
G1 X163.723 Y127.288 E21.92016
G1 X163.625 Y129.86 E22.00576
G1 X163.6 Y131.944 E22.07508
G1 X163.599 Y184.56 E23.8251
G1 X163.588 Y185.304 E23.84985
G1 X163.533 Y186.241 E23.88106
G1 X163.394 Y187.169 E23.91227
G1 X163.173 Y188.082 E23.94352
G1 X162.873 Y188.971 E23.97472
G1 X162.496 Y189.83 E24.00592
G1 X162.044 Y190.652 E24.03712
G1 X161.521 Y191.432 E24.06836
G1 X160.955 Y192.135 E24.09838
G1 X160.278 Y192.837 E24.13082
G1 X159.57 Y193.451 E24.16199
G1 X158.809 Y194.001 E24.19321
G1 X158.033 Y194.464 E24.22327
G1 X157.157 Y194.887 E24.25562
G1 X156.278 Y195.218 E24.28686
G1 X155.374 Y195.469 E24.31807
G1 X154.447 Y195.64 E24.34942
G1 X153.311 Y195.736 E24.38734
G1 X152.67 Y195.75 E24.40866
G1 X82.57 Y195.749 E26.7402
G1 X81.854 Y195.739 E26.76402
G1 X80.918 Y195.685 E26.7952
G1 X79.989 Y195.546 E26.82644
G1 X79.077 Y195.327 E26.85764
G1 X78.187 Y195.028 E26.88887
G1 X77.328 Y194.651 E26.92007
G1 X76.505 Y194.2 E26.95128
G1 X75.725 Y193.678 E26.9825
G1 X75.021 Y193.112 E27.01254
G1 X74.319 Y192.437 E27.04493
G1 X73.704 Y191.728 E27.07615
G1 X73.174 Y190.997 E27.10618
G1 X72.674 Y190.161 E27.13858
G1 X72.266 Y189.316 E27.16979
G1 X71.935 Y188.438 E27.201
G1 X71.683 Y187.534 E27.23221
G1 X71.511 Y186.605 E27.26363
G1 X71.413 Y185.426 E27.30298
G1 X71.4 Y184.817 E27.32324
G1 X71.4 Y131.322 E29.10249
G1 X71.363 Y128.722 E29.18898
G1 X71.254 Y126.165 E29.2741
G1 X71.078 Y123.674 E29.35716
G1 X70.831 Y121.184 E29.44038
G1 X70.503 Y118.621 E29.52633
G1 X70.114 Y116.147 E29.60962
G1 X69.66 Y113.705 E29.69223
G1 X68.95 Y110.46 E29.80272
G1 X68.694 Y109.38 E29.83963
G1 X68.519 Y108.449 E29.87114
G1 X68.415 Y107.117 E29.91558
G1 X68.407 Y106.135 E29.94824
G1 X68.42 Y105.446 E29.97116
G1 X68.476 Y104.544 E30.00122
G1 X68.691 Y103.259 E30.04455
G1 X69.369 Y100.335 E30.14439
G1 X69.87 Y97.854 E30.22857
G1 X70.303 Y95.347 E30.31319
G1 X70.657 Y92.885 E30.39592
G1 X70.948 Y90.355 E30.48062
G1 X71.167 Y87.836 E30.56472
G1 X71.312 Y85.332 E30.64814
G1 X71.389 Y82.739 E30.73442
G1 X71.4 Y81.309 E30.78199
G1 X71.401 Y50.365 E31.81119
G1 X71.412 Y49.682 E31.83391
G1 X71.469 Y48.745 E31.86513
G1 X71.609 Y47.818 E31.89631
G1 X71.83 Y46.905 E31.92755
G1 X72.132 Y46.016 E31.95878
G1 X72.51 Y45.158 E31.98997
G1 X72.963 Y44.336 E32.02118
G0 F6000 X73.295 Y44.559
G1 F1200 X73.798 Y43.808 E32.05125
G1 X74.366 Y43.106 E32.08128
G1 X74.993 Y42.456 E32.11132
G1 X75.675 Y41.864 E32.14135
G1 X76.407 Y41.335 E32.17139
G1 X77.183 Y40.873 E32.20143
G1 X77.997 Y40.482 E32.23147
G1 X78.842 Y40.163 E32.26151
G1 X79.712 Y39.921 E32.29154
G1 X80.6 Y39.757 E32.32158
G1 X81.723 Y39.663 E32.35906
G1 X82.33 Y39.65 E32.37925
G1 X152.293 Y39.65 E34.70623
G1 X153.137 Y39.661 E34.7343
G1 X154.039 Y39.714 E34.76436
G1 X154.932 Y39.846 E34.79438
G1 X155.81 Y40.057 E34.82442
G1 X156.666 Y40.345 E34.85445
G1 X157.493 Y40.707 E34.88448
G1 X158.285 Y41.142 E34.91453
G1 X159.036 Y41.644 E34.94458
G1 X159.739 Y42.211 E34.97462
G1 X160.389 Y42.838 E35.00466
G1 X160.981 Y43.52 E35.03469
G1 X161.511 Y44.251 E35.06472
G1 X161.973 Y45.027 E35.09476
G1 X162.366 Y45.84 E35.1248
G1 X162.684 Y46.685 E35.15483
G1 X162.927 Y47.555 E35.18487
G1 X163.092 Y48.443 E35.21491
G1 X163.187 Y49.573 E35.25263
G1 X163.2 Y50.18 E35.27282
G1 X163.2 Y80.484 E36.28073
G1 X163.237 Y83.09 E36.36742
G1 X163.346 Y85.655 E36.45281
G1 X163.524 Y88.162 E36.5364
G1 X163.775 Y90.703 E36.62133
G1 X164.096 Y93.211 E36.70542
G1 X164.49 Y95.716 E36.78976
G1 X164.952 Y98.203 E36.8739
G1 X165.499 Y100.744 E36.96035
G1 X166.098 Y103.217 E37.04498
G1 X166.272 Y104.103 E37.07501
G1 X166.381 Y105.326 E37.11585
G1 X166.393 Y106.062 E37.14033
G1 X166.381 Y107.001 E37.17156
G1 X166.33 Y107.903 E37.20161
G1 X166.199 Y108.797 E37.23167
G1 X166.103 Y109.239 E37.24671
G1 X165.4 Y112.183 E37.34738
G1 X164.874 Y114.688 E37.43251
G1 X164.42 Y117.19 E37.51709
G1 X164.04 Y119.692 E37.60126
G1 X163.729 Y122.214 E37.68578
G1 X163.492 Y124.713 E37.76927
G1 X163.323 Y127.273 E37.8546
G1 X163.225 Y129.845 E37.94021
G1 X163.2 Y131.939 E38.00986
G1 X163.199 Y184.554 E39.75984
G1 X163.189 Y185.281 E39.78402
G1 X163.137 Y186.183 E39.81407
G1 X163.005 Y187.076 E39.8441
G1 X162.794 Y187.955 E39.87416
G1 X162.507 Y188.811 E39.90419
G1 X162.145 Y189.638 E39.93422
G1 X161.711 Y190.43 E39.96426
G1 X161.209 Y191.181 E39.9943
G1 X160.643 Y191.884 E40.02432
G1 X160.016 Y192.535 E40.05438
G1 X159.335 Y193.127 E40.08439
G1 X158.604 Y193.657 E40.11442
G1 X157.828 Y194.12 E40.14448
G1 X157.015 Y194.513 E40.17451
G1 X156.17 Y194.833 E40.20457
G1 X155.301 Y195.076 E40.23458
G1 X154.413 Y195.241 E40.26462
G1 X153.277 Y195.337 E40.30254
G1 X152.67 Y195.35 E40.32273
G1 X82.575 Y195.349 E42.6541
G1 X81.877 Y195.34 E42.67732
G1 X80.976 Y195.289 E42.70733
G1 X80.082 Y195.157 E42.73739
G1 X79.204 Y194.948 E42.76741
G1 X78.347 Y194.661 E42.79747
G1 X77.52 Y194.3 E42.82748
G1 X76.727 Y193.867 E42.85753
G1 X75.976 Y193.366 E42.88756
G1 X75.272 Y192.8 E42.9176
G1 X74.621 Y192.174 E42.94764
G1 X74.028 Y191.493 E42.97767
G1 X73.498 Y190.762 E43.0077
G1 X73.034 Y189.987 E43.03775
G1 X72.64 Y189.174 E43.0678
G1 X72.32 Y188.33 E43.09782
G1 X72.076 Y187.46 E43.12787
G1 X71.91 Y186.572 E43.15792
G1 X71.813 Y185.417 E43.19647
G1 X71.8 Y184.808 E43.21673
G1 X71.8 Y131.322 E44.99568
G1 X71.763 Y128.716 E45.08236
G1 X71.654 Y126.148 E45.16785
G1 X71.477 Y123.646 E45.25128
G1 X71.228 Y121.133 E45.33527
G1 X70.9 Y118.57 E45.42121
G1 X70.509 Y116.085 E45.50488
G1 X70.051 Y113.619 E45.5883
G1 X69.34 Y110.374 E45.69879
G1 X69.087 Y109.305 E45.73533
G1 X68.918 Y108.418 E45.76536
G1 X68.814 Y107.086 E45.8098
G1 X68.807 Y106.142 E45.8412
G1 X68.819 Y105.471 E45.86352
G1 X68.875 Y104.569 E45.89358
G1 X69.081 Y103.349 E45.93473
G1 X69.759 Y100.425 E46.03456
G1 X70.262 Y97.933 E46.11912
G1 X70.697 Y95.415 E46.20411
G1 X71.053 Y92.942 E46.28721
G1 X71.347 Y90.389 E46.37268
G1 X71.565 Y87.87 E46.45678
G1 X71.712 Y85.344 E46.54093
G1 X71.789 Y82.751 E46.62721
G1 X71.8 Y81.312 E46.67508
G1 X71.801 Y50.371 E47.70418
G1 X71.811 Y49.706 E47.7263
G1 X71.865 Y48.804 E47.75635
G1 X71.998 Y47.911 E47.78638
G1 X72.209 Y47.033 E47.81642
G1 X72.498 Y46.177 E47.84647
G1 X72.861 Y45.35 E47.87651
G1 X73.295 Y44.559 E47.90651
G1 F2700 E42.90651
G0 F6000 X80.323 Y103.868
G1 F2700 E47.90651
G1 F1200 X80.596 Y103.743 E47.9165
G1 X80.844 Y103.656 E47.92524
G1 X80.846 Y103.665 E47.92555
G1 X80.907 Y103.774 E47.9297
G1 X80.964 Y103.81 E47.93195
G1 X81 Y103.825 E47.93324
G1 X81 Y108.645 E48.09356
G1 X80.973 Y108.654 E48.0945
G1 X80.872 Y108.728 E48.09867
G1 X80.857 Y108.766 E48.10003
G1 X80.623 Y108.741 E48.10785
G1 X80.33 Y108.648 E48.11808
G1 X80.036 Y108.385 E48.1312
G1 X79.594 Y107.874 E48.15367
G1 X79.203 Y106.921 E48.18793
G1 X79.208 Y105.668 E48.22961
G1 X79.341 Y105.155 E48.24723
G1 X79.627 Y104.543 E48.2697
G1 X80.063 Y104.069 E48.29112
G1 X80.323 Y103.868 E48.30205
G0 F6000 X80.534 Y104.212
G1 F1200 X80.6 Y104.182 E48.30446
G1 X80.6 Y108.315 E48.44193
G1 X80.534 Y108.294 E48.44423
G1 X80.32 Y108.102 E48.45379
G1 X79.939 Y107.662 E48.47315
G1 X79.603 Y106.843 E48.50259
G1 X79.608 Y105.719 E48.53998
G1 X79.718 Y105.295 E48.55455
G1 X79.964 Y104.767 E48.57392
G1 X80.331 Y104.369 E48.59193
G1 X80.534 Y104.212 E48.60046
G0 F6000 X80.096 Y105.428
G1 F1200 X80.2 Y105.206 E48.60862
G1 X80.2 Y107.245 E48.67644
G1 X80.004 Y106.766 E48.69365
G1 X80.008 Y105.77 E48.72678
G1 X80.096 Y105.428 E48.73852
G1 F2700 E43.73852
G0 F6000 X81.347 Y49.197
G0 X153.653 Y49.197
G0 X154 Y103.851
G1 F2700 E48.73852
G1 F1200 X154.063 Y103.83 E48.74073
G1 X154.163 Y103.756 E48.74487
G1 X154.171 Y103.731 E48.74574
G1 X154.411 Y103.722 E48.75373
G1 X154.616 Y103.76 E48.76066
G1 X154.89 Y103.877 E48.77057
G1 X155.17 Y104.081 E48.7821
G1 X155.733 Y104.873 E48.81442
G1 X155.925 Y105.358 E48.83176
G1 X155.995 Y105.644 E48.84156
G1 X155.993 Y106.842 E48.8814
G1 X155.849 Y107.405 E48.90073
G1 X155.584 Y107.964 E48.92131
G1 X155.401 Y108.229 E48.93202
G1 X154.983 Y108.578 E48.95013
G1 X154.719 Y108.74 E48.96043
G1 X154.427 Y108.837 E48.97067
G1 X154.174 Y108.858 E48.97911
G1 X154.161 Y108.818 E48.98051
G1 X154.028 Y108.739 E48.98565
G1 X154 Y108.735 E48.98659
G1 X154 Y103.851 E49.14904
G0 F6000 X154.498 Y104.145
G1 F1200 X154.693 Y104.228 E49.15609
G1 X154.883 Y104.367 E49.16392
G1 X155.378 Y105.063 E49.19232
G1 X155.542 Y105.477 E49.20713
G1 X155.595 Y105.694 E49.21456
G1 X155.593 Y106.794 E49.25115
G1 X155.472 Y107.269 E49.26745
G1 X155.24 Y107.759 E49.28548
G1 X155.103 Y107.956 E49.29347
G1 X154.746 Y108.254 E49.30893
G1 X154.548 Y108.376 E49.31667
G1 X154.4 Y108.425 E49.32185
G1 X154.4 Y104.126 E49.46484
G1 X154.498 Y104.145 E49.46816
G0 F6000 X155.024 Y105.256
G1 F1200 X155.161 Y105.602 E49.48054
G1 X155.195 Y105.74 E49.48526
G1 X155.193 Y106.742 E49.51859
G1 X155.093 Y107.135 E49.53208
G1 X154.893 Y107.556 E49.54758
G1 X154.805 Y107.683 E49.55272
G1 X154.8 Y107.687 E49.55293
G1 X154.8 Y104.941 E49.64426
G1 X155.024 Y105.256 E49.65712
G1 F2700 E44.65712
;MESH:base_v2-base2 (2).stl
G0 F6000 X152.2 Y105.256
G0 X117.5 Y184.548
;TYPE:WALL-INNER
G1 F2700 E49.65712
G1 F1200 X152.4 Y184.548 E50.8179
G1 X152.4 Y50.448 E55.27808
