;FLAVOR:Marlin
;TIME:2387
;Filament used: 1.43442m
;Layer height: 0.2
;MINX:91.75
;MINY:91.5
;MINZ:0.2
;MAXX:158.22
;MAXY:143.5
;MAXZ:15
;TARGET_MACHINE.NAME:Creality Ender-3
;Generated with Cura_SteamEngine 5.8.1
M140 S50
M105
M190 S50
M104 S200
M105
M109 S200
M82 ;absolute extrusion mode
; Ender 3 Custom Start G-code
G92 E0 ; Reset Extruder
G28 ; Home all axes
G1 Z2.0 F3000 ; Move Z Axis up little to prevent scratching of Heat Bed
G1 X0.1 Y20 Z0.3 F5000.0 ; Move to start position
G1 X0.1 Y200.0 Z0.3 F1500.0 E15 ; Draw the first line
G1 X0.4 Y200.0 Z0.3 F5000.0 ; Move to side a little
G1 X0.4 Y20 Z0.3 F1500.0 E30 ; Draw the second line
G92 E0 ; Reset Extruder
G1 Z2.0 F3000 ; Move Z Axis up little to prevent scratching of Heat Bed
G1 X5 Y20 Z0.3 F5000.0 ; Move over to prevent blob squish
G92 E0
G92 E0
G1 F2700 E-5
;LAYER_COUNT:75
;LAYER:0
M107
G0 F6000 X95.206 Y94.513 Z0.2
;TYPE:SKIRT
G1 F2700 E0
G1 F1200 X95.942 Y93.876 E0.03237
G1 X96.674 Y93.346 E0.06243
G1 X97.571 Y92.811 E0.09717
G1 X98.449 Y92.39 E0.12956
G1 X99.362 Y92.048 E0.16198
G1 X100.299 Y91.789 E0.19432
G1 X101.266 Y91.611 E0.22702
G1 X102.405 Y91.515 E0.26504
G1 X103.062 Y91.5 E0.2869
G1 X116.053 Y91.5 E0.71898
G1 X116.928 Y91.511 E0.74808
G1 X117.529 Y91.538 E0.76809
G1 X118.608 Y91.615 E0.80407
G1 X121.228 Y91.763 E0.89135
G1 X123.768 Y91.836 E0.97587
G1 X126.258 Y91.836 E1.05868
G1 X128.784 Y91.765 E1.14273
G1 X131.334 Y91.621 E1.22768
G1 X132.414 Y91.54 E1.2637
G1 X132.926 Y91.513 E1.28076
G1 X133.55 Y91.5 E1.30152
G1 X146.671 Y91.501 E1.73792
G1 X147.404 Y91.513 E1.7623
G1 X148.376 Y91.572 E1.79469
G1 X149.339 Y91.718 E1.82709
G1 X150.286 Y91.949 E1.85951
G1 X151.174 Y92.249 E1.89068
G1 X152.066 Y92.639 E1.92306
G1 X152.949 Y93.126 E1.9566
G1 X153.7 Y93.628 E1.98665
G1 X154.515 Y94.286 E2.02149
G1 X155.213 Y94.964 E2.05385
G1 X155.849 Y95.701 E2.08623
G1 X156.419 Y96.491 E2.11863
G1 X156.881 Y97.267 E2.14867
G1 X157.335 Y98.209 E2.18345
G1 X157.664 Y99.087 E2.21463
G1 X157.933 Y100.059 E2.24818
G1 X158.11 Y101.025 E2.28084
G1 X158.205 Y102.155 E2.31856
G1 X158.22 Y102.83 E2.34101
G1 X158.219 Y131.9 E3.30789
G1 X158.208 Y132.663 E3.33327
G1 X158.151 Y133.636 E3.36568
G1 X158.006 Y134.599 E3.39808
G1 X157.777 Y135.545 E3.43045
G1 X157.466 Y136.469 E3.46287
G1 X157.074 Y137.36 E3.49525
G1 X156.606 Y138.212 E3.52758
G1 X156.084 Y138.993 E3.55883
G1 X155.451 Y139.778 E3.59237
G1 X154.826 Y140.429 E3.62238
G1 X154.037 Y141.117 E3.6572
G1 X153.277 Y141.667 E3.6884
G1 X152.41 Y142.184 E3.72198
G1 X151.532 Y142.606 E3.75438
G1 X150.621 Y142.948 E3.78674
G1 X149.682 Y143.209 E3.81916
G1 X148.716 Y143.387 E3.85183
G1 X147.565 Y143.485 E3.89025
G1 X146.89 Y143.5 E3.9127
G1 X133.77 Y143.499 E4.34908
G1 X133.046 Y143.489 E4.37316
G1 X132.449 Y143.462 E4.39304
G1 X131.379 Y143.386 E4.42871
G1 X128.742 Y143.237 E4.51656
G1 X126.202 Y143.164 E4.60108
G1 X123.712 Y143.164 E4.68389
G1 X121.186 Y143.235 E4.76794
G1 X118.636 Y143.379 E4.85289
G1 X117.556 Y143.46 E4.88891
G1 X117.044 Y143.487 E4.90597
G1 X116.42 Y143.5 E4.92672
G1 X103.299 Y143.499 E5.36313
G1 X102.566 Y143.487 E5.38751
G1 X101.594 Y143.428 E5.4199
G1 X100.631 Y143.282 E5.4523
G1 X99.684 Y143.051 E5.48472
G1 X98.796 Y142.751 E5.51589
G1 X97.904 Y142.361 E5.54827
G1 X97.021 Y141.874 E5.58181
G1 X96.27 Y141.372 E5.61186
G1 X95.455 Y140.714 E5.6467
G1 X94.757 Y140.036 E5.67906
G1 X94.121 Y139.299 E5.71144
G1 X93.551 Y138.509 E5.74384
G1 X93.089 Y137.733 E5.77388
G1 X92.635 Y136.791 E5.80866
G1 X92.306 Y135.913 E5.83984
G1 X92.037 Y134.94 E5.87342
G1 X91.86 Y133.973 E5.90612
G1 X91.764 Y132.808 E5.945
G1 X91.75 Y132.158 E5.96662
G1 X91.751 Y103.025 E6.93559
G1 X91.762 Y102.325 E6.95887
G1 X91.82 Y101.352 E6.99129
G1 X91.966 Y100.389 E7.02369
G1 X92.196 Y99.443 E7.05607
G1 X92.509 Y98.52 E7.08848
G1 X92.901 Y97.63 E7.12083
G1 X93.371 Y96.777 E7.15322
G1 X93.914 Y95.969 E7.1856
G1 X94.481 Y95.265 E7.21567
G1 X95.206 Y94.513 E7.25041
G0 F6000 X95.468 Y94.815
G1 F1200 X96.177 Y94.2 E7.28163
G1 X96.909 Y93.67 E7.31168
G1 X97.745 Y93.171 E7.34407
G1 X98.59 Y92.764 E7.37526
G1 X99.469 Y92.433 E7.4065
G1 X100.372 Y92.182 E7.43767
G1 X101.3 Y92.01 E7.46906
G1 X102.439 Y91.914 E7.50708
G1 X103.071 Y91.9 E7.52811
G1 X116.048 Y91.9 E7.95972
G1 X116.91 Y91.911 E7.9884
G1 X117.501 Y91.937 E8.00807
G1 X118.58 Y92.014 E8.04405
G1 X121.217 Y92.163 E8.1319
G1 X123.757 Y92.236 E8.21641
G1 X126.269 Y92.236 E8.29996
G1 X128.795 Y92.165 E8.38401
G1 X131.364 Y92.02 E8.46959
G1 X132.435 Y91.939 E8.50532
G1 X132.934 Y91.913 E8.52194
G1 X133.55 Y91.9 E8.54243
G1 X146.665 Y91.901 E8.97864
G1 X147.38 Y91.912 E9.00242
G1 X148.317 Y91.968 E9.03364
G1 X149.245 Y92.107 E9.06485
G1 X150.158 Y92.328 E9.09609
G1 X151.014 Y92.616 E9.12613
G1 X151.906 Y93.006 E9.15851
G1 X152.727 Y93.459 E9.1897
G1 X153.478 Y93.961 E9.21974
G1 X154.237 Y94.573 E9.25217
G1 X154.911 Y95.226 E9.28339
G1 X155.525 Y95.935 E9.31458
G1 X156.075 Y96.696 E9.34581
G1 X156.537 Y97.472 E9.37585
G1 X156.96 Y98.349 E9.40823
G1 X157.289 Y99.227 E9.43942
G1 X157.54 Y100.132 E9.47065
G1 X157.711 Y101.059 E9.50201
G1 X157.806 Y102.189 E9.53972
G1 X157.82 Y102.83 E9.56105
G1 X157.819 Y131.895 E10.52775
G1 X157.809 Y132.64 E10.55254
G1 X157.755 Y133.577 E10.58375
G1 X157.617 Y134.506 E10.61499
G1 X157.398 Y135.418 E10.64618
G1 X157.1 Y136.308 E10.6774
G1 X156.723 Y137.168 E10.70863
G1 X156.273 Y137.99 E10.7398
G1 X155.751 Y138.771 E10.77105
G1 X155.162 Y139.501 E10.80224
G1 X154.537 Y140.152 E10.83226
G1 X153.802 Y140.793 E10.8647
G1 X153.042 Y141.343 E10.8959
G1 X152.236 Y141.824 E10.92712
G1 X151.391 Y142.232 E10.95833
G1 X150.513 Y142.563 E10.98954
G1 X149.609 Y142.816 E11.02076
G1 X148.682 Y142.988 E11.05212
G1 X147.531 Y143.086 E11.09054
G1 X146.89 Y143.1 E11.11186
G1 X133.776 Y143.099 E11.54804
G1 X133.064 Y143.089 E11.57172
G1 X132.477 Y143.063 E11.59126
G1 X131.407 Y142.987 E11.62694
G1 X128.753 Y142.837 E11.71535
G1 X126.213 Y142.764 E11.79987
G1 X123.701 Y142.764 E11.88342
G1 X121.175 Y142.835 E11.96747
G1 X118.606 Y142.98 E12.05305
G1 X117.535 Y143.061 E12.08877
G1 X117.036 Y143.087 E12.10539
G1 X116.42 Y143.1 E12.12588
G1 X103.305 Y143.099 E12.56209
G1 X102.59 Y143.088 E12.58587
G1 X101.653 Y143.032 E12.61709
G1 X100.725 Y142.893 E12.6483
G1 X99.812 Y142.672 E12.67955
G1 X98.956 Y142.384 E12.70959
G1 X98.064 Y141.994 E12.74197
G1 X97.243 Y141.541 E12.77315
G1 X96.492 Y141.039 E12.8032
G1 X95.733 Y140.427 E12.83563
G1 X95.059 Y139.774 E12.86684
G1 X94.445 Y139.065 E12.89803
G1 X93.895 Y138.304 E12.92926
G1 X93.433 Y137.528 E12.9593
G1 X93.01 Y136.651 E12.99169
G1 X92.681 Y135.773 E13.02287
G1 X92.43 Y134.868 E13.05411
G1 X92.259 Y133.94 E13.08549
G1 X92.163 Y132.775 E13.12437
G1 X92.15 Y132.158 E13.1449
G1 X92.151 Y103.031 E14.11367
G1 X92.161 Y102.348 E14.13639
G1 X92.216 Y101.411 E14.1676
G1 X92.355 Y100.483 E14.19881
G1 X92.575 Y99.571 E14.23002
G1 X92.875 Y98.681 E14.26126
G1 X93.252 Y97.822 E14.29246
G1 X93.703 Y97 E14.32364
G1 X94.226 Y96.22 E14.35488
G1 X94.793 Y95.516 E14.38494
G1 X95.468 Y94.815 E14.41731
G0 F6000 X95.731 Y95.117
G1 F1200 X96.412 Y94.524 E14.44734
G1 X97.144 Y93.994 E14.4774
G1 X97.919 Y93.531 E14.50743
G1 X98.732 Y93.138 E14.53746
G1 X99.577 Y92.818 E14.56751
G1 X100.446 Y92.575 E14.59753
G1 X101.334 Y92.409 E14.62757
G1 X102.473 Y92.313 E14.66559
G1 X103.08 Y92.3 E14.68578
G1 X116.043 Y92.3 E15.11693
G1 X116.893 Y92.311 E15.14521
G1 X117.473 Y92.336 E15.16452
G1 X118.552 Y92.413 E15.2005
G1 X121.206 Y92.563 E15.28891
G1 X123.746 Y92.636 E15.37342
G1 X126.28 Y92.636 E15.45771
G1 X128.806 Y92.565 E15.54175
G1 X131.394 Y92.419 E15.62797
G1 X132.456 Y92.338 E15.66339
G1 X132.943 Y92.313 E15.67961
G1 X133.55 Y92.3 E15.69981
G1 X146.659 Y92.301 E16.13581
G1 X147.357 Y92.311 E16.15903
G1 X148.259 Y92.364 E16.18908
G1 X149.152 Y92.496 E16.21911
G1 X150.03 Y92.707 E16.24914
G1 X150.886 Y92.995 E16.27918
G1 X151.713 Y93.357 E16.30921
G1 X152.505 Y93.792 E16.33926
G1 X153.256 Y94.294 E16.3693
G1 X153.959 Y94.861 E16.39934
G1 X154.609 Y95.488 E16.42938
G1 X155.201 Y96.17 E16.45942
G1 X155.731 Y96.901 E16.48945
G1 X156.193 Y97.677 E16.51949
G1 X156.586 Y98.49 E16.54952
G1 X156.904 Y99.335 E16.57955
G1 X157.147 Y100.205 E16.60959
G1 X157.312 Y101.093 E16.63963
G1 X157.407 Y102.223 E16.67735
G1 X157.42 Y102.83 E16.69754
G1 X157.419 Y131.89 E17.66408
G1 X157.41 Y132.617 E17.68827
G1 X157.359 Y133.519 E17.71831
G1 X157.228 Y134.413 E17.74837
G1 X157.019 Y135.291 E17.77839
G1 X156.733 Y136.148 E17.80843
G1 X156.372 Y136.976 E17.83848
G1 X155.94 Y137.768 E17.86848
G1 X155.439 Y138.52 E17.89854
G1 X154.873 Y139.224 E17.92858
G1 X154.248 Y139.875 E17.9586
G1 X153.567 Y140.469 E17.98865
G1 X152.836 Y141 E18.0187
G1 X152.062 Y141.464 E18.04872
G1 X151.249 Y141.858 E18.07877
G1 X150.405 Y142.178 E18.10879
G1 X149.535 Y142.423 E18.13885
G1 X148.648 Y142.589 E18.16886
G1 X147.497 Y142.687 E18.20729
G1 X146.89 Y142.7 E18.22748
G1 X133.782 Y142.699 E18.66345
G1 X133.081 Y142.689 E18.68677
G1 X132.505 Y142.664 E18.70595
G1 X131.435 Y142.588 E18.74162
G1 X128.764 Y142.437 E18.8306
G1 X126.224 Y142.364 E18.91512
G1 X123.69 Y142.364 E18.9994
G1 X121.164 Y142.435 E19.08345
G1 X118.576 Y142.581 E19.16966
G1 X117.514 Y142.662 E19.20509
G1 X117.027 Y142.687 E19.22131
G1 X116.42 Y142.7 E19.2415
G1 X103.311 Y142.699 E19.67751
G1 X102.613 Y142.689 E19.70073
G1 X101.711 Y142.636 E19.73078
G1 X100.818 Y142.504 E19.7608
G1 X99.94 Y142.293 E19.79084
G1 X99.084 Y142.005 E19.82088
G1 X98.257 Y141.643 E19.8509
G1 X97.465 Y141.208 E19.88095
G1 X96.714 Y140.706 E19.911
G1 X96.011 Y140.139 E19.94104
G1 X95.361 Y139.512 E19.97108
G1 X94.769 Y138.83 E20.00111
G1 X94.239 Y138.099 E20.03115
G1 X93.777 Y137.323 E20.06118
G1 X93.384 Y136.51 E20.09122
G1 X93.066 Y135.665 E20.12125
G1 X92.823 Y134.795 E20.15129
G1 X92.658 Y133.907 E20.18133
G1 X92.563 Y132.766 E20.21941
G1 X92.55 Y132.158 E20.23964
G1 X92.551 Y103.036 E21.20824
G1 X92.56 Y102.371 E21.23036
G1 X92.612 Y101.469 E21.26041
G1 X92.744 Y100.576 E21.29043
G1 X92.954 Y99.698 E21.32046
G1 X93.241 Y98.841 E21.35052
G1 X93.603 Y98.014 E21.38055
G1 X94.036 Y97.222 E21.41057
G1 X94.538 Y96.471 E21.44061
G1 X95.105 Y95.767 E21.47068
G1 X95.731 Y95.117 E21.50069
G1 F2700 E16.50069
;MESH:soporte_2.stl
G0 F6000 X105.816 Y115.985
G0 X106.544 Y119.2
G0 X107.016 Y119.074
;TYPE:WALL-INNER
G1 F2700 E21.50069
G1 F1200 X106.552 Y119.096 E21.51614
G1 X106.111 Y118.963 E21.53146
G1 X105.781 Y118.769 E21.5442
G1 X105.601 Y118.609 E21.55221
G1 X105.328 Y118.25 E21.56721
G1 X105.189 Y117.844 E21.58148
G1 X105.148 Y117.5 E21.593
G1 X105.185 Y117.177 E21.60381
G1 X105.326 Y116.748 E21.61883
G1 X105.601 Y116.387 E21.63393
G1 X105.899 Y116.145 E21.6467
G1 X106.244 Y115.982 E21.65939
G1 X106.628 Y115.904 E21.67242
G1 X107.016 Y115.922 E21.68534
G1 X107.331 Y116.008 E21.6962
G1 X107.654 Y116.179 E21.70835
G1 X107.949 Y116.437 E21.72139
G1 X108.173 Y116.758 E21.73441
G1 X108.311 Y117.177 E21.74908
G1 X108.348 Y117.5 E21.75989
G1 X108.308 Y117.844 E21.77141
G1 X108.171 Y118.241 E21.78538
G1 X107.949 Y118.559 E21.79828
G1 X107.654 Y118.817 E21.81132
G1 X107.331 Y118.988 E21.82347
G1 X107.016 Y119.074 E21.83433
G1 F2700 E16.83433
G0 F6000 X106.544 Y119.2
G0 X107.063 Y119.249
G0 X107.063 Y131.7
G0 X110.7 Y131.9
G1 F2700 E21.83433
G1 F1200 X116.148 Y131.9 E22.01553
G1 X116.148 Y103.1 E22.97342
G1 X103.348 Y103.1 E23.39915
G1 X103.348 Y131.9 E24.35705
G1 X110.7 Y131.9 E24.60157
G0 F6000 X110.726 Y132.3
;TYPE:WALL-OUTER
G1 F1200 X116.548 Y132.3 E24.79522
G1 X116.548 Y102.7 E25.77972
G1 X102.948 Y102.7 E26.23205
G1 X102.948 Y132.3 E27.21655
G1 X110.726 Y132.3 E27.47525
G1 F2700 E22.47525
G0 F6000 X110.726 Y132
G0 X106.544 Y131.7
G0 X106.527 Y119.279
G0 X106.918 Y118.686
G1 F2700 E27.47525
G1 F1200 X106.602 Y118.693 E27.48576
G1 X106.298 Y118.609 E27.49625
G1 X106.047 Y118.47 E27.5058
G1 X105.835 Y118.274 E27.5154
G1 X105.676 Y118.035 E27.52495
G1 X105.581 Y117.767 E27.5344
G1 X105.549 Y117.473 E27.54424
G1 X105.592 Y117.185 E27.55392
G1 X105.699 Y116.917 E27.56352
G1 X105.867 Y116.686 E27.57302
G1 X106.086 Y116.499 E27.5826
G1 X106.342 Y116.37 E27.59214
G1 X106.578 Y116.31 E27.60023
G1 X106.868 Y116.304 E27.60988
G1 X107.18 Y116.378 E27.62055
G1 X107.429 Y116.51 E27.62992
G1 X107.65 Y116.703 E27.63968
G1 X107.82 Y116.961 E27.64996
G1 X107.915 Y117.229 E27.65941
G1 X107.947 Y117.527 E27.66938
G1 X107.914 Y117.775 E27.6777
G1 X107.82 Y118.035 E27.6869
G1 X107.65 Y118.293 E27.69717
G1 X107.429 Y118.486 E27.70693
G1 X107.18 Y118.618 E27.71631
G1 X106.918 Y118.686 E27.72531
G1 F2700 E22.72531
G0 F6000 X106.544 Y119.2
G0 X107.063 Y119.249
G0 X107.063 Y131.7
G0 X110.676 Y131.54
;TYPE:SKIN
G1 F2700 E27.72531
G1 F1200 X103.708 Y131.54 E27.95707
G1 X103.708 Y103.46 E28.89101
G1 X115.788 Y103.46 E29.29279
G1 X115.788 Y131.54 E30.22674
G1 X110.676 Y131.54 E30.39676
G1 F2700 E25.39676
G0 F6000 X110.676 Y131.8
G0 X106.544 Y131.7
G0 X106.527 Y119.279
G0 X106.502 Y119.458
G1 F2700 E30.39676
G1 F1200 X107.063 Y119.428 E30.41545
G1 X107.472 Y119.318 E30.42954
G1 X107.835 Y119.125 E30.44321
G1 X108.212 Y118.804 E30.45968
G1 X108.496 Y118.401 E30.47608
G1 X108.662 Y117.903 E30.49354
G1 X108.704 Y117.496 E30.50715
G1 X108.659 Y117.094 E30.5206
G1 X108.497 Y116.597 E30.53799
G1 X108.202 Y116.172 E30.55519
G1 X107.835 Y115.867 E30.57106
G1 X107.472 Y115.674 E30.58474
G1 X106.977 Y115.537 E30.60182
G1 X106.388 Y115.57 E30.62144
G1 X106.148 Y115.634 E30.6297
G1 X105.744 Y115.818 E30.64447
G1 X105.375 Y116.103 E30.65998
G1 X104.996 Y116.581 E30.68026
G1 X104.833 Y117.095 E30.6982
G1 X104.785 Y117.556 E30.71362
G1 X104.841 Y117.935 E30.72636
G1 X105.001 Y118.422 E30.74341
G1 X105.337 Y118.855 E30.76164
G1 X105.704 Y119.15 E30.7773
G1 X105.971 Y119.291 E30.78734
G1 X106.502 Y119.458 E30.80585
G1 F2700 E25.80585
G0 F6000 X106.544 Y119.2
G0 X103.548 Y119.279
G0 X103.908 Y131.061
G1 F2700 E30.80585
G1 F1200 X104.187 Y131.339 E30.81895
G0 F6000 X104.752 Y131.339
G1 F1200 X103.908 Y130.495 E30.85865
G0 F6000 X103.908 Y129.929
G1 F1200 X105.318 Y131.339 E30.92498
G0 F6000 X105.884 Y131.339
G1 F1200 X103.908 Y129.364 E31.0179
G0 F6000 X103.908 Y128.798
G1 F1200 X106.449 Y131.339 E31.13742
G0 F6000 X107.015 Y131.339
G1 F1200 X103.908 Y128.232 E31.28356
G0 F6000 X103.908 Y127.667
G1 F1200 X107.581 Y131.339 E31.4563
G0 F6000 X108.146 Y131.339
G1 F1200 X103.908 Y127.101 E31.65565
G0 F6000 X103.908 Y126.535
G1 F1200 X108.712 Y131.339 E31.88161
G0 F6000 X109.278 Y131.339
G1 F1200 X103.908 Y125.97 E32.13418
G0 F6000 X103.908 Y125.404
G1 F1200 X109.843 Y131.339 E32.41334
G0 F6000 X110.409 Y131.339
G1 F1200 X103.908 Y124.838 E32.71913
G0 F6000 X103.908 Y124.273
G1 F1200 X110.975 Y131.339 E33.05151
G0 F6000 X111.54 Y131.339
G1 F1200 X103.908 Y123.707 E33.4105
G0 F6000 X103.908 Y123.141
G1 F1200 X112.106 Y131.339 E33.79611
G0 F6000 X112.672 Y131.339
G1 F1200 X103.908 Y122.576 E34.20832
G0 F6000 X103.908 Y122.01
G1 F1200 X113.237 Y131.339 E34.64713
G0 F6000 X113.803 Y131.339
G1 F1200 X103.908 Y121.444 E35.11256
G0 F6000 X103.908 Y120.878
G1 F1200 X114.369 Y131.339 E35.60461
G0 F6000 X114.935 Y131.339
G1 F1200 X103.908 Y120.313 E36.12326
G0 F6000 X103.908 Y119.747
G1 F1200 X115.5 Y131.339 E36.66851
G0 F6000 X115.588 Y130.861
G1 F1200 X103.908 Y119.181 E37.21791
G0 F6000 X103.908 Y118.616
G1 F1200 X115.588 Y130.296 E37.7673
G0 F6000 X115.588 Y129.73
G1 F1200 X103.908 Y118.05 E38.31669
G0 F6000 X103.908 Y117.484
G1 F1200 X104.768 Y118.344 E38.35714
G0 F6000 X104.589 Y117.6
G1 F1200 X103.908 Y116.919 E38.38917
G0 F6000 X103.908 Y116.353
G1 F1200 X104.63 Y117.075 E38.42313
G0 F6000 X104.766 Y116.645
G1 F1200 X103.908 Y115.787 E38.46349
G0 F6000 X103.908 Y115.222
G1 F1200 X104.973 Y116.287 E38.51358
G0 F6000 X105.221 Y115.969
G1 F1200 X103.908 Y114.656 E38.57534
G0 F6000 X103.908 Y114.09
G1 F1200 X105.537 Y115.719 E38.65197
G0 F6000 X105.906 Y115.522
G1 F1200 X103.908 Y113.525 E38.74592
G0 F6000 X103.908 Y112.959
G1 F1200 X106.328 Y115.379 E38.85975
G0 F6000 X106.854 Y115.34
G1 F1200 X103.908 Y112.393 E38.99835
G0 F6000 X103.908 Y111.828
G1 F1200 X107.594 Y115.514 E39.17173
