;FLAVOR:Marlin
;TIME:14342
;Filament used: 10.4865m
;Layer height: 0.2
;MINX:26.478
;MINY:57.892
;MINZ:0.2
;MAXX:212.052
;MAXY:167.824
;MAXZ:16
;TARGET_MACHINE.NAME:Creality Ender-3
;Generated with Cura_SteamEngine 5.8.1
M140 S50
M105
M190 S50
M104 S200
M105
M109 S200
M82 ;absolute extrusion mode
; Ender 3 Custom Start G-code
G92 E0 ; Reset Extruder
G28 ; Home all axes
G1 Z2.0 F3000 ; Move Z Axis up little to prevent scratching of Heat Bed
G1 X0.1 Y20 Z0.3 F5000.0 ; Move to start position
G1 X0.1 Y200.0 Z0.3 F1500.0 E15 ; Draw the first line
G1 X0.4 Y200.0 Z0.3 F5000.0 ; Move to side a little
G1 X0.4 Y20 Z0.3 F1500.0 E30 ; Draw the second line
G92 E0 ; Reset Extruder
G1 Z2.0 F3000 ; Move Z Axis up little to prevent scratching of Heat Bed
G1 X5 Y20 Z0.3 F5000.0 ; Move over to prevent blob squish
G92 E0
G92 E0
G1 F2700 E-5
;LAYER_COUNT:80
;LAYER:0
M107
G0 F6000 X35.925 Y60.799 Z0.2
;TYPE:SKIRT
G1 F2700 E0
G1 F1200 X36.742 Y60.352 E0.03097
G1 X37.315 Y60.09 E0.05193
G1 X38.037 Y59.79 E0.07793
G1 X38.733 Y59.521 E0.10275
G1 X39.351 Y59.303 E0.12455
G1 X40.011 Y59.103 E0.14749
G1 X40.617 Y58.939 E0.16837
G1 X41.918 Y58.673 E0.21253
G1 X43.94 Y58.395 E0.28042
G1 X44.909 Y58.308 E0.31278
G1 X45.848 Y58.305 E0.34401
G1 X46.867 Y58.395 E0.37803
G1 X48.112 Y58.636 E0.42021
G1 X48.666 Y58.78 E0.43925
G1 X49.568 Y59.059 E0.47065
G1 X50.762 Y59.565 E0.51378
G1 X52.296 Y60.325 E0.57072
G1 X54.431 Y61.336 E0.64929
G1 X56.436 Y62.234 E0.72236
G1 X58.799 Y63.212 E0.80742
G1 X61.114 Y64.097 E0.88985
G1 X63.527 Y64.94 E0.97487
G1 X65.867 Y65.685 E1.05654
G1 X68.766 Y66.514 E1.15683
G1 X92.963 Y72.996 E1.99
G1 X95.547 Y73.65 E2.07866
G1 X97.967 Y74.188 E2.16111
G1 X100.447 Y74.668 E2.24513
G1 X102.946 Y75.078 E2.32936
G1 X105.406 Y75.411 E2.41192
G1 X107.956 Y75.684 E2.49722
G1 X110.44 Y75.877 E2.58009
G1 X112.944 Y76.002 E2.66347
G1 X115.476 Y76.056 E2.74771
G1 X117.97 Y76.039 E2.83066
G1 X120.509 Y75.949 E2.91516
G1 X123.041 Y75.789 E2.99954
G1 X125.518 Y75.561 E3.08228
G1 X127.995 Y75.262 E3.16526
G1 X130.531 Y74.883 E3.25054
G1 X132.966 Y74.449 E3.33281
G1 X135.457 Y73.931 E3.41743
G1 X137.934 Y73.343 E3.50211
G1 X139.209 Y73.012 E3.54592
G1 X172.172 Y64.178 E4.68096
G1 X174.688 Y63.467 E4.76792
G1 X177.137 Y62.697 E4.85331
G1 X179.502 Y61.88 E4.93653
G1 X181.393 Y61.177 E5.00363
G1 X181.693 Y61.074 E5.01418
G1 X182.547 Y60.818 E5.04383
G1 X183.579 Y60.586 E5.07901
G1 X185.151 Y60.312 E5.13209
G1 X187.642 Y59.832 E5.21646
G1 X190.074 Y59.29 E5.29934
G1 X192.61 Y58.648 E5.38634
G1 X194.167 Y58.242 E5.43986
G1 X195.121 Y58.04 E5.4723
G1 X196.087 Y57.924 E5.50466
G1 X196.989 Y57.892 E5.53467
G1 X198.034 Y57.949 E5.56948
G1 X198.963 Y58.085 E5.60071
G1 X199.945 Y58.318 E5.63428
G1 X200.867 Y58.627 E5.66662
G1 X201.76 Y59.015 E5.69901
G1 X202.554 Y59.446 E5.72905
G1 X203.425 Y60.025 E5.76384
G1 X204.183 Y60.635 E5.7962
G1 X204.861 Y61.284 E5.82742
G1 X205.524 Y62.044 E5.86096
G1 X206.097 Y62.833 E5.89339
G1 X206.595 Y63.667 E5.9257
G1 X207.007 Y64.515 E5.95706
G1 X207.443 Y65.696 E5.99893
G1 X207.629 Y66.332 E6.02097
G1 X211.5 Y80.77 E6.51814
G1 X211.729 Y81.674 E6.54916
G1 X211.911 Y82.558 E6.57918
G1 X212.031 Y83.598 E6.614
G1 X212.052 Y84.571 E6.64637
G1 X211.988 Y85.542 E6.67873
G1 X211.84 Y86.5 E6.71097
G1 X211.641 Y87.329 E6.73933
G1 X210.894 Y89.969 E6.83058
G1 X210.274 Y92.436 E6.91519
G1 X209.734 Y94.86 E6.99779
G1 X209.255 Y97.346 E7.08199
G1 X208.846 Y99.832 E7.16579
G1 X208.515 Y102.304 E7.24874
G1 X208.247 Y104.825 E7.33306
G1 X208.053 Y107.342 E7.41703
G1 X207.93 Y109.86 E7.50087
G1 X207.877 Y112.371 E7.58441
G1 X207.896 Y114.887 E7.66809
G1 X207.987 Y117.394 E7.75153
G1 X208.145 Y119.886 E7.83458
G1 X208.377 Y122.395 E7.91839
G1 X208.685 Y124.927 E8.00322
G1 X209.052 Y127.381 E8.08575
G1 X209.499 Y129.875 E8.17003
G1 X210.012 Y132.338 E8.2537
G1 X210.586 Y134.755 E8.33633
G1 X211.28 Y137.338 E8.42529
G1 X211.582 Y138.406 E8.4622
G1 X211.807 Y139.373 E8.49522
G1 X211.942 Y140.337 E8.5276
G1 X211.993 Y141.308 E8.55994
G1 X211.957 Y142.283 E8.59239
G1 X211.836 Y143.24 E8.62447
G1 X211.685 Y143.972 E8.64933
G1 X211.514 Y144.666 E8.6731
G1 X207.633 Y159.149 E9.17181
G1 X207.437 Y159.845 E9.19586
G1 X207.128 Y160.77 E9.22829
G1 X206.74 Y161.662 E9.26065
G1 X206.275 Y162.517 E9.29302
G1 X205.755 Y163.299 E9.32425
G1 X205.124 Y164.088 E9.35785
G1 X204.451 Y164.789 E9.39018
G1 X203.744 Y165.409 E9.42145
G1 X202.928 Y166.003 E9.45502
G1 X202.094 Y166.504 E9.48738
G1 X201.218 Y166.929 E9.51976
G1 X200.307 Y167.276 E9.55219
G1 X199.37 Y167.54 E9.58457
G1 X198.413 Y167.72 E9.61695
G1 X197.443 Y167.815 E9.64937
G1 X196.469 Y167.824 E9.68177
G1 X195.489 Y167.745 E9.71447
G1 X194.28 Y167.525 E9.75534
G1 X191.679 Y166.898 E9.84433
G1 X189.179 Y166.364 E9.92935
G1 X186.717 Y165.91 E10.01262
G1 X183.692 Y165.446 E10.11441
G1 X182.658 Y165.233 E10.14952
G1 X182.051 Y165.077 E10.17037
G1 X138.03 Y153.282 E11.68616
G1 X136.158 Y152.787 E11.75056
G1 X133.735 Y152.214 E11.83337
G1 X131.222 Y151.694 E11.91873
G1 X128.788 Y151.262 E12.00095
G1 X126.262 Y150.887 E12.08588
G1 X123.793 Y150.59 E12.16859
G1 X121.284 Y150.361 E12.25239
G1 X118.778 Y150.204 E12.3359
G1 X116.246 Y150.117 E12.42017
G1 X113.716 Y150.101 E12.50432
G1 X111.23 Y150.157 E12.58702
G1 X108.699 Y150.283 E12.67131
G1 X106.217 Y150.479 E12.75412
G1 X103.667 Y150.754 E12.83942
G1 X101.22 Y151.087 E12.92156
G1 X98.7 Y151.503 E13.00651
G1 X96.25 Y151.977 E13.08951
G1 X93.781 Y152.531 E13.17367
G1 X91.345 Y153.148 E13.25725
G1 X72.823 Y158.11 E13.89502
G1 X70.366 Y158.806 E13.97995
G1 X67.932 Y159.57 E14.0648
G1 X65.541 Y160.396 E14.14894
G1 X63.222 Y161.271 E14.23138
G1 X60.9 Y162.223 E14.31485
G1 X58.545 Y163.267 E14.40053
G1 X56.326 Y164.326 E14.4823
G1 X55.224 Y164.891 E14.52349
G1 X54.385 Y165.307 E14.55464
G1 X53.62 Y165.649 E14.58251
G1 X52.237 Y166.203 E14.63206
G1 X51.187 Y166.559 E14.66894
G1 X50.691 Y166.698 E14.68607
G1 X49.75 Y166.918 E14.71821
G1 X49.039 Y167.028 E14.74214
G1 X46.385 Y167.347 E14.83105
G1 X45.414 Y167.417 E14.86343
G1 X44.441 Y167.401 E14.8958
G1 X43.472 Y167.3 E14.9282
G1 X42.585 Y167.129 E14.95824
G1 X41.977 Y166.967 E14.97917
G1 X41.542 Y166.838 E14.99426
G1 X40.623 Y166.517 E15.02664
G1 X39.798 Y166.147 E15.05671
G1 X39.305 Y165.884 E15.0753
G1 X36.904 Y164.532 E15.16695
G1 X36.169 Y164.13 E15.19481
G1 X35.361 Y163.649 E15.22609
G1 X34.575 Y163.128 E15.25745
G1 X34.065 Y162.756 E15.27844
G1 X33.647 Y162.432 E15.29604
G1 X33.097 Y161.981 E15.31969
G1 X32.383 Y161.335 E15.35172
G1 X31.789 Y160.745 E15.37956
G1 X31.318 Y160.226 E15.40287
G1 X30.707 Y159.509 E15.43421
G1 X30.141 Y158.784 E15.4648
G1 X29.619 Y158.034 E15.49519
G1 X29.13 Y157.254 E15.52581
G1 X28.913 Y156.881 E15.54016
G1 X28.634 Y156.364 E15.5597
G1 X28.233 Y155.547 E15.58997
G1 X28.063 Y155.166 E15.60385
G1 X27.71 Y154.301 E15.63492
G1 X27.509 Y153.745 E15.65459
G1 X27.232 Y152.87 E15.68511
G1 X27.113 Y152.444 E15.69982
G1 X26.906 Y151.581 E15.72934
G1 X26.737 Y150.692 E15.75944
G1 X26.655 Y150.154 E15.77754
G1 X26.546 Y149.199 E15.80951
G1 X26.514 Y148.787 E15.82325
G1 X26.487 Y148.215 E15.8423
G1 X26.478 Y147.341 E15.87137
G1 X26.487 Y146.916 E15.88551
G1 X26.513 Y146.378 E15.90342
G1 X26.602 Y145.395 E15.93625
G1 X26.724 Y144.518 E15.9657
G1 X26.789 Y144.138 E15.97852
G1 X26.912 Y143.525 E15.99932
G1 X27.017 Y143.076 E16.01466
G1 X27.246 Y142.223 E16.04403
G1 X28.4 Y138.618 E16.16993
G1 X29.1 Y136.188 E16.25404
G1 X29.724 Y133.768 E16.33716
G1 X30.294 Y131.259 E16.42273
G1 X30.77 Y128.857 E16.50418
G1 X31.198 Y126.32 E16.58975
G1 X31.538 Y123.883 E16.67159
G1 X31.819 Y121.358 E16.75609
G1 X32.027 Y118.862 E16.8394
G1 X32.162 Y116.365 E16.92257
G1 X32.228 Y113.806 E17.00771
G1 X32.221 Y111.287 E17.09149
G1 X32.145 Y108.786 E17.17472
G1 X31.996 Y106.268 E17.25861
G1 X31.778 Y103.773 E17.34191
G1 X31.49 Y101.294 E17.42492
G1 X31.122 Y98.749 E17.51044
G1 X30.698 Y96.308 E17.59285
G1 X30.198 Y93.855 E17.67611
G1 X29.621 Y91.371 E17.76093
G1 X28.987 Y88.956 E17.84398
G1 X28.278 Y86.536 E17.92785
G1 X27.462 Y84.006 E18.01627
G1 X27.245 Y83.281 E18.04144
G1 X27.036 Y82.466 E18.06942
G1 X26.889 Y81.78 E18.09275
G1 X26.767 Y81.098 E18.1158
G1 X26.649 Y80.192 E18.14619
G1 X26.597 Y79.608 E18.16569
G1 X26.551 Y78.798 E18.19267
G1 X26.544 Y78.136 E18.21469
G1 X26.563 Y77.302 E18.24244
G1 X26.611 Y76.5 E18.26916
G1 X26.708 Y75.636 E18.29808
G1 X26.792 Y75.079 E18.31681
G1 X26.958 Y74.183 E18.34712
G1 X27.153 Y73.379 E18.37464
G1 X27.402 Y72.507 E18.4048
G1 X27.706 Y71.599 E18.43665
G1 X28.018 Y70.806 E18.46499
G1 X28.357 Y70.044 E18.49273
G1 X28.558 Y69.63 E18.50804
G1 X28.835 Y69.098 E18.52798
G1 X29.245 Y68.38 E18.55548
G1 X29.456 Y68.035 E18.56894
G1 X29.805 Y67.503 E18.5901
G1 X30.099 Y67.083 E18.60715
G1 X30.415 Y66.654 E18.62487
G1 X31.217 Y65.619 E18.66842
G1 X32.579 Y63.833 E18.74312
G1 X33.305 Y62.982 E18.78033
G1 X33.651 Y62.619 E18.79701
G1 X34.354 Y61.947 E18.82936
G1 X35.115 Y61.338 E18.86177
G1 X35.925 Y60.799 E18.89413
G0 F6000 X36.117 Y61.15
G1 F1200 X36.934 Y60.703 E18.92511
G1 X37.469 Y60.459 E18.94467
G1 X38.181 Y60.163 E18.97031
G1 X38.866 Y59.898 E18.99474
G1 X39.467 Y59.686 E19.01594
G1 X40.116 Y59.489 E19.0385
G1 X40.697 Y59.331 E19.05852
G1 X41.998 Y59.065 E19.10269
G1 X43.976 Y58.793 E19.1691
G1 X44.91 Y58.708 E19.20029
G1 X45.849 Y58.705 E19.23152
G1 X46.791 Y58.788 E19.26297
G1 X48.036 Y59.029 E19.30515
G1 X48.548 Y59.162 E19.32274
G1 X49.45 Y59.441 E19.35415
G1 X50.584 Y59.923 E19.39513
G1 X52.125 Y60.687 E19.45234
G1 X54.26 Y61.698 E19.53091
G1 X56.283 Y62.604 E19.60463
G1 X58.656 Y63.586 E19.69005
G1 X60.976 Y64.473 E19.77266
G1 X63.395 Y65.318 E19.85788
G1 X65.757 Y66.07 E19.94033
G1 X68.656 Y66.898 E20.04061
G1 X92.865 Y73.384 E20.8742
G1 X95.449 Y74.038 E20.96285
G1 X97.891 Y74.581 E21.04606
G1 X100.378 Y75.062 E21.13031
G1 X102.881 Y75.473 E21.21467
G1 X105.363 Y75.809 E21.29798
G1 X107.915 Y76.082 E21.38334
G1 X110.42 Y76.277 E21.46691
G1 X112.924 Y76.402 E21.5503
G1 X115.471 Y76.456 E21.63503
G1 X117.984 Y76.439 E21.71862
G1 X120.523 Y76.349 E21.80312
G1 X123.07 Y76.188 E21.888
G1 X125.566 Y75.958 E21.97137
G1 X128.054 Y75.658 E22.05472
G1 X130.59 Y75.279 E22.14
G1 X133.046 Y74.841 E22.22298
G1 X135.538 Y74.323 E22.30763
G1 X138.035 Y73.73 E22.39299
G1 X139.31 Y73.399 E22.43681
G1 X172.281 Y64.563 E23.57212
G1 X174.808 Y63.849 E23.65946
G1 X177.257 Y63.079 E23.74485
G1 X179.633 Y62.258 E23.82846
G1 X181.523 Y61.555 E23.89553
G1 X181.808 Y61.457 E23.90555
G1 X182.662 Y61.201 E23.93521
G1 X183.648 Y60.98 E23.96881
G1 X185.227 Y60.705 E24.02212
G1 X187.718 Y60.224 E24.1065
G1 X190.172 Y59.678 E24.19012
G1 X192.708 Y59.036 E24.27713
G1 X194.251 Y58.633 E24.33017
G1 X195.169 Y58.437 E24.36139
G1 X196.101 Y58.324 E24.39262
G1 X197.003 Y58.292 E24.42264
G1 X197.976 Y58.345 E24.45505
G1 X198.905 Y58.481 E24.48627
G1 X199.818 Y58.697 E24.51748
G1 X200.708 Y58.994 E24.54869
G1 X201.569 Y59.367 E24.57989
G1 X202.363 Y59.798 E24.60994
G1 X203.175 Y60.337 E24.64236
G1 X203.906 Y60.924 E24.67354
G1 X204.584 Y61.573 E24.70476
G1 X205.201 Y62.28 E24.73597
G1 X205.754 Y63.039 E24.7672
G1 X206.236 Y63.843 E24.79838
G1 X206.632 Y64.654 E24.8284
G1 X207.059 Y65.808 E24.86932
G1 X207.243 Y66.436 E24.89109
G1 X211.112 Y80.868 E25.38805
G1 X211.337 Y81.755 E25.41848
G1 X211.519 Y82.639 E25.4485
G1 X211.631 Y83.607 E25.48091
G1 X211.653 Y84.545 E25.51212
G1 X211.593 Y85.481 E25.54332
G1 X211.451 Y86.407 E25.57447
G1 X211.256 Y87.22 E25.60228
G1 X210.509 Y89.86 E25.69354
G1 X209.886 Y92.338 E25.77852
G1 X209.341 Y94.784 E25.86187
G1 X208.862 Y97.27 E25.94607
G1 X208.452 Y99.767 E26.03024
G1 X208.117 Y102.262 E26.11397
G1 X207.849 Y104.783 E26.19829
G1 X207.654 Y107.311 E26.28262
G1 X207.53 Y109.84 E26.36683
G1 X207.477 Y112.363 E26.45077
G1 X207.496 Y114.902 E26.53522
G1 X207.587 Y117.409 E26.61866
G1 X207.747 Y119.923 E26.70244
G1 X207.98 Y122.443 E26.78661
G1 X208.289 Y124.986 E26.87182
G1 X208.658 Y127.452 E26.95475
G1 X209.107 Y129.957 E27.03939
G1 X209.62 Y132.42 E27.12307
G1 X210.2 Y134.859 E27.20646
G1 X210.895 Y137.447 E27.29558
G1 X211.197 Y138.515 E27.3325
G1 X211.411 Y139.429 E27.36372
G1 X211.543 Y140.358 E27.39493
G1 X211.593 Y141.294 E27.4261
G1 X211.56 Y142.233 E27.45735
G1 X211.444 Y143.16 E27.48843
G1 X211.297 Y143.876 E27.51274
G1 X211.128 Y144.562 E27.53624
G1 X207.248 Y159.041 E28.0348
G1 X207.057 Y159.719 E28.05823
G1 X206.761 Y160.611 E28.08949
G1 X206.388 Y161.471 E28.12067
G1 X205.941 Y162.296 E28.15187
G1 X205.442 Y163.05 E28.18195
G1 X204.835 Y163.811 E28.21432
G1 X204.187 Y164.488 E28.24549
G1 X203.48 Y165.108 E28.27677
G1 X202.722 Y165.66 E28.30796
G1 X201.919 Y166.144 E28.33914
G1 X201.075 Y166.555 E28.37036
G1 X200.198 Y166.891 E28.4016
G1 X199.295 Y167.147 E28.43282
G1 X198.373 Y167.322 E28.46403
G1 X197.439 Y167.415 E28.49525
G1 X196.5 Y167.425 E28.52648
G1 X195.56 Y167.351 E28.55784
G1 X194.374 Y167.136 E28.59793
G1 X191.773 Y166.509 E28.68692
G1 X189.263 Y165.973 E28.77229
G1 X186.785 Y165.516 E28.8561
G1 X183.772 Y165.054 E28.95748
G1 X182.758 Y164.846 E28.99191
G1 X182.155 Y164.691 E29.01262
G1 X138.132 Y152.895 E30.52848
G1 X136.26 Y152.4 E30.59288
G1 X133.816 Y151.822 E30.67641
G1 X131.303 Y151.302 E30.76177
G1 X128.847 Y150.866 E30.84473
G1 X126.321 Y150.491 E30.92967
G1 X123.841 Y150.193 E31.01274
G1 X121.309 Y149.962 E31.09731
G1 X118.792 Y149.804 E31.18119
G1 X116.26 Y149.717 E31.26545
G1 X113.71 Y149.701 E31.35027
G1 X111.21 Y149.757 E31.43344
G1 X108.679 Y149.883 E31.51772
G1 X106.179 Y150.081 E31.60114
G1 X103.624 Y150.356 E31.68661
G1 X101.155 Y150.692 E31.76948
G1 X98.63 Y151.109 E31.8546
G1 X96.174 Y151.585 E31.93781
G1 X93.683 Y152.143 E32.02271
G1 X91.247 Y152.76 E32.10629
G1 X72.714 Y157.725 E32.74444
G1 X70.246 Y158.424 E32.82975
G1 X67.812 Y159.188 E32.9146
G1 X65.41 Y160.018 E32.99913
G1 X63.07 Y160.901 E33.08232
G1 X60.738 Y161.857 E33.16614
G1 X58.383 Y162.901 E33.25182
G1 X56.154 Y163.965 E33.33397
G1 X55.046 Y164.533 E33.37538
G1 X54.222 Y164.942 E33.40598
G1 X53.471 Y165.278 E33.43335
G1 X52.108 Y165.824 E33.48218
G1 X51.078 Y166.174 E33.51836
G1 X50.599 Y166.309 E33.53492
G1 X49.689 Y166.523 E33.56601
G1 X48.991 Y166.631 E33.5895
G1 X46.356 Y166.948 E33.67777
G1 X45.42 Y167.017 E33.70899
G1 X44.482 Y167.003 E33.74019
G1 X43.548 Y166.907 E33.77142
G1 X42.661 Y166.736 E33.80146
G1 X42.091 Y166.584 E33.82108
G1 X41.673 Y166.46 E33.83559
G1 X40.787 Y166.152 E33.86678
G1 X39.962 Y165.782 E33.89686
G1 X39.501 Y165.536 E33.91424
G1 X37.096 Y164.181 E34.00605
G1 X36.373 Y163.786 E34.03345
G1 X35.582 Y163.316 E34.06405
G1 X34.811 Y162.805 E34.09482
G1 X34.31 Y162.44 E34.11543
G1 X33.9 Y162.122 E34.13269
G1 X33.365 Y161.684 E34.15569
G1 X32.665 Y161.051 E34.18708
G1 X32.085 Y160.476 E34.21424
G1 X31.622 Y159.967 E34.23713
G1 X31.022 Y159.263 E34.26789
G1 X30.469 Y158.555 E34.29777
G1 X29.958 Y157.822 E34.32749
G1 X29.476 Y157.053 E34.35768
G1 X29.265 Y156.69 E34.37164
G1 X28.993 Y156.188 E34.39063
G1 X28.598 Y155.384 E34.42043
G1 X28.433 Y155.015 E34.43387
G1 X28.086 Y154.165 E34.46441
G1 X27.89 Y153.624 E34.48355
G1 X27.617 Y152.762 E34.51362
G1 X27.502 Y152.35 E34.52785
G1 X27.299 Y151.506 E34.55672
G1 X27.132 Y150.632 E34.58631
G1 X27.052 Y150.109 E34.60391
G1 X26.945 Y149.168 E34.63541
G1 X26.914 Y148.768 E34.64875
G1 X26.887 Y148.211 E34.6673
G1 X26.878 Y147.35 E34.69594
G1 X26.887 Y146.935 E34.70975
G1 X26.913 Y146.397 E34.72766
G1 X26.998 Y145.45 E34.75929
G1 X27.118 Y144.585 E34.78833
G1 X27.181 Y144.216 E34.80078
G1 X27.301 Y143.616 E34.82113
G1 X27.403 Y143.18 E34.83603
G1 X27.627 Y142.345 E34.86478
G1 X28.781 Y138.74 E34.99068
G1 X29.484 Y136.299 E35.07516
G1 X30.111 Y133.868 E35.15867
G1 X30.684 Y131.348 E35.24462
G1 X31.162 Y128.935 E35.32644
G1 X31.592 Y126.387 E35.41238
G1 X31.936 Y123.927 E35.495
G1 X32.217 Y121.402 E35.5795
G1 X32.425 Y118.895 E35.66317
G1 X32.562 Y116.375 E35.74711
G1 X32.628 Y113.816 E35.83225
G1 X32.621 Y111.286 E35.9164
G1 X32.545 Y108.774 E35.99998
G1 X32.395 Y106.244 E36.08428
G1 X32.176 Y103.738 E36.16795
G1 X31.886 Y101.237 E36.25169
G1 X31.518 Y98.692 E36.33722
