;FLAVOR:Marlin
;TIME:2759
;Filament used: 1.56962m
;Layer height: 0.2
;MINX:74.195
;MINY:100.5
;MINZ:0.2
;MAXX:162.762
;MAXY:134.5
;MAXZ:15.2
;TARGET_MACHINE.NAME:Creality Ender-3
;Generated with Cura_SteamEngine 5.8.1
M140 S50
M105
M190 S50
M104 S200
M105
M109 S200
M82 ;absolute extrusion mode
; Ender 3 Custom Start G-code
G92 E0 ; Reset Extruder
G28 ; Home all axes
G1 Z2.0 F3000 ; Move Z Axis up little to prevent scratching of Heat Bed
G1 X0.1 Y20 Z0.3 F5000.0 ; Move to start position
G1 X0.1 Y200.0 Z0.3 F1500.0 E15 ; Draw the first line
G1 X0.4 Y200.0 Z0.3 F5000.0 ; Move to side a little
G1 X0.4 Y20 Z0.3 F1500.0 E30 ; Draw the second line
G92 E0 ; Reset Extruder
G1 Z2.0 F3000 ; Move Z Axis up little to prevent scratching of Heat Bed
G1 X5 Y20 Z0.3 F5000.0 ; Move over to prevent blob squish
G92 E0
G92 E0
G1 F2700 E-5
;LAYER_COUNT:76
;LAYER:0
M107
G0 F6000 X78.387 Y102.876 Z0.2
;TYPE:SKIRT
G1 F2700 E0
G1 F1200 X79.119 Y102.346 E0.03006
G1 X80.016 Y101.811 E0.0648
G1 X80.894 Y101.39 E0.09718
G1 X81.807 Y101.048 E0.12961
G1 X82.744 Y100.789 E0.16194
G1 X83.711 Y100.611 E0.19465
G1 X84.85 Y100.515 E0.23266
G1 X85.507 Y100.5 E0.25452
G1 X112.152 Y100.5 E1.14074
G1 X113.322 Y100.52 E1.17966
G1 X114.764 Y100.583 E1.22766
G1 X117.361 Y100.655 E1.31407
G1 X119.849 Y100.653 E1.39682
G1 X122.443 Y100.577 E1.48314
G1 X123.717 Y100.516 E1.52556
G1 X124.442 Y100.5 E1.54968
G1 X151.213 Y100.501 E2.44009
G1 X151.946 Y100.513 E2.46447
G1 X152.918 Y100.572 E2.49686
G1 X153.881 Y100.718 E2.52925
G1 X154.828 Y100.949 E2.56167
G1 X155.716 Y101.249 E2.59285
G1 X156.608 Y101.639 E2.62523
G1 X157.491 Y102.126 E2.65877
G1 X158.242 Y102.628 E2.68881
G1 X159.057 Y103.286 E2.72365
G1 X159.755 Y103.964 E2.75602
G1 X160.391 Y104.701 E2.7884
G1 X160.961 Y105.491 E2.8208
G1 X161.423 Y106.267 E2.85083
G1 X161.877 Y107.209 E2.88561
G1 X162.206 Y108.087 E2.9168
G1 X162.475 Y109.059 E2.95034
G1 X162.652 Y110.025 E2.98301
G1 X162.747 Y111.155 E3.02072
G1 X162.762 Y111.83 E3.04318
G1 X162.761 Y122.9 E3.41137
G1 X162.75 Y123.663 E3.43675
G1 X162.693 Y124.636 E3.46917
G1 X162.548 Y125.599 E3.50156
G1 X162.319 Y126.545 E3.53393
G1 X162.008 Y127.469 E3.56636
G1 X161.616 Y128.36 E3.59873
G1 X161.148 Y129.212 E3.63107
G1 X160.626 Y129.993 E3.66231
G1 X159.993 Y130.778 E3.69585
G1 X159.368 Y131.429 E3.72587
G1 X158.579 Y132.117 E3.76068
G1 X157.819 Y132.667 E3.79189
G1 X156.952 Y133.184 E3.82546
G1 X156.074 Y133.606 E3.85786
G1 X155.163 Y133.948 E3.89022
G1 X154.224 Y134.209 E3.92264
G1 X153.258 Y134.387 E3.95531
G1 X152.107 Y134.485 E3.99373
G1 X151.432 Y134.5 E4.01619
G1 X124.658 Y134.499 E4.90669
G1 X123.636 Y134.48 E4.94069
G1 X122.193 Y134.417 E4.98873
G1 X119.596 Y134.345 E5.07514
G1 X117.109 Y134.347 E5.15786
G1 X114.518 Y134.422 E5.24407
G1 X113.245 Y134.483 E5.28646
G1 X112.515 Y134.5 E5.31075
G1 X85.759 Y134.499 E6.20066
G1 X85.026 Y134.488 E6.22504
G1 X84.054 Y134.431 E6.25742
G1 X83.091 Y134.285 E6.28982
G1 X82.145 Y134.056 E6.32219
G1 X81.221 Y133.744 E6.35463
G1 X80.331 Y133.352 E6.38697
G1 X79.508 Y132.901 E6.41819
G1 X78.669 Y132.34 E6.45176
G1 X77.965 Y131.774 E6.4818
G1 X77.212 Y131.049 E6.51657
G1 X76.575 Y130.313 E6.54894
G1 X76.045 Y129.582 E6.57897
G1 X75.509 Y128.685 E6.61373
G1 X75.087 Y127.807 E6.64613
G1 X74.745 Y126.895 E6.67852
G1 X74.485 Y125.957 E6.7109
G1 X74.307 Y124.988 E6.74367
G1 X74.209 Y123.809 E6.78302
G1 X74.195 Y123.158 E6.80467
G1 X74.196 Y112.025 E7.17496
G1 X74.207 Y111.325 E7.19824
G1 X74.265 Y110.352 E7.23066
G1 X74.411 Y109.389 E7.26306
G1 X74.641 Y108.443 E7.29544
G1 X74.954 Y107.52 E7.32786
G1 X75.346 Y106.63 E7.3602
G1 X75.816 Y105.777 E7.39259
G1 X76.359 Y104.969 E7.42497
G1 X76.926 Y104.265 E7.45504
G1 X77.651 Y103.513 E7.48978
G1 X78.387 Y102.876 E7.52216
G0 F6000 X78.622 Y103.2
G1 F1200 X79.354 Y102.67 E7.55221
G1 X80.19 Y102.171 E7.5846
G1 X81.035 Y101.764 E7.61579
G1 X81.914 Y101.433 E7.64703
G1 X82.817 Y101.182 E7.6782
G1 X83.745 Y101.01 E7.70959
G1 X84.884 Y100.914 E7.74761
G1 X85.516 Y100.9 E7.76864
G1 X112.145 Y100.9 E8.65432
G1 X113.305 Y100.92 E8.69291
G1 X114.747 Y100.983 E8.74092
G1 X117.35 Y101.055 E8.82752
G1 X119.861 Y101.053 E8.91104
G1 X122.462 Y100.977 E8.99759
G1 X123.726 Y100.916 E9.03968
G1 X124.442 Y100.9 E9.0635
G1 X151.207 Y100.901 E9.9537
G1 X151.922 Y100.912 E9.97749
G1 X152.859 Y100.968 E10.00871
G1 X153.787 Y101.107 E10.03992
G1 X154.7 Y101.328 E10.07116
G1 X155.556 Y101.616 E10.1012
G1 X156.448 Y102.006 E10.13358
G1 X157.269 Y102.459 E10.16477
G1 X158.02 Y102.961 E10.19481
G1 X158.779 Y103.573 E10.22724
G1 X159.453 Y104.226 E10.25845
G1 X160.067 Y104.935 E10.28965
G1 X160.617 Y105.696 E10.32088
G1 X161.079 Y106.472 E10.35092
G1 X161.502 Y107.349 E10.3833
G1 X161.831 Y108.227 E10.41449
G1 X162.082 Y109.132 E10.44572
G1 X162.253 Y110.059 E10.47708
G1 X162.348 Y111.189 E10.51479
G1 X162.362 Y111.83 E10.53612
G1 X162.361 Y122.895 E10.90414
G1 X162.351 Y123.64 E10.92892
G1 X162.297 Y124.577 E10.96014
G1 X162.159 Y125.506 E10.99138
G1 X161.94 Y126.418 E11.02257
G1 X161.642 Y127.308 E11.05379
G1 X161.265 Y128.168 E11.08502
G1 X160.815 Y128.99 E11.11619
G1 X160.293 Y129.771 E11.14743
G1 X159.704 Y130.501 E11.17863
G1 X159.079 Y131.152 E11.20865
G1 X158.344 Y131.793 E11.24108
G1 X157.584 Y132.343 E11.27229
G1 X156.778 Y132.824 E11.3035
G1 X155.933 Y133.232 E11.33471
G1 X155.055 Y133.563 E11.36592
G1 X154.151 Y133.816 E11.39714
G1 X153.224 Y133.988 E11.4285
G1 X152.073 Y134.086 E11.46692
G1 X151.432 Y134.1 E11.48825
G1 X124.666 Y134.099 E12.37849
G1 X123.653 Y134.08 E12.41219
G1 X122.21 Y134.017 E12.46023
G1 X119.607 Y133.945 E12.54684
G1 X117.097 Y133.947 E12.63032
G1 X114.498 Y134.022 E12.7168
G1 X113.231 Y134.084 E12.75899
G1 X112.515 Y134.1 E12.78281
G1 X85.765 Y134.099 E13.67252
G1 X85.049 Y134.089 E13.69634
G1 X84.113 Y134.035 E13.72752
G1 X83.184 Y133.896 E13.75876
G1 X82.272 Y133.677 E13.78996
G1 X81.382 Y133.378 E13.82118
G1 X80.523 Y133.001 E13.85239
G1 X79.7 Y132.55 E13.8836
G1 X78.92 Y132.028 E13.91482
G1 X78.216 Y131.462 E13.94486
G1 X77.514 Y130.787 E13.97725
G1 X76.899 Y130.078 E14.00847
G1 X76.369 Y129.347 E14.0385
G1 X75.869 Y128.511 E14.0709
G1 X75.461 Y127.666 E14.10211
G1 X75.13 Y126.788 E14.13332
G1 X74.878 Y125.884 E14.16453
G1 X74.706 Y124.955 E14.19595
G1 X74.608 Y123.776 E14.2353
G1 X74.595 Y123.158 E14.25586
G1 X74.596 Y112.031 E14.62595
G1 X74.606 Y111.348 E14.64867
G1 X74.661 Y110.411 E14.67988
G1 X74.8 Y109.483 E14.71109
G1 X75.02 Y108.571 E14.7423
G1 X75.32 Y107.681 E14.77354
G1 X75.697 Y106.822 E14.80474
G1 X76.148 Y106 E14.83592
G1 X76.671 Y105.22 E14.86716
G1 X77.238 Y104.516 E14.89722
G1 X77.913 Y103.815 E14.92959
G1 X78.622 Y103.2 E14.96081
G0 F6000 X78.857 Y103.524
G1 F1200 X79.589 Y102.994 E14.99086
G1 X80.364 Y102.531 E15.02089
G1 X81.177 Y102.138 E15.05092
G1 X82.022 Y101.818 E15.08098
G1 X82.891 Y101.575 E15.11099
G1 X83.779 Y101.409 E15.14103
G1 X84.918 Y101.313 E15.17905
G1 X85.525 Y101.3 E15.19925
G1 X112.138 Y101.3 E16.0844
G1 X113.288 Y101.32 E16.12265
G1 X114.73 Y101.383 E16.17066
G1 X117.339 Y101.455 E16.25747
G1 X119.873 Y101.453 E16.34175
G1 X122.481 Y101.377 E16.42853
G1 X123.735 Y101.316 E16.47029
G1 X124.442 Y101.3 E16.49381
G1 X151.201 Y101.301 E17.38382
G1 X151.899 Y101.311 E17.40703
G1 X152.801 Y101.364 E17.43709
G1 X153.694 Y101.496 E17.46711
G1 X154.572 Y101.707 E17.49714
G1 X155.428 Y101.995 E17.52718
G1 X156.255 Y102.357 E17.55721
G1 X157.047 Y102.792 E17.58726
G1 X157.798 Y103.294 E17.61731
G1 X158.501 Y103.861 E17.64735
G1 X159.151 Y104.488 E17.67738
G1 X159.743 Y105.17 E17.70742
G1 X160.273 Y105.901 E17.73745
G1 X160.735 Y106.677 E17.76749
G1 X161.128 Y107.49 E17.79752
G1 X161.446 Y108.335 E17.82755
G1 X161.689 Y109.205 E17.8576
G1 X161.854 Y110.093 E17.88764
G1 X161.949 Y111.223 E17.92535
G1 X161.962 Y111.83 E17.94555
G1 X161.961 Y122.89 E18.3134
G1 X161.952 Y123.617 E18.33759
G1 X161.901 Y124.519 E18.36764
G1 X161.77 Y125.413 E18.39769
G1 X161.561 Y126.291 E18.42771
G1 X161.275 Y127.148 E18.45776
G1 X160.914 Y127.976 E18.4878
G1 X160.482 Y128.768 E18.5178
G1 X159.981 Y129.52 E18.54786
G1 X159.415 Y130.224 E18.5779
G1 X158.79 Y130.875 E18.60792
G1 X158.109 Y131.469 E18.63797
G1 X157.378 Y132 E18.66802
G1 X156.604 Y132.464 E18.69804
G1 X155.791 Y132.858 E18.72809
G1 X154.947 Y133.178 E18.75811
G1 X154.077 Y133.423 E18.78817
G1 X153.19 Y133.589 E18.81819
G1 X152.039 Y133.687 E18.85661
G1 X151.432 Y133.7 E18.8768
G1 X124.674 Y133.699 E19.76677
G1 X123.67 Y133.68 E19.80017
G1 X122.227 Y133.617 E19.84821
G1 X119.618 Y133.545 E19.93502
G1 X117.085 Y133.547 E20.01927
G1 X114.478 Y133.622 E20.10602
G1 X113.222 Y133.684 E20.14784
G1 X112.515 Y133.7 E20.17136
G1 X85.77 Y133.699 E21.0609
G1 X85.072 Y133.69 E21.08412
G1 X84.171 Y133.639 E21.11414
G1 X83.277 Y133.507 E21.14419
G1 X82.399 Y133.298 E21.17421
G1 X81.542 Y133.011 E21.20427
G1 X80.715 Y132.65 E21.23428
G1 X79.922 Y132.217 E21.26434
G1 X79.171 Y131.716 E21.29436
G1 X78.467 Y131.15 E21.32441
G1 X77.816 Y130.524 E21.35445
G1 X77.223 Y129.843 E21.38448
G1 X76.693 Y129.112 E21.41451
G1 X76.229 Y128.337 E21.44455
G1 X75.835 Y127.524 E21.4746
G1 X75.515 Y126.68 E21.50462
G1 X75.271 Y125.81 E21.53468
G1 X75.105 Y124.922 E21.56472
G1 X75.008 Y123.767 E21.60327
G1 X74.995 Y123.158 E21.62353
G1 X74.996 Y112.036 E21.99345
G1 X75.005 Y111.371 E22.01557
G1 X75.057 Y110.469 E22.04562
G1 X75.189 Y109.576 E22.07565
G1 X75.399 Y108.698 E22.10567
G1 X75.686 Y107.841 E22.13573
G1 X76.048 Y107.014 E22.16576
G1 X76.481 Y106.222 E22.19578
G1 X76.983 Y105.471 E22.22583
G1 X77.55 Y104.767 E22.25589
G1 X78.176 Y104.117 E22.28591
G1 X78.857 Y103.524 E22.31594
G1 F2700 E17.31594
G0 F6000 X85.395 Y111.7
G1 F2700 E22.31594
G1 F1200 X112.645 Y111.7 E23.22228
G1 X112.645 Y123.3 E23.6081
G1 X85.395 Y123.3 E24.51443
G1 X85.395 Y111.7 E24.90025
G0 F6000 X85.795 Y112.1
G1 F1200 X89.836 Y112.1 E25.03466
G1 X88.822 Y112.611 E25.07242
G1 X88.701 Y112.692 E25.07727
G1 X87.813 Y113.456 E25.11623
G1 X87.713 Y113.566 E25.12117
G1 X87.037 Y114.526 E25.16022
G1 X86.968 Y114.655 E25.16509
G1 X86.542 Y115.759 E25.20445
G1 X86.507 Y115.901 E25.20931
G1 X86.363 Y117.066 E25.24835
G1 X86.363 Y117.214 E25.25328
G1 X86.507 Y118.379 E25.29232
G1 X86.542 Y118.521 E25.29718
G1 X86.968 Y119.625 E25.33654
G1 X87.037 Y119.754 E25.34141
G1 X87.713 Y120.714 E25.38046
G1 X87.813 Y120.824 E25.3854
G1 X88.701 Y121.588 E25.42437
G1 X88.822 Y121.669 E25.42921
G1 X89.88 Y122.202 E25.46861
G1 X90.018 Y122.251 E25.47348
G1 X91.16 Y122.508 E25.51242
G1 X91.307 Y122.523 E25.51733
G1 X92.44 Y122.495 E25.55503
G1 X92.513 Y122.488 E25.55746
G1 X109.233 Y120.002 E26.11969
G1 X109.303 Y119.988 E26.12206
G1 X109.788 Y119.856 E26.13878
G1 X109.92 Y119.802 E26.14352
G1 X110.399 Y119.538 E26.16171
G1 X110.514 Y119.456 E26.16641
G1 X110.917 Y119.087 E26.18459
G1 X111.01 Y118.979 E26.18933
G1 X111.314 Y118.528 E26.20742
G1 X111.378 Y118.403 E26.21209
G1 X111.568 Y117.894 E26.23016
G1 X111.602 Y117.755 E26.23492
G1 X111.667 Y117.206 E26.2533
G1 X111.667 Y117.062 E26.25809
G1 X111.601 Y116.524 E26.27612
G1 X111.567 Y116.388 E26.28078
G1 X111.377 Y115.878 E26.29889
G1 X111.313 Y115.752 E26.30359
G1 X111.008 Y115.298 E26.32178
G1 X110.914 Y115.19 E26.32654
G1 X110.508 Y114.82 E26.34481
G1 X110.393 Y114.737 E26.34953
G1 X109.918 Y114.476 E26.36755
G1 X109.785 Y114.423 E26.37231
G1 X109.301 Y114.293 E26.38898
G1 X109.233 Y114.279 E26.39129
G1 X94.584 Y112.1 E26.88388
G1 X112.245 Y112.1 E27.47129
G1 X112.245 Y122.9 E27.8305
G1 X85.795 Y122.9 E28.71023
G1 X85.795 Y112.1 E29.06944
G0 F6000 X86.195 Y112.5
G1 F1200 X88.311 Y112.5 E29.13982
G1 X87.552 Y113.153 E29.17312
G1 X87.386 Y113.335 E29.18131
G1 X86.71 Y114.295 E29.22036
G1 X86.595 Y114.511 E29.2285
G1 X86.195 Y115.548 E29.26547
G1 X86.195 Y112.5 E29.36685
G0 F6000 X86.595 Y112.9
G1 F1200 X87.246 Y112.9 E29.3885
G1 X87.059 Y113.105 E29.39773
G1 X86.595 Y113.764 E29.42453
G1 X86.595 Y112.9 E29.45327
G1 F2700 E24.45327
G0 F6000 X88.04 Y113.796
G1 F2700 E29.45327
G1 F1200 X87.364 Y114.756 E29.49232
G1 X87.341 Y114.799 E29.49394
G1 X86.915 Y115.903 E29.5333
G1 X86.904 Y115.95 E29.53491
G1 X86.76 Y117.115 E29.57395
G1 X86.76 Y117.165 E29.57561
G1 X86.904 Y118.33 E29.61466
G1 X86.915 Y118.377 E29.61626
G1 X87.341 Y119.481 E29.65562
G1 X87.364 Y119.524 E29.65724
G1 X88.04 Y120.484 E29.69629
G1 X88.074 Y120.521 E29.69796
G1 X88.962 Y121.285 E29.73693
G1 X89.002 Y121.312 E29.73853
G1 X90.06 Y121.845 E29.77793
G1 X90.106 Y121.861 E29.77955
G1 X91.248 Y122.118 E29.81849
G1 X91.297 Y122.123 E29.82012
G1 X92.43 Y122.095 E29.85782
G1 X92.454 Y122.093 E29.85862
G1 X109.174 Y119.607 E30.42084
G1 X109.198 Y119.602 E30.42166
G1 X109.683 Y119.47 E30.43838
G1 X109.727 Y119.452 E30.43996
G1 X110.206 Y119.188 E30.45815
G1 X110.244 Y119.161 E30.4597
G1 X110.647 Y118.792 E30.47787
G1 X110.678 Y118.756 E30.47945
G1 X110.982 Y118.305 E30.49754
G1 X111.003 Y118.263 E30.49911
G1 X111.193 Y117.754 E30.51718
G1 X111.205 Y117.708 E30.51876
G1 X111.27 Y117.159 E30.53714
G1 X111.27 Y117.111 E30.53874
G1 X111.204 Y116.573 E30.55677
G1 X111.192 Y116.527 E30.55835
G1 X111.002 Y116.017 E30.57645
G1 X110.981 Y115.975 E30.57801
G1 X110.676 Y115.521 E30.5962
G1 X110.645 Y115.485 E30.59779
G1 X110.239 Y115.115 E30.61606
G1 X110.2 Y115.088 E30.61763
G1 X109.725 Y114.827 E30.63566
G1 X109.681 Y114.809 E30.63724
G1 X109.197 Y114.679 E30.65391
G1 X109.174 Y114.674 E30.65469
G1 X92.454 Y112.187 E31.21692
G1 X92.43 Y112.185 E31.21772
G1 X91.297 Y112.157 E31.25542
G1 X91.248 Y112.162 E31.25705
G1 X90.106 Y112.419 E31.29599
G1 X90.06 Y112.435 E31.29761
G1 X89.002 Y112.968 E31.33701
G1 X88.962 Y112.995 E31.33861
G1 X88.074 Y113.759 E31.37758
G1 X88.04 Y113.796 E31.37925
G1 F2700 E26.37925
G0 F6000 X87.236 Y116.006
G0 X86.595 Y119.769
G1 F2700 E31.37925
G1 F1200 X86.71 Y119.985 E31.38739
G1 X87.386 Y120.945 E31.42644
G1 X87.552 Y121.127 E31.43463
G1 X88.44 Y121.891 E31.47359
G1 X88.642 Y122.026 E31.48167
G1 X89.583 Y122.5 E31.51672
G1 X86.195 Y122.5 E31.6294
G1 X86.195 Y118.732 E31.75473
G1 X86.595 Y119.769 E31.7917
G0 F6000 X87.059 Y121.175
G1 F1200 X87.291 Y121.43 E31.80316
G1 X88.07 Y122.1 E31.83734
G1 X86.595 Y122.1 E31.88639
G1 X86.595 Y120.516 E31.93908
G1 X87.059 Y121.175 E31.96589
G0 F6000 X87 Y121.7
G1 F1200 X86.995 Y121.7 E31.96605
G1 X86.995 Y121.694 E31.96625
G1 X87 Y121.7 E31.96651
G1 F2700 E26.96651
G0 F6000 X95.155 Y122.5
G1 F2700 E31.96651
G1 F1200 X109.292 Y120.398 E32.44188
G1 X109.408 Y120.374 E32.44582
G1 X109.893 Y120.242 E32.46254
G1 X110.113 Y120.153 E32.47043
G1 X110.592 Y119.889 E32.48862
G1 X110.784 Y119.751 E32.49649
G1 X111.187 Y119.382 E32.51466
G1 X111.341 Y119.203 E32.52251
G1 X111.645 Y118.752 E32.5406
G1 X111.753 Y118.543 E32.54843
G1 X111.845 Y118.297 E32.55716
G1 X111.845 Y122.5 E32.69695
G1 X95.155 Y122.5 E33.25207
G1 F2700 E28.25207
G0 F6000 X100.567 Y122.1
G1 F2700 E33.25207
G1 F1200 X109.351 Y120.794 E33.54744
G1 X109.513 Y120.76 E33.55294
G1 X109.998 Y120.628 E33.56966
G1 X110.306 Y120.503 E33.58071
G1 X110.785 Y120.239 E33.59891
G1 X111.054 Y120.046 E33.60992
G1 X111.445 Y119.688 E33.62755
G1 X111.445 Y122.1 E33.70777
G1 X100.567 Y122.1 E34.06958
G1 F2700 E29.06958
G0 F6000 X105.973 Y121.7
G1 F2700 E34.06958
G1 F1200 X109.41 Y121.189 E34.18515
G1 X109.618 Y121.146 E34.19221
G1 X110.103 Y121.014 E34.20893
G1 X110.499 Y120.853 E34.22315
G1 X110.978 Y120.589 E34.24134
G1 X111.045 Y120.541 E34.24408
G1 X111.045 Y121.7 E34.28263
G1 X105.973 Y121.7 E34.45132
G1 F2700 E29.45132
G0 F6000 X110.455 Y121.3
G1 F2700 E34.45132
G1 F1200 X110.645 Y121.223 E34.45814
G1 X110.645 Y121.3 E34.4607
G1 X110.455 Y121.3 E34.46702
G1 F2700 E29.46702
G0 F6000 X111.845 Y115.988
G1 F2700 E34.46702
G1 F1200 X111.752 Y115.738 E34.4759
G1 X111.645 Y115.529 E34.4837
G1 X111.34 Y115.075 E34.5019
G1 X111.184 Y114.894 E34.50984
G1 X110.778 Y114.524 E34.52811
G1 X110.586 Y114.387 E34.53596
G1 X110.111 Y114.126 E34.55398
G1 X109.888 Y114.036 E34.56198
G1 X109.404 Y113.906 E34.57865
G1 X109.292 Y113.883 E34.58245
G1 X99.994 Y112.5 E34.89511
G1 X111.845 Y112.5 E35.28928
G1 X111.845 Y115.988 E35.40529
G0 F6000 X111.445 Y114.591
