;FLAVOR:Marlin
;TIME:3691
;Filament used: 1.86106m
;Layer height: 0.2
;MINX:57.056
;MINY:46.947
;MINZ:0.2
;MAXX:179.816
;MAXY:188.059
;MAXZ:10
;TARGET_MACHINE.NAME:Creality Ender-3
;Generated with Cura_SteamEngine 5.8.1
M140 S50
M105
M190 S50
M104 S200
M105
M109 S200
M82 ;absolute extrusion mode
; Ender 3 Custom Start G-code
G92 E0 ; Reset Extruder
G28 ; Home all axes
G1 Z2.0 F3000 ; Move Z Axis up little to prevent scratching of Heat Bed
G1 X0.1 Y20 Z0.3 F5000.0 ; Move to start position
G1 X0.1 Y200.0 Z0.3 F1500.0 E15 ; Draw the first line
G1 X0.4 Y200.0 Z0.3 F5000.0 ; Move to side a little
G1 X0.4 Y20 Z0.3 F1500.0 E30 ; Draw the second line
G92 E0 ; Reset Extruder
G1 Z2.0 F3000 ; Move Z Axis up little to prevent scratching of Heat Bed
G1 X5 Y20 Z0.3 F5000.0 ; Move over to prevent blob squish
G92 E0
G92 E0
G1 F2700 E-5
;LAYER_COUNT:50
;LAYER:0
M107
G0 F6000 X61.128 Y51.814 Z0.2
;TYPE:SKIRT
G1 F2700 E0
G1 F1200 X61.793 Y51.113 E0.03214
G1 X62.014 Y50.9 E0.04235
G1 X62.71 Y50.28 E0.07335
G1 X63.612 Y49.598 E0.11096
G1 X64.002 Y49.334 E0.12662
G1 X65.114 Y48.665 E0.16979
G1 X66.064 Y48.212 E0.20479
G1 X66.603 Y47.983 E0.22427
G1 X67.449 Y47.667 E0.25431
G1 X68.291 Y47.423 E0.28346
G1 X69.234 Y47.209 E0.31563
G1 X69.766 Y47.114 E0.3336
G1 X70.719 Y46.988 E0.36557
G1 X71.911 Y46.947 E0.40524
G1 X72.641 Y46.963 E0.42953
G1 X73.474 Y47.013 E0.45728
G1 X75.249 Y47.189 E0.51661
G1 X77.757 Y47.371 E0.60024
G1 X80.298 Y47.484 E0.68484
G1 X81.374 Y47.498 E0.72063
G1 X83.025 Y47.539 E0.77556
G1 X85.639 Y47.562 E0.86251
G1 X87.113 Y47.534 E0.91154
G1 X87.803 Y47.53 E0.93449
G1 X90.955 Y47.562 E1.03933
G1 X93.133 Y47.53 E1.11178
G1 X96.28 Y47.562 E1.21646
G1 X97.775 Y47.534 E1.26619
G1 X98.466 Y47.53 E1.28917
G1 X101.614 Y47.562 E1.39388
G1 X103.109 Y47.534 E1.44361
G1 X103.809 Y47.53 E1.4669
G1 X107.107 Y47.564 E1.57659
G1 X109.022 Y47.545 E1.64029
G1 X111.933 Y47.575 E1.73712
G1 X114.627 Y47.531 E1.82673
G1 X117.609 Y47.562 E1.92592
G1 X119.103 Y47.534 E1.97562
G1 X119.798 Y47.53 E1.99873
G1 X123.037 Y47.565 E2.10647
G1 X124.856 Y47.545 E2.16697
G1 X127.928 Y47.576 E2.26915
G1 X130.621 Y47.532 E2.35873
G1 X133.603 Y47.563 E2.45792
G1 X135.098 Y47.535 E2.50765
G1 X135.798 Y47.531 E2.53094
G1 X139.096 Y47.565 E2.64063
G1 X141.011 Y47.546 E2.70433
G1 X143.922 Y47.576 E2.80116
G1 X146.615 Y47.532 E2.89074
G1 X149.597 Y47.563 E2.98992
G1 X151.091 Y47.535 E3.03962
G1 X151.781 Y47.531 E3.06257
G1 X154.933 Y47.563 E3.16742
G1 X157.111 Y47.531 E3.23986
G1 X160.26 Y47.563 E3.34461
G1 X161.765 Y47.535 E3.39467
G1 X162.436 Y47.532 E3.41699
G1 X163.407 Y47.574 E3.44931
G1 X164.339 Y47.695 E3.48057
G1 X165.305 Y47.909 E3.51348
G1 X166.19 Y48.149 E3.54398
G1 X167.121 Y48.448 E3.5765
G1 X169.295 Y49.257 E3.65365
G1 X171.781 Y50.113 E3.7411
G1 X172.685 Y50.472 E3.77345
G1 X173.555 Y50.91 E3.80585
G1 X174.324 Y51.384 E3.8359
G1 X175.14 Y51.994 E3.86978
G1 X176.144 Y52.925 E3.91532
G1 X176.629 Y53.436 E3.93875
G1 X177.266 Y54.173 E3.97115
G1 X177.836 Y54.963 E4.00356
G1 X178.299 Y55.739 E4.03361
G1 X178.74 Y56.652 E4.06733
G1 X179.194 Y57.914 E4.11194
G1 X179.383 Y58.565 E4.13449
G1 X179.596 Y59.442 E4.16451
G1 X179.752 Y60.475 E4.19925
G1 X179.809 Y61.447 E4.23164
G1 X179.779 Y62.42 E4.26401
G1 X179.663 Y63.394 E4.29664
G1 X179.422 Y64.5 E4.33429
G1 X179.23 Y65.192 E4.35817
G1 X179.005 Y65.904 E4.38301
G1 X178.691 Y66.786 E4.41415
G1 X178.295 Y67.844 E4.45172
G1 X177.908 Y68.745 E4.48434
G1 X177.373 Y69.726 E4.5215
G1 X176.117 Y71.763 E4.6011
G1 X174.849 Y73.948 E4.68512
G1 X173.637 Y76.176 E4.76948
G1 X172.508 Y78.402 E4.85249
G1 X171.425 Y80.695 E4.93684
G1 X170.41 Y83.011 E5.02094
G1 X169.457 Y85.366 E5.10544
G1 X168.59 Y87.696 E5.18813
G1 X167.782 Y90.071 E5.27156
G1 X167.039 Y92.469 E5.35506
G1 X166.362 Y94.901 E5.43903
G1 X165.762 Y97.32 E5.52192
G1 X165.207 Y99.861 E5.60843
G1 X164.749 Y102.286 E5.69051
G1 X164.361 Y104.723 E5.77259
G1 X164.026 Y107.279 E5.85833
G1 X163.77 Y109.783 E5.94204
G1 X163.59 Y112.231 E6.02368
G1 X163.472 Y114.831 E6.11025
G1 X163.429 Y117.311 E6.19275
G1 X163.457 Y119.794 E6.27534
G1 X163.558 Y122.335 E6.35992
G1 X163.726 Y124.832 E6.44316
G1 X163.97 Y127.352 E6.52736
G1 X164.285 Y129.873 E6.61186
G1 X164.66 Y132.321 E6.69424
G1 X165.111 Y134.785 E6.77755
G1 X165.64 Y137.274 E6.86218
G1 X166.224 Y139.698 E6.94511
G1 X166.886 Y142.126 E7.02882
G1 X167.624 Y144.563 E7.11351
G1 X168.418 Y146.941 E7.19689
G1 X169.282 Y149.302 E7.28051
G1 X170.225 Y151.673 E7.36538
G1 X171.203 Y153.937 E7.44741
G1 X172.272 Y156.237 E7.53176
G1 X173.402 Y158.5 E7.61589
G1 X174.596 Y160.724 E7.69985
G1 X175.826 Y162.871 E7.78215
G1 X177.534 Y165.655 E7.89078
G1 X178.003 Y166.507 E7.92313
G1 X178.393 Y167.387 E7.95514
G1 X178.593 Y167.948 E7.97495
G1 X178.86 Y168.768 E8.00363
G1 X179.264 Y170.096 E8.0498
G1 X179.458 Y170.806 E8.07428
G1 X179.663 Y171.76 E8.10674
G1 X179.782 Y172.725 E8.13908
G1 X179.816 Y173.628 E8.16913
G1 X179.762 Y174.672 E8.2039
G1 X179.624 Y175.634 E8.23623
G1 X179.425 Y176.492 E8.26552
G1 X179.232 Y177.184 E8.28941
G1 X178.929 Y178.11 E8.32182
G1 X178.544 Y179.003 E8.35416
G1 X178.118 Y179.8 E8.38422
G1 X177.544 Y180.673 E8.41897
G1 X176.964 Y181.405 E8.45003
G1 X176.47 Y181.939 E8.47423
G1 X175.978 Y182.437 E8.49751
G1 X175.289 Y183.074 E8.52872
G1 X174.504 Y183.681 E8.56173
G1 X174.083 Y183.963 E8.57858
G1 X171.696 Y185.482 E8.67268
G1 X170.851 Y185.964 E8.70504
G1 X169.964 Y186.372 E8.73751
G1 X168.982 Y186.719 E8.77215
G1 X168.491 Y186.866 E8.7892
G1 X167.786 Y187.056 E8.81349
G1 X166.833 Y187.258 E8.84589
G1 X165.865 Y187.375 E8.87832
G1 X164.916 Y187.406 E8.9099
G1 X162.03 Y187.375 E9.00589
G1 X159.752 Y187.408 E9.08167
G1 X156.698 Y187.375 E9.18325
G1 X154.419 Y187.408 E9.25906
G1 X151.365 Y187.375 E9.36064
G1 X149.089 Y187.408 E9.43635
G1 X146.035 Y187.375 E9.53793
G1 X143.756 Y187.408 E9.61374
G1 X140.702 Y187.375 E9.71532
G1 X138.424 Y187.408 E9.79109
G1 X135.37 Y187.375 E9.89268
G1 X133.094 Y187.408 E9.96838
G1 X130.04 Y187.375 E10.06997
G1 X127.761 Y187.408 E10.14578
G1 X124.709 Y187.375 E10.24729
G1 X122.982 Y187.406 E10.30474
G1 X122.408 Y187.408 E10.32383
G1 X119.398 Y187.375 E10.42395
G1 X117.754 Y187.405 E10.47864
G1 X117.08 Y187.408 E10.50106
G1 X114.021 Y187.375 E10.60281
G1 X112.324 Y187.406 E10.65926
G1 X111.766 Y187.408 E10.67782
G1 X108.712 Y187.375 E10.7794
G1 X106.436 Y187.408 E10.85511
G1 X103.382 Y187.375 E10.95669
G1 X101.103 Y187.408 E11.0325
G1 X98.049 Y187.375 E11.13408
G1 X95.773 Y187.408 E11.20979
G1 X92.719 Y187.375 E11.31137
G1 X90.44 Y187.408 E11.38718
G1 X87.387 Y187.375 E11.48873
G1 X85.664 Y187.406 E11.54604
G1 X84.742 Y187.41 E11.57671
G1 X82.201 Y187.457 E11.66124
G1 X79.625 Y187.578 E11.74701
G1 X77.133 Y187.765 E11.83013
G1 X75.07 Y187.97 E11.89908
G1 X74.333 Y188.018 E11.92365
G1 X73.714 Y188.035 E11.94424
G1 X71.984 Y188.059 E12.00179
G1 X70.974 Y188.024 E12.0354
G1 X70.598 Y187.993 E12.04795
G1 X69.436 Y187.834 E12.08696
G1 X69.075 Y187.764 E12.09919
G1 X67.965 Y187.49 E12.13721
G1 X67.566 Y187.368 E12.15109
G1 X66.668 Y187.05 E12.18278
G1 X66.124 Y186.825 E12.20236
G1 X64.302 Y186.028 E12.2685
G1 X63.456 Y185.61 E12.29989
G1 X62.323 Y184.903 E12.34431
G1 X61.371 Y184.159 E12.38449
G1 X60.416 Y183.233 E12.42873
G1 X60.055 Y182.836 E12.44658
G1 X59.434 Y182.086 E12.47897
G1 X58.881 Y181.283 E12.5114
G1 X58.403 Y180.436 E12.54374
G1 X58.001 Y179.55 E12.5761
G1 X57.7 Y178.7 E12.6061
G1 X57.535 Y178.163 E12.62478
G1 X57.293 Y177.22 E12.65716
G1 X57.133 Y176.259 E12.68956
G1 X57.061 Y175.289 E12.72192
G1 X57.07 Y174.386 E12.75195
G1 X57.143 Y173.558 E12.7796
G1 X57.457 Y171.098 E12.86208
G1 X57.709 Y168.598 E12.94565
G1 X57.891 Y166.06 E13.03028
G1 X58 Y163.548 E13.11391
G1 X58.052 Y160.786 E13.20579
G1 X58.044 Y158.053 E13.29669
G1 X58.03 Y156.963 E13.33295
G1 X58.052 Y155.462 E13.38288
G1 X58.044 Y152.721 E13.47404
G1 X58.03 Y151.631 E13.5103
G1 X58.052 Y150.13 E13.56023
G1 X58.044 Y147.391 E13.65133
G1 X58.03 Y146.303 E13.68752
G1 X58.053 Y144.654 E13.74237
G1 X58.044 Y142.052 E13.82891
G1 X58.03 Y140.964 E13.8651
G1 X58.052 Y139.467 E13.9149
G1 X58.044 Y136.728 E14.006
G1 X58.03 Y135.637 E14.04229
G1 X58.052 Y134.136 E14.09222
G1 X58.044 Y131.459 E14.18126
G1 X58.03 Y130.612 E14.20943
G1 X58.037 Y130.018 E14.22919
G1 X58.115 Y128.017 E14.29579
G1 X58.163 Y125.473 E14.38042
G1 X58.138 Y122.901 E14.46597
G1 X58.04 Y120.267 E14.55364
G1 X58.04 Y119.296 E14.58594
G1 X58.113 Y118.438 E14.61458
G1 X58.233 Y117.472 E14.64695
G1 X58.525 Y114.816 E14.73582
G1 X58.729 Y112.337 E14.81855
G1 X58.859 Y109.872 E14.90065
G1 X58.923 Y107.312 E14.98583
G1 X58.914 Y104.77 E15.07037
G1 X58.904 Y104.151 E15.09096
G1 X58.901 Y100.852 E15.20069
G1 X58.866 Y99.748 E15.23743
G1 X58.849 Y98.754 E15.27049
G1 X58.873 Y97.858 E15.3003
G1 X59.043 Y94.812 E15.40177
G1 X59.121 Y91.594 E15.50884
G1 X59.113 Y88.906 E15.59824
G1 X59.099 Y87.822 E15.6343
G1 X59.121 Y86.266 E15.68605
G1 X59.111 Y83.609 E15.77443
G1 X59.076 Y81.588 E15.84166
G1 X58.994 Y78.967 E15.92887
G1 X58.844 Y76.448 E16.0128
G1 X58.621 Y73.922 E16.09715
G1 X58.334 Y71.469 E16.17929
G1 X57.965 Y68.937 E16.26439
G1 X57.53 Y66.437 E16.34879
G1 X57.255 Y65.044 E16.39602
G1 X57.12 Y64.151 E16.42606
G1 X57.056 Y63.108 E16.46081
G1 X57.081 Y62.205 E16.49086
G1 X57.147 Y61.531 E16.51338
G1 X57.204 Y61.1 E16.52784
G1 X57.314 Y60.431 E16.55039
G1 X57.464 Y59.696 E16.57534
G1 X57.829 Y58.125 E16.62899
G1 X58.099 Y57.165 E16.66215
G1 X58.259 Y56.684 E16.67901
G1 X58.655 Y55.667 E16.71531
G1 X58.846 Y55.245 E16.73072
G1 X59.284 Y54.385 E16.76282
G1 X59.644 Y53.793 E16.78587
G1 X59.983 Y53.276 E16.80643
G1 X60.511 Y52.543 E16.83647
G1 X61.128 Y51.814 E16.86824
G0 F6000 X61.433 Y52.073
G1 F1200 X62.07 Y51.401 E16.89904
G1 X62.281 Y51.198 E16.90877
G1 X62.951 Y50.599 E16.93867
G1 X63.837 Y49.929 E16.97561
G1 X64.209 Y49.676 E16.99057
G1 X65.286 Y49.026 E17.03241
G1 X66.221 Y48.58 E17.06687
G1 X66.743 Y48.358 E17.08574
G1 X67.589 Y48.042 E17.11577
G1 X68.38 Y47.813 E17.14316
G1 X69.305 Y47.603 E17.17471
G1 X69.818 Y47.511 E17.19204
G1 X70.771 Y47.385 E17.22402
G1 X71.903 Y47.347 E17.26169
G1 X72.617 Y47.362 E17.28544
G1 X73.435 Y47.411 E17.3127
G1 X75.22 Y47.588 E17.37236
G1 X77.739 Y47.771 E17.45636
G1 X80.28 Y47.884 E17.54096
G1 X81.364 Y47.898 E17.57702
G1 X83.015 Y47.939 E17.63195
G1 X85.643 Y47.962 E17.71936
G1 X87.115 Y47.934 E17.76832
G1 X87.799 Y47.93 E17.79107
G1 X90.957 Y47.962 E17.89612
G1 X93.129 Y47.93 E17.96836
G1 X96.284 Y47.962 E18.07331
G1 X97.777 Y47.934 E18.12297
G1 X98.462 Y47.93 E18.14575
G1 X101.618 Y47.962 E18.25073
G1 X103.111 Y47.934 E18.3004
G1 X103.805 Y47.93 E18.32348
G1 X107.107 Y47.964 E18.43331
G1 X109.018 Y47.945 E18.49687
G1 X111.936 Y47.975 E18.59393
G1 X114.623 Y47.931 E18.68331
G1 X117.613 Y47.962 E18.78277
G1 X119.105 Y47.934 E18.8324
G1 X119.794 Y47.93 E18.85532
G1 X123.037 Y47.965 E18.96318
G1 X124.852 Y47.945 E19.02355
G1 X127.931 Y47.976 E19.12597
G1 X130.617 Y47.932 E19.21532
G1 X133.607 Y47.963 E19.31477
G1 X135.1 Y47.935 E19.36444
G1 X135.794 Y47.931 E19.38752
G1 X139.096 Y47.965 E19.49735
G1 X141.007 Y47.946 E19.56091
G1 X143.925 Y47.976 E19.65797
G1 X146.611 Y47.932 E19.74732
G1 X149.601 Y47.963 E19.84677
G1 X151.093 Y47.935 E19.89641
G1 X151.777 Y47.931 E19.91916
G1 X154.935 Y47.963 E20.0242
G1 X157.107 Y47.931 E20.09645
G1 X160.263 Y47.963 E20.20142
G1 X161.767 Y47.935 E20.25145
G1 X162.419 Y47.932 E20.27314
G1 X163.356 Y47.971 E20.30433
G1 X164.252 Y48.086 E20.33438
G1 X165.218 Y48.3 E20.36728
G1 X166.068 Y48.53 E20.39657
G1 X166.981 Y48.823 E20.42846
G1 X169.155 Y49.632 E20.50562
G1 X171.634 Y50.485 E20.59281
G1 X172.506 Y50.83 E20.624
G1 X173.345 Y51.251 E20.65522
G1 X174.114 Y51.725 E20.68527
G1 X174.9 Y52.314 E20.71794
G1 X175.854 Y53.2 E20.76124
G1 X176.327 Y53.698 E20.78408
G1 X176.942 Y54.407 E20.8153
G1 X177.492 Y55.168 E20.84653
G1 X177.955 Y55.944 E20.87659
G1 X178.364 Y56.788 E20.90778
G1 X178.81 Y58.026 E20.95155
G1 X178.994 Y58.659 E20.97347
G1 X179.207 Y59.536 E21.00349
G1 X179.353 Y60.499 E21.03588
G1 X179.409 Y61.435 E21.06707
G1 X179.382 Y62.373 E21.09828
G1 X179.272 Y63.309 E21.12963
G1 X179.031 Y64.415 E21.16728
G1 X178.849 Y65.071 E21.18992
G1 X178.628 Y65.77 E21.2143
G1 X178.316 Y66.646 E21.24523
G1 X177.927 Y67.687 E21.28219
G1 X177.557 Y68.553 E21.31352
G1 X177.022 Y69.534 E21.35068
G1 X175.771 Y71.562 E21.42993
G1 X174.503 Y73.747 E21.51396
G1 X173.28 Y75.995 E21.59907
G1 X172.151 Y78.221 E21.68209
G1 X171.063 Y80.524 E21.76681
G1 X170.039 Y82.861 E21.85167
G1 X169.086 Y85.216 E21.93617
G1 X168.215 Y87.556 E22.01921
G1 X167.403 Y89.942 E22.10304
G1 X166.657 Y92.351 E22.18692
G1 X165.977 Y94.794 E22.27126
G1 X165.371 Y97.235 E22.35491
G1 X164.816 Y99.776 E22.44142
G1 X164.356 Y102.212 E22.52387
G1 X163.964 Y104.671 E22.60669
G1 X163.629 Y107.227 E22.69243
G1 X163.372 Y109.742 E22.77652
G1 X163.19 Y112.213 E22.85893
G1 X163.072 Y114.813 E22.94549
G1 X163.029 Y117.304 E23.02836
G1 X163.057 Y119.81 E23.11171
G1 X163.158 Y122.351 E23.19629
G1 X163.328 Y124.871 E23.2803
G1 X163.573 Y127.402 E23.36487
G1 X163.888 Y129.923 E23.44937
G1 X164.267 Y132.393 E23.53249
G1 X164.72 Y134.868 E23.61617
G1 X165.251 Y137.368 E23.70118
G1 X165.838 Y139.803 E23.78449
G1 X166.503 Y142.242 E23.86857
G1 X167.241 Y144.679 E23.95326
G1 X168.042 Y147.078 E24.03738
G1 X168.91 Y149.45 E24.12139
G1 X169.853 Y151.821 E24.20626
G1 X170.84 Y154.106 E24.28904
G1 X171.914 Y156.416 E24.37377
G1 X173.045 Y158.679 E24.45792
G1 X174.249 Y160.923 E24.54262
G1 X175.485 Y163.08 E24.6253
G1 X177.184 Y165.848 E24.73333
G1 X177.637 Y166.669 E24.76451
G1 X178.016 Y167.522 E24.79556
G1 X178.213 Y168.072 E24.81499
G1 X178.477 Y168.885 E24.84342
G1 X178.878 Y170.202 E24.88921
G1 X179.067 Y170.891 E24.91297
G1 X179.266 Y171.809 E24.94422
G1 X179.382 Y172.74 E24.97542
G1 X179.416 Y173.643 E25.00548
G1 X179.366 Y174.616 E25.03788
G1 X179.234 Y175.544 E25.06906
G1 X179.035 Y176.402 E25.09835
G1 X178.852 Y177.06 E25.12107
G1 X178.561 Y177.952 E25.15227
G1 X178.191 Y178.814 E25.18347
G1 X177.765 Y179.611 E25.21353
G1 X177.23 Y180.425 E25.24593
G1 X176.65 Y181.157 E25.27699
G1 X176.186 Y181.658 E25.2997
G1 X175.706 Y182.143 E25.3224
G1 X175.017 Y182.78 E25.35361
G1 X174.281 Y183.349 E25.38455
G1 X173.868 Y183.626 E25.40109
G1 X171.497 Y185.135 E25.49457
G1 X170.683 Y185.601 E25.52576
G1 X169.83 Y185.995 E25.55701
G1 X168.867 Y186.336 E25.59099
G1 X168.387 Y186.48 E25.60766
G1 X167.702 Y186.665 E25.63126
G1 X166.784 Y186.861 E25.66248
G1 X165.852 Y186.975 E25.69371
G1 X164.92 Y187.006 E25.72473
G1 X162.028 Y186.975 E25.82092
G1 X159.756 Y187.008 E25.89649
G1 X156.696 Y186.975 E25.99828
G1 X154.423 Y187.008 E26.07388
G1 X151.363 Y186.975 E26.17567
G1 X149.093 Y187.008 E26.25118
G1 X146.033 Y186.975 E26.35296
G1 X143.76 Y187.008 E26.42857
G1 X140.7 Y186.975 E26.53035
G1 X138.428 Y187.008 E26.60592
G1 X135.368 Y186.975 E26.7077
G1 X133.098 Y187.008 E26.78321
G1 X130.038 Y186.975 E26.88499
G1 X127.765 Y187.008 E26.9606
G1 X124.706 Y186.975 E27.06235
G1 X122.981 Y187.006 E27.11973
G1 X122.412 Y187.008 E27.13866
G1 X119.395 Y186.975 E27.23901
G1 X117.752 Y187.005 E27.29367
G1 X117.084 Y187.008 E27.31589
G1 X114.018 Y186.975 E27.41787
G1 X112.323 Y187.006 E27.47425
G1 X111.77 Y187.008 E27.49264
G1 X108.71 Y186.975 E27.59443
G1 X106.44 Y187.008 E27.66994
G1 X103.38 Y186.975 E27.77172
G1 X101.107 Y187.008 E27.84733
G1 X98.047 Y186.975 E27.94911
G1 X95.777 Y187.008 E28.02462
G1 X92.717 Y186.975 E28.1264
G1 X90.444 Y187.008 E28.20201
G1 X87.384 Y186.975 E28.30379
G1 X85.662 Y187.006 E28.36107
G1 X84.735 Y187.01 E28.3919
G1 X82.182 Y187.057 E28.47683
G1 X79.606 Y187.178 E28.5626
G1 X77.103 Y187.366 E28.64609
G1 X75.044 Y187.571 E28.71491
G1 X74.321 Y187.618 E28.73901
G1 X73.706 Y187.636 E28.75947
G1 X71.998 Y187.659 E28.81628
G1 X71.007 Y187.625 E28.84926
G1 X70.631 Y187.594 E28.86181
G1 X69.512 Y187.441 E28.89938
G1 X69.151 Y187.371 E28.91161
G1 X68.082 Y187.107 E28.94823
G1 X67.683 Y186.985 E28.96211
G1 X66.82 Y186.68 E28.99255
G1 X66.284 Y186.459 E29.01184
G1 X64.479 Y185.669 E29.07737
G1 X63.633 Y185.251 E29.10875
