;FLAVOR:Marlin
;TIME:22619
;Filament used: 18.2675m
;Layer height: 0.2
;MINX:38.28
;MINY:47.144
;MINZ:0.2
;MAXX:196.875
;MAXY:187.879
;MAXZ:10
;TARGET_MACHINE.NAME:Creality Ender-3
;Generated with Cura_SteamEngine 5.8.1
M140 S50
M105
M190 S50
M104 S200
M105
M109 S200
M82 ;absolute extrusion mode
; Ender 3 Custom Start G-code
G92 E0 ; Reset Extruder
G28 ; Home all axes
G1 Z2.0 F3000 ; Move Z Axis up little to prevent scratching of Heat Bed
G1 X0.1 Y20 Z0.3 F5000.0 ; Move to start position
G1 X0.1 Y200.0 Z0.3 F1500.0 E15 ; Draw the first line
G1 X0.4 Y200.0 Z0.3 F5000.0 ; Move to side a little
G1 X0.4 Y20 Z0.3 F1500.0 E30 ; Draw the second line
G92 E0 ; Reset Extruder
G1 Z2.0 F3000 ; Move Z Axis up little to prevent scratching of Heat Bed
G1 X5 Y20 Z0.3 F5000.0 ; Move over to prevent blob squish
G92 E0
G92 E0
G1 F2700 E-5
;LAYER_COUNT:50
;LAYER:0
M107
G0 F6000 X43.096 Y50.616 Z0.2
;TYPE:SKIRT
G1 F2700 E0
G1 F1200 X43.866 Y50.021 E0.03237
G1 X44.686 Y49.495 E0.06477
G1 X45.548 Y49.044 E0.09712
G1 X46.439 Y48.673 E0.12923
G1 X47.085 Y48.46 E0.15185
G1 X47.862 Y48.234 E0.17876
G1 X48.364 Y48.103 E0.19602
G1 X49.3 Y47.902 E0.22786
G1 X49.775 Y47.833 E0.24383
G1 X52.191 Y47.533 E0.3248
G1 X53.091 Y47.461 E0.35483
G1 X54.383 Y47.487 E0.39781
G1 X56.346 Y47.657 E0.46334
G1 X58.862 Y47.818 E0.5472
G1 X61.398 Y47.908 E0.6316
G1 X63.338 Y47.93 E0.69613
G1 X168.016 Y47.929 E4.17773
G1 X170.598 Y47.892 E4.26362
G1 X173.164 Y47.783 E4.34904
G1 X175.586 Y47.612 E4.4298
G1 X178.88 Y47.273 E4.53993
G1 X179.391 Y47.213 E4.55705
G1 X180.362 Y47.144 E4.58942
G1 X181.341 Y47.16 E4.62199
G1 X182.391 Y47.276 E4.65713
G1 X185.33 Y47.745 E4.75611
G1 X186.426 Y47.981 E4.7934
G1 X187.409 Y48.247 E4.82727
G1 X188.336 Y48.545 E4.85966
G1 X189.235 Y48.924 E4.89211
G1 X190.094 Y49.382 E4.92449
G1 X190.909 Y49.913 E4.95684
G1 X191.676 Y50.514 E4.98925
G1 X192.39 Y51.184 E5.02181
G1 X192.95 Y51.766 E5.04868
G1 X193.251 Y52.095 E5.06351
G1 X193.873 Y52.843 E5.09587
G1 X194.428 Y53.643 E5.12825
G1 X194.91 Y54.49 E5.16066
G1 X195.314 Y55.369 E5.19284
G1 X195.581 Y56.102 E5.21879
G1 X195.814 Y56.851 E5.24487
G1 X195.971 Y57.425 E5.26467
G1 X196.185 Y58.375 E5.29706
G1 X196.314 Y59.322 E5.32884
G1 X196.349 Y59.818 E5.34538
G1 X196.407 Y61.072 E5.38714
G1 X196.424 Y61.252 E5.39315
G1 X196.463 Y62.196 E5.42457
G1 X196.693 Y65.386 E5.53095
G1 X196.718 Y66.005 E5.55155
G1 X196.723 Y66.661 E5.57337
G1 X196.696 Y68.681 E5.64056
G1 X196.701 Y71.243 E5.72578
G1 X196.718 Y72.556 E5.76945
G1 X196.693 Y75.16 E5.85606
G1 X196.718 Y77.714 E5.94101
G1 X196.707 Y81.221 E6.05766
G1 X196.723 Y82.619 E6.10416
G1 X196.705 Y84.383 E6.16283
G1 X196.71 Y86.733 E6.24099
G1 X196.724 Y88.012 E6.28354
G1 X196.706 Y89.533 E6.33413
G1 X196.709 Y92.019 E6.41681
G1 X196.723 Y93.284 E6.45889
G1 X196.705 Y95.046 E6.5175
G1 X196.71 Y97.381 E6.59516
G1 X196.724 Y98.673 E6.63814
G1 X196.706 Y100.204 E6.68906
G1 X196.709 Y102.689 E6.77171
G1 X196.723 Y103.95 E6.81365
G1 X196.705 Y105.709 E6.87216
G1 X196.71 Y108.044 E6.94983
G1 X196.723 Y109.302 E6.99167
G1 X196.705 Y110.883 E7.04426
G1 X196.709 Y113.361 E7.12668
G1 X196.723 Y114.619 E7.16852
G1 X196.705 Y116.343 E7.22586
G1 X196.71 Y118.696 E7.30412
G1 X196.723 Y119.922 E7.3449
G1 X196.705 Y121.704 E7.40418
G1 X196.71 Y124.039 E7.48184
G1 X196.723 Y125.268 E7.52272
G1 X196.705 Y127.027 E7.58122
G1 X196.71 Y129.372 E7.65922
G1 X196.723 Y130.595 E7.6999
G1 X196.705 Y132.367 E7.75884
G1 X196.71 Y134.702 E7.8365
G1 X196.723 Y135.931 E7.87738
G1 X196.705 Y137.69 E7.93589
G1 X196.71 Y140.035 E8.01388
G1 X196.723 Y141.257 E8.05453
G1 X196.705 Y143.018 E8.1131
G1 X196.71 Y145.363 E8.1911
G1 X196.723 Y146.587 E8.23181
G1 X196.705 Y148.353 E8.29055
G1 X196.71 Y150.697 E8.36851
G1 X196.723 Y151.922 E8.40926
G1 X196.705 Y153.695 E8.46823
G1 X196.71 Y156.04 E8.54623
G1 X196.723 Y157.257 E8.58671
G1 X196.705 Y159.016 E8.64522
G1 X196.71 Y161.36 E8.72318
G1 X196.723 Y162.584 E8.76389
G1 X196.705 Y164.348 E8.82257
G1 X196.71 Y166.69 E8.90046
G1 X196.735 Y168.544 E8.96213
G1 X196.741 Y169.946 E9.00876
G1 X196.825 Y172.471 E9.09279
G1 X196.875 Y173.593 E9.13014
G1 X196.871 Y174.584 E9.16311
G1 X196.782 Y175.562 E9.19577
G1 X196.566 Y176.699 E9.23426
G1 X196.364 Y177.476 E9.26096
G1 X196.193 Y178.056 E9.28108
G1 X195.901 Y178.911 E9.31113
G1 X195.475 Y179.867 E9.34594
G1 X194.999 Y180.716 E9.37831
G1 X194.44 Y181.533 E9.41124
G1 X193.572 Y182.553 E9.45578
G1 X193.182 Y182.956 E9.47443
G1 X192.681 Y183.449 E9.49781
G1 X192.006 Y184.05 E9.52787
G1 X191.166 Y184.672 E9.56264
G1 X190.334 Y185.179 E9.59504
G1 X189.447 Y185.615 E9.62792
G1 X188.19 Y186.076 E9.67245
G1 X187.041 Y186.418 E9.71232
G1 X184.633 Y187.171 E9.79623
G1 X183.668 Y187.452 E9.82966
G1 X182.721 Y187.68 E9.86206
G1 X181.828 Y187.815 E9.8921
G1 X180.785 Y187.879 E9.92685
G1 X179.824 Y187.852 E9.95883
G1 X178.581 Y187.755 E10.0003
G1 X176.984 Y187.577 E10.05374
G1 X174.434 Y187.342 E10.13892
G1 X171.946 Y187.183 E10.22184
G1 X169.343 Y187.091 E10.30847
G1 X167.478 Y187.071 E10.3705
G1 X65.334 Y187.07 E13.76782
G1 X62.751 Y187.107 E13.85374
G1 X60.185 Y187.216 E13.93917
G1 X57.698 Y187.392 E14.02209
G1 X55.033 Y187.654 E14.11116
G1 X54.062 Y187.705 E14.1435
G1 X53.087 Y187.669 E14.17595
G1 X52.11 Y187.544 E14.20871
G1 X50.868 Y187.256 E14.25111
G1 X50.337 Y187.098 E14.26954
G1 X49.377 Y186.762 E14.30337
G1 X48.541 Y186.422 E14.33338
G1 X47.249 Y185.877 E14.38002
G1 X46.06 Y185.395 E14.4227
G1 X45.159 Y184.979 E14.4557
G1 X44.314 Y184.494 E14.48811
G1 X43.513 Y183.934 E14.52061
G1 X42.736 Y183.279 E14.55442
G1 X42.138 Y182.703 E14.58203
G1 X41.655 Y182.208 E14.60503
G1 X41.032 Y181.507 E14.63623
G1 X40.431 Y180.696 E14.6698
G1 X39.924 Y179.866 E14.70215
G1 X39.505 Y179.022 E14.73349
G1 X39.096 Y177.954 E14.77153
G1 X38.872 Y177.228 E14.7968
G1 X38.713 Y176.658 E14.81648
G1 X38.497 Y175.709 E14.84885
G1 X38.364 Y174.736 E14.88151
G1 X38.32 Y173.622 E14.91859
G1 X38.331 Y172.626 E14.95172
G1 X38.322 Y169.941 E15.04103
G1 X38.28 Y167.9 E15.10892
G1 X38.29 Y166.682 E15.14944
G1 X38.306 Y165.944 E15.17399
G1 X38.293 Y163.452 E15.25687
G1 X38.28 Y162.577 E15.28598
G1 X38.306 Y160.573 E15.35264
G1 X38.293 Y158.129 E15.43393
G1 X38.28 Y157.252 E15.4631
G1 X38.29 Y156.03 E15.50375
G1 X38.306 Y155.285 E15.52853
G1 X38.293 Y152.789 E15.61155
G1 X38.28 Y151.914 E15.64065
G1 X38.306 Y149.91 E15.70731
G1 X38.293 Y147.466 E15.7886
G1 X38.28 Y146.59 E15.81774
G1 X38.29 Y145.353 E15.85888
G1 X38.306 Y144.616 E15.8834
G1 X38.293 Y142.129 E15.96612
G1 X38.28 Y141.254 E15.99523
G1 X38.29 Y140.025 E16.03611
G1 X38.306 Y139.286 E16.06069
G1 X38.293 Y136.794 E16.14358
G1 X38.28 Y135.919 E16.17268
G1 X38.306 Y133.915 E16.23934
G1 X38.293 Y131.471 E16.32063
G1 X38.28 Y130.594 E16.3498
G1 X38.29 Y129.362 E16.39078
G1 X38.306 Y128.623 E16.41537
G1 X38.293 Y126.131 E16.49825
G1 X38.28 Y125.256 E16.52736
G1 X38.306 Y123.252 E16.59402
G1 X38.293 Y120.808 E16.6753
G1 X38.28 Y119.931 E16.70448
G1 X38.29 Y118.709 E16.74512
G1 X38.306 Y117.964 E16.76991
G1 X38.293 Y115.471 E16.85283
G1 X38.28 Y114.595 E16.88196
G1 X38.29 Y113.376 E16.92251
G1 X38.306 Y112.632 E16.94726
G1 X38.293 Y110.136 E17.03028
G1 X38.28 Y109.261 E17.05939
G1 X38.306 Y107.257 E17.12604
G1 X38.293 Y104.813 E17.20733
G1 X38.28 Y103.936 E17.23651
G1 X38.29 Y102.714 E17.27715
G1 X38.306 Y101.969 E17.30194
G1 X38.293 Y99.473 E17.38495
G1 X38.28 Y98.598 E17.41406
G1 X38.306 Y96.594 E17.48072
G1 X38.293 Y94.15 E17.56201
G1 X38.28 Y93.265 E17.59145
G1 X38.306 Y91.311 E17.65644
G1 X38.298 Y89.041 E17.73194
G1 X38.281 Y87.696 E17.77668
G1 X38.301 Y86.402 E17.81973
G1 X38.295 Y83.571 E17.91388
G1 X38.281 Y82.391 E17.95313
G1 X38.301 Y81.049 E17.99777
G1 X38.292 Y78.082 E18.09646
G1 X38.28 Y77.244 E18.12433
G1 X38.306 Y75.319 E18.18836
G1 X38.293 Y72.815 E18.27165
G1 X38.28 Y71.94 E18.30075
G1 X38.306 Y69.936 E18.36741
G1 X38.293 Y67.492 E18.4487
G1 X38.28 Y66.614 E18.47791
G1 X38.288 Y65.645 E18.51014
G1 X38.317 Y64.329 E18.55392
G1 X38.307 Y62.08 E18.62872
G1 X38.285 Y60.748 E18.67303
G1 X38.316 Y59.774 E18.70544
G1 X38.433 Y58.8 E18.73807
G1 X38.675 Y57.695 E18.77569
G1 X38.91 Y56.861 E18.80451
G1 X39.038 Y56.443 E18.81905
G1 X39.341 Y55.592 E18.8491
G1 X39.778 Y54.642 E18.88388
G1 X40.265 Y53.798 E18.91629
G1 X40.823 Y53.003 E18.94859
G1 X41.417 Y52.292 E18.97941
G1 X41.946 Y51.722 E19.00527
G1 X42.381 Y51.281 E19.02587
G1 X43.096 Y50.616 E19.05835
G0 F6000 X43.341 Y50.932
G1 F1200 X44.083 Y50.357 E19.08957
G1 X44.872 Y49.849 E19.12078
G1 X45.702 Y49.413 E19.15197
G1 X46.564 Y49.053 E19.18304
G1 X47.197 Y48.844 E19.20521
G1 X47.964 Y48.621 E19.23178
G1 X48.448 Y48.494 E19.24842
G1 X49.358 Y48.298 E19.27938
G1 X49.824 Y48.23 E19.29504
G1 X52.223 Y47.932 E19.37545
G1 X53.123 Y47.86 E19.40548
G1 X54.351 Y47.886 E19.44633
G1 X55.359 Y47.967 E19.47996
G1 X56.32 Y48.056 E19.51206
G1 X58.848 Y48.218 E19.59632
G1 X61.384 Y48.308 E19.68072
G1 X63.333 Y48.33 E19.74555
G1 X168.022 Y48.329 E23.22752
G1 X170.615 Y48.292 E23.31377
G1 X173.181 Y48.183 E23.39919
G1 X175.625 Y48.01 E23.48068
G1 X178.921 Y47.671 E23.59089
G1 X179.42 Y47.612 E23.6076
G1 X180.356 Y47.544 E23.63881
G1 X181.297 Y47.558 E23.67011
G1 X182.328 Y47.671 E23.70461
G1 X185.246 Y48.136 E23.80289
G1 X186.322 Y48.367 E23.83949
G1 X187.287 Y48.628 E23.87274
G1 X188.181 Y48.914 E23.90396
G1 X189.047 Y49.277 E23.93519
G1 X189.876 Y49.717 E23.96641
G1 X190.663 Y50.228 E23.99762
G1 X191.402 Y50.806 E24.02882
G1 X192.102 Y51.462 E24.06073
G1 X192.655 Y52.036 E24.08724
G1 X192.944 Y52.351 E24.10146
G1 X193.545 Y53.071 E24.13265
G1 X194.081 Y53.842 E24.16388
G1 X194.547 Y54.657 E24.19511
G1 X194.938 Y55.506 E24.2262
G1 X195.199 Y56.221 E24.25151
G1 X195.428 Y56.957 E24.27715
G1 X195.581 Y57.514 E24.29636
G1 X195.789 Y58.429 E24.32757
G1 X195.915 Y59.35 E24.35849
G1 X195.949 Y59.836 E24.37469
G1 X196.007 Y61.09 E24.41644
G1 X196.024 Y61.269 E24.42243
G1 X196.063 Y62.213 E24.45385
G1 X196.293 Y65.402 E24.56019
G1 X196.318 Y66.008 E24.58036
G1 X196.323 Y66.656 E24.60192
G1 X196.296 Y68.676 E24.66911
G1 X196.301 Y71.248 E24.75465
G1 X196.318 Y72.552 E24.79803
G1 X196.293 Y75.156 E24.88464
G1 X196.318 Y77.713 E24.96969
G1 X196.307 Y81.22 E25.08634
G1 X196.323 Y82.615 E25.13274
G1 X196.305 Y84.379 E25.19141
G1 X196.31 Y86.737 E25.26984
G1 X196.324 Y88.007 E25.31208
G1 X196.306 Y89.528 E25.36267
G1 X196.309 Y92.019 E25.44553
G1 X196.323 Y93.28 E25.48747
G1 X196.305 Y95.042 E25.54608
G1 X196.31 Y97.385 E25.624
G1 X196.324 Y98.668 E25.66668
G1 X196.306 Y100.199 E25.7176
G1 X196.309 Y102.689 E25.80042
G1 X196.323 Y103.946 E25.84223
G1 X196.305 Y105.705 E25.90074
G1 X196.31 Y108.048 E25.97867
G1 X196.323 Y109.297 E26.02021
G1 X196.305 Y110.878 E26.0728
G1 X196.309 Y113.365 E26.15552
G1 X196.323 Y114.615 E26.1971
G1 X196.305 Y116.339 E26.25444
G1 X196.31 Y118.7 E26.33297
G1 X196.323 Y119.918 E26.37348
G1 X196.305 Y121.7 E26.43275
G1 X196.31 Y124.043 E26.51068
G1 X196.323 Y125.264 E26.5513
G1 X196.305 Y127.023 E26.6098
G1 X196.31 Y129.376 E26.68806
G1 X196.323 Y130.591 E26.72848
G1 X196.305 Y132.363 E26.78742
G1 X196.31 Y134.706 E26.86535
G1 X196.323 Y135.927 E26.90596
G1 X196.305 Y137.686 E26.96447
G1 X196.31 Y140.039 E27.04273
G1 X196.323 Y141.253 E27.08311
G1 X196.305 Y143.014 E27.14168
G1 X196.31 Y145.367 E27.21994
G1 X196.323 Y146.583 E27.26039
G1 X196.305 Y148.349 E27.31913
G1 X196.31 Y150.701 E27.39736
G1 X196.323 Y151.918 E27.43784
G1 X196.305 Y153.691 E27.49681
G1 X196.31 Y156.044 E27.57507
G1 X196.323 Y157.253 E27.61529
G1 X196.305 Y159.012 E27.67379
G1 X196.31 Y161.364 E27.75202
G1 X196.323 Y162.58 E27.79247
G1 X196.305 Y164.344 E27.85114
G1 X196.31 Y166.695 E27.92934
G1 X196.335 Y168.546 E27.99091
G1 X196.341 Y169.959 E28.03791
G1 X196.425 Y172.489 E28.1221
G1 X196.475 Y173.592 E28.15882
G1 X196.473 Y174.548 E28.19062
G1 X196.389 Y175.487 E28.22198
G1 X196.173 Y176.624 E28.26047
G1 X195.98 Y177.363 E28.28587
G1 X195.814 Y177.927 E28.30543
G1 X195.522 Y178.782 E28.33548
G1 X195.126 Y179.672 E28.36788
G1 X194.668 Y180.491 E28.39909
G1 X194.135 Y181.274 E28.43059
G1 X193.284 Y182.275 E28.47429
G1 X192.902 Y182.671 E28.49259
G1 X192.415 Y183.15 E28.51531
G1 X191.74 Y183.751 E28.54537
G1 X190.958 Y184.331 E28.57775
G1 X190.157 Y184.82 E28.60897
G1 X189.309 Y185.239 E28.64043
G1 X188.052 Y185.7 E28.68496
G1 X186.922 Y186.036 E28.72417
G1 X184.521 Y186.787 E28.80784
G1 X183.574 Y187.063 E28.84065
G1 X182.661 Y187.284 E28.87189
G1 X181.768 Y187.419 E28.90193
G1 X180.796 Y187.479 E28.93432
G1 X179.855 Y187.453 E28.96563
G1 X178.625 Y187.357 E29.00666
G1 X177.028 Y187.18 E29.06011
G1 X174.46 Y186.943 E29.14588
G1 X171.96 Y186.783 E29.2292
G1 X169.357 Y186.691 E29.31583
G1 X167.482 Y186.671 E29.3782
G1 X65.328 Y186.67 E32.77585
G1 X62.734 Y186.707 E32.86214
G1 X60.168 Y186.816 E32.94756
G1 X57.667 Y186.993 E33.03095
G1 X55.012 Y187.255 E33.11969
G1 X54.076 Y187.305 E33.15086
G1 X53.137 Y187.272 E33.18211
G1 X52.2 Y187.154 E33.21353
G1 X50.982 Y186.872 E33.25511
G1 X50.469 Y186.72 E33.2729
G1 X49.509 Y186.384 E33.30673
G1 X48.696 Y186.053 E33.33593
G1 X47.404 Y185.508 E33.38257
G1 X46.21 Y185.024 E33.42542
G1 X45.358 Y184.632 E33.45661
G1 X44.543 Y184.166 E33.48784
G1 X43.771 Y183.628 E33.51913
G1 X42.994 Y182.973 E33.55293
G1 X42.424 Y182.424 E33.57926
G1 X41.954 Y181.942 E33.60165
G1 X41.331 Y181.241 E33.63284
G1 X40.772 Y180.487 E33.66406
G1 X40.282 Y179.687 E33.69526
G1 X39.879 Y178.879 E33.72529
G1 X39.47 Y177.811 E33.76333
G1 X39.257 Y177.121 E33.78735
G1 X39.103 Y176.569 E33.80641
G1 X38.893 Y175.654 E33.83763
G1 X38.764 Y174.72 E33.86899
G1 X38.72 Y173.626 E33.90541
G1 X38.731 Y172.63 E33.93854
G1 X38.722 Y169.94 E34.02801
G1 X38.68 Y167.903 E34.09577
G1 X38.69 Y166.691 E34.13609
G1 X38.706 Y165.953 E34.16064
G1 X38.693 Y163.45 E34.24389
G1 X38.68 Y162.582 E34.27276
G1 X38.706 Y160.578 E34.33942
G1 X38.693 Y158.127 E34.42094
G1 X38.68 Y157.255 E34.44995
G1 X38.69 Y156.039 E34.49039
G1 X38.706 Y155.294 E34.51518
G1 X38.693 Y152.787 E34.59856
G1 X38.68 Y151.919 E34.62744
G1 X38.706 Y149.915 E34.69409
G1 X38.693 Y147.464 E34.77562
G1 X38.68 Y146.593 E34.80459
G1 X38.69 Y145.362 E34.84553
G1 X38.706 Y144.625 E34.87005
G1 X38.693 Y142.127 E34.95314
G1 X38.68 Y141.257 E34.98208
G1 X38.69 Y140.034 E35.02276
G1 X38.706 Y139.295 E35.04734
G1 X38.693 Y136.792 E35.13059
G1 X38.68 Y135.924 E35.15946
G1 X38.706 Y133.92 E35.22612
G1 X38.693 Y131.469 E35.30765
G1 X38.68 Y130.597 E35.33665
G1 X38.69 Y129.371 E35.37743
G1 X38.706 Y128.632 E35.40201
G1 X38.693 Y126.129 E35.48527
G1 X38.68 Y125.261 E35.51414
G1 X38.706 Y123.257 E35.5808
G1 X38.693 Y120.806 E35.66232
G1 X38.68 Y119.934 E35.69133
G1 X38.69 Y118.718 E35.73177
G1 X38.706 Y117.973 E35.75656
G1 X38.693 Y115.469 E35.83984
G1 X38.68 Y114.598 E35.86881
G1 X38.69 Y113.385 E35.90916
G1 X38.706 Y112.641 E35.93391
G1 X38.693 Y110.134 E36.01729
G1 X38.68 Y109.266 E36.04617
G1 X38.706 Y107.262 E36.11283
G1 X38.693 Y104.811 E36.19435
G1 X38.68 Y103.939 E36.22335
G1 X38.69 Y102.723 E36.2638
G1 X38.706 Y101.978 E36.28858
G1 X38.693 Y99.471 E36.37197
G1 X38.68 Y98.603 E36.40084
G1 X38.706 Y96.599 E36.4675
G1 X38.693 Y94.148 E36.54902
G1 X38.68 Y93.27 E36.57823
G1 X38.706 Y91.316 E36.64322
G1 X38.698 Y89.04 E36.71892
G1 X38.681 Y87.702 E36.76343
G1 X38.701 Y86.408 E36.80647
G1 X38.695 Y83.57 E36.90087
G1 X38.681 Y82.397 E36.93988
G1 X38.701 Y81.055 E36.98452
G1 X38.692 Y78.081 E37.08344
G1 X38.68 Y77.249 E37.11111
G1 X38.706 Y75.324 E37.17515
G1 X38.693 Y72.813 E37.25866
G1 X38.68 Y71.945 E37.28754
G1 X38.706 Y69.941 E37.3542
G1 X38.693 Y67.49 E37.43572
G1 X38.68 Y66.617 E37.46476
G1 X38.688 Y65.654 E37.49679
G1 X38.717 Y64.338 E37.54057
G1 X38.707 Y62.078 E37.61574
G1 X38.685 Y60.76 E37.65958
G1 X38.713 Y59.821 E37.69083
G1 X38.824 Y58.886 E37.72214
G1 X39.066 Y57.781 E37.75977
G1 X39.292 Y56.978 E37.78751
G1 X39.415 Y56.577 E37.80146
G1 X39.718 Y55.726 E37.83151
G1 X40.125 Y54.841 E37.86391
G1 X40.593 Y54.027 E37.89513
G1 X41.13 Y53.259 E37.9263
G1 X41.71 Y52.564 E37.95641
G1 X42.231 Y52.003 E37.98188
G1 X42.654 Y51.573 E38.00194
G1 X43.341 Y50.932 E38.03319
