;FLAVOR:Marlin
;TIME:13973
;Filament used: 10.3362m
;Layer height: 0.2
;MINX:27.963
;MINY:37.649
;MINZ:0.2
;MAXX:199.807
;MAXY:197.352
;MAXZ:2
;TARGET_MACHINE.NAME:Creality Ender-3
;Generated with Cura_SteamEngine 5.8.1
M140 S50
M105
M190 S50
M104 S200
M105
M109 S200
M82 ;absolute extrusion mode
; Ender 3 Custom Start G-code
G92 E0 ; Reset Extruder
G28 ; Home all axes
G1 Z2.0 F3000 ; Move Z Axis up little to prevent scratching of Heat Bed
G1 X0.1 Y20 Z0.3 F5000.0 ; Move to start position
G1 X0.1 Y200.0 Z0.3 F1500.0 E15 ; Draw the first line
G1 X0.4 Y200.0 Z0.3 F5000.0 ; Move to side a little
G1 X0.4 Y20 Z0.3 F1500.0 E30 ; Draw the second line
G92 E0 ; Reset Extruder
G1 Z2.0 F3000 ; Move Z Axis up little to prevent scratching of Heat Bed
G1 X5 Y20 Z0.3 F5000.0 ; Move over to prevent blob squish
G92 E0
G92 E0
G1 F2700 E-5
;LAYER_COUNT:10
;LAYER:0
M107
G0 F6000 X41.872 Y47.86 Z0.2
;TYPE:SKIRT
G1 F2700 E0
G1 F1200 X43.079 Y46.838 E0.0526
G1 X43.425 Y46.56 E0.06737
G1 X44.47 Y45.757 E0.1112
G1 X44.843 Y45.483 E0.12659
G1 X46.004 Y44.668 E0.17377
G1 X46.398 Y44.406 E0.18951
G1 X47.475 Y43.719 E0.232
G1 X47.891 Y43.467 E0.24817
G1 X49.19 Y42.722 E0.29798
G1 X49.601 Y42.498 E0.31355
G1 X50.65 Y41.956 E0.35282
G1 X51.054 Y41.758 E0.36778
G1 X52.331 Y41.166 E0.4146
G1 X52.764 Y40.976 E0.43033
G1 X53.986 Y40.474 E0.47427
G1 X54.439 Y40.3 E0.49041
G1 X55.729 Y39.837 E0.53599
G1 X56.17 Y39.689 E0.55146
G1 X57.433 Y39.296 E0.59546
G1 X57.891 Y39.166 E0.61129
G1 X59.232 Y38.815 E0.6574
G1 X59.709 Y38.702 E0.6737
G1 X61.042 Y38.417 E0.71904
G1 X61.485 Y38.333 E0.73404
G1 X62.738 Y38.12 E0.77631
G1 X63.201 Y38.053 E0.79187
G1 X64.596 Y37.88 E0.83862
G1 X65.082 Y37.831 E0.85487
G1 X66.852 Y37.703 E0.91389
G1 X68.249 Y37.655 E0.96038
G1 X68.721 Y37.649 E0.97608
G1 X69.98 Y37.661 E1.01796
G1 X70.453 Y37.678 E1.0337
G1 X71.884 Y37.755 E1.08137
G1 X72.361 Y37.792 E1.09728
G1 X73.672 Y37.923 E1.1411
G1 X74.137 Y37.98 E1.15668
G1 X75.446 Y38.17 E1.20068
G1 X75.897 Y38.246 E1.21589
G1 X77.228 Y38.498 E1.26094
G1 X77.703 Y38.6 E1.2771
G1 X79.081 Y38.927 E1.32421
G1 X79.542 Y39.046 E1.34004
G1 X80.797 Y39.405 E1.38346
G1 X81.24 Y39.543 E1.39889
G1 X82.725 Y40.039 E1.45097
G1 X85.311 Y40.956 E1.54222
G1 X87.717 Y41.732 E1.62631
G1 X90.145 Y42.442 E1.71044
G1 X92.572 Y43.075 E1.79387
G1 X95.049 Y43.649 E1.87844
G1 X97.493 Y44.141 E1.96135
G1 X99.974 Y44.57 E2.0451
G1 X102.492 Y44.931 E2.1297
G1 X104.96 Y45.214 E2.21233
G1 X107.477 Y45.433 E2.29636
G1 X109.963 Y45.575 E2.37918
G1 X112.531 Y45.65 E2.46463
G1 X115.021 Y45.654 E2.54744
G1 X117.552 Y45.585 E2.63166
G1 X120.048 Y45.448 E2.7148
G1 X122.565 Y45.237 E2.79881
G1 X125.062 Y44.955 E2.88239
G1 X127.539 Y44.605 E2.96559
G1 X130.045 Y44.179 E3.05014
G1 X132.451 Y43.7 E3.13173
G1 X134.985 Y43.118 E3.21821
G1 X137.372 Y42.501 E3.30021
G1 X139.833 Y41.789 E3.38542
G1 X142.225 Y41.022 E3.46897
G1 X145.526 Y39.863 E3.58533
G1 X146.808 Y39.446 E3.63017
G1 X148.319 Y39.016 E3.68242
G1 X148.777 Y38.9 E3.69813
G1 X150.551 Y38.496 E3.75865
G1 X151.427 Y38.321 E3.78836
G1 X151.908 Y38.236 E3.8046
G1 X153.719 Y37.967 E3.8655
G1 X154.354 Y37.892 E3.88677
G1 X155.424 Y37.787 E3.92253
G1 X155.9 Y37.751 E3.9384
G1 X157.14 Y37.681 E3.97971
G1 X157.769 Y37.661 E4.00064
G1 X158.943 Y37.649 E4.03969
G1 X159.869 Y37.661 E4.07049
G1 X160.525 Y37.684 E4.09232
G1 X161.406 Y37.73 E4.12167
G1 X162.613 Y37.824 E4.16193
G1 X163.308 Y37.895 E4.18517
G1 X164.349 Y38.023 E4.22005
G1 X165.077 Y38.13 E4.24453
G1 X166.131 Y38.306 E4.28007
G1 X167.143 Y38.502 E4.31435
G1 X167.895 Y38.666 E4.33995
G1 X169.411 Y39.04 E4.39189
G1 X170.688 Y39.405 E4.43606
G1 X171.425 Y39.638 E4.46177
G1 X172.378 Y39.957 E4.4952
G1 X172.919 Y40.151 E4.51431
G1 X174.101 Y40.604 E4.55641
G1 X174.815 Y40.9 E4.58212
G1 X175.574 Y41.232 E4.60967
G1 X176.45 Y41.637 E4.64177
G1 X177.268 Y42.037 E4.67206
G1 X178.16 Y42.502 E4.70552
G1 X179.157 Y43.055 E4.74344
G1 X179.547 Y43.282 E4.75844
G1 X180.864 Y44.094 E4.8099
G1 X182.163 Y44.953 E4.8617
G1 X182.626 Y45.277 E4.8805
G1 X183.899 Y46.225 E4.93329
G1 X184.638 Y46.808 E4.9646
G1 X184.978 Y47.088 E4.97924
G1 X186.006 Y47.97 E5.0243
G1 X186.354 Y48.281 E5.03982
G1 X187.357 Y49.224 E5.08561
G1 X187.691 Y49.552 E5.10118
G1 X188.575 Y50.457 E5.14326
G1 X188.887 Y50.79 E5.15843
G1 X189.819 Y51.831 E5.20491
G1 X190.144 Y52.213 E5.22159
G1 X191.066 Y53.346 E5.27017
G1 X191.398 Y53.777 E5.28827
G1 X192.399 Y55.145 E5.34465
G1 X192.72 Y55.609 E5.36341
G1 X193.454 Y56.735 E5.40812
G1 X194.1 Y57.786 E5.44915
G1 X194.319 Y58.163 E5.46365
G1 X195.004 Y59.401 E5.51071
G1 X195.22 Y59.812 E5.52615
G1 X195.777 Y60.929 E5.56767
G1 X195.978 Y61.356 E5.58336
G1 X196.565 Y62.681 E5.63156
G1 X196.749 Y63.119 E5.64737
G1 X197.228 Y64.346 E5.69117
G1 X197.389 Y64.786 E5.70676
G1 X197.806 Y66.013 E5.74986
G1 X197.945 Y66.45 E5.76511
G1 X198.324 Y67.744 E5.80996
G1 X198.452 Y68.215 E5.82619
G1 X198.792 Y69.61 E5.87395
G1 X198.89 Y70.061 E5.8893
G1 X199.15 Y71.369 E5.93366
G1 X199.23 Y71.827 E5.94912
G1 X199.42 Y73.062 E5.99068
G1 X199.48 Y73.525 E6.00621
G1 X199.636 Y74.97 E6.05455
G1 X199.676 Y75.464 E6.07103
G1 X199.76 Y76.827 E6.11645
G1 X199.778 Y77.298 E6.13213
G1 X199.807 Y79.18 E6.19473
G1 X199.756 Y156.18 E8.75576
G1 X199.749 Y156.961 E8.78174
G1 X199.714 Y158.196 E8.82283
G1 X199.692 Y158.625 E8.83712
G1 X199.599 Y159.938 E8.8809
G1 X199.555 Y160.41 E8.89667
G1 X199.402 Y161.737 E8.94109
G1 X199.337 Y162.207 E8.95688
G1 X199.115 Y163.577 E9.00304
G1 X199.03 Y164.046 E9.01889
G1 X198.741 Y165.438 E9.06617
G1 X198.631 Y165.913 E9.08239
G1 X198.322 Y167.117 E9.12373
G1 X198.205 Y167.538 E9.13827
G1 X197.808 Y168.858 E9.18411
G1 X197.657 Y169.318 E9.20022
G1 X197.213 Y170.584 E9.24484
G1 X197.039 Y171.048 E9.26132
G1 X196.473 Y172.446 E9.31148
G1 X196.277 Y172.897 E9.32784
G1 X195.732 Y174.084 E9.37128
G1 X195.538 Y174.485 E9.3861
G1 X194.966 Y175.604 E9.4279
G1 X194.755 Y175.994 E9.44265
G1 X194.092 Y177.167 E9.48746
G1 X193.814 Y177.63 E9.50542
G1 X192.933 Y179.018 E9.5601
G1 X192.671 Y179.411 E9.57581
G1 X191.796 Y180.649 E9.62623
G1 X191.035 Y181.651 E9.66808
G1 X190.749 Y182.011 E9.68337
G1 X189.894 Y183.043 E9.72795
G1 X189.586 Y183.398 E9.74358
G1 X188.652 Y184.429 E9.78985
G1 X188.319 Y184.778 E9.80589
G1 X187.409 Y185.694 E9.84884
G1 X187.071 Y186.019 E9.86444
G1 X185.988 Y187.016 E9.9134
G1 X185.625 Y187.336 E9.92949
G1 X184.653 Y188.153 E9.97172
G1 X184.299 Y188.437 E9.98682
G1 X183.256 Y189.239 E10.03058
G1 X182.883 Y189.513 E10.04597
G1 X181.717 Y190.332 E10.09336
G1 X181.315 Y190.601 E10.10945
G1 X180.233 Y191.29 E10.15212
G1 X179.829 Y191.533 E10.1678
G1 X178.593 Y192.244 E10.21522
G1 X178.182 Y192.468 E10.23079
G1 X177.048 Y193.055 E10.27326
G1 X176.633 Y193.259 E10.28864
G1 X175.373 Y193.844 E10.33485
G1 X174.931 Y194.036 E10.35087
G1 X173.646 Y194.563 E10.39707
G1 X173.197 Y194.734 E10.41305
G1 X171.985 Y195.166 E10.45584
G1 X171.555 Y195.31 E10.47093
G1 X170.023 Y195.781 E10.52423
G1 X169.41 Y195.948 E10.54537
G1 X167.988 Y196.304 E10.59412
G1 X166.76 Y196.567 E10.63589
G1 X164.945 Y196.885 E10.69718
G1 X164.467 Y196.955 E10.71325
G1 X163.115 Y197.122 E10.75856
G1 X162.637 Y197.17 E10.77453
G1 X161.298 Y197.273 E10.8192
G1 X160.833 Y197.3 E10.83469
G1 X159.512 Y197.344 E10.87865
G1 X159.038 Y197.349 E10.89442
G1 X157.672 Y197.334 E10.93986
G1 X157.225 Y197.319 E10.95473
G1 X155.91 Y197.25 E10.99853
G1 X155.426 Y197.212 E11.01468
G1 X154.001 Y197.07 E11.06231
G1 X153.525 Y197.012 E11.07826
G1 X152.249 Y196.826 E11.12114
G1 X151.789 Y196.749 E11.13666
G1 X150.427 Y196.489 E11.18277
G1 X149.959 Y196.388 E11.1987
G1 X148.235 Y195.969 E11.25771
G1 X146.952 Y195.604 E11.30207
G1 X146.495 Y195.463 E11.31798
G1 X145.15 Y195.015 E11.36513
G1 X142.539 Y194.088 E11.45729
G1 X140.113 Y193.302 E11.5421
G1 X137.711 Y192.597 E11.62536
G1 X135.282 Y191.959 E11.70889
G1 X132.828 Y191.388 E11.79269
G1 X130.349 Y190.885 E11.87683
G1 X127.898 Y190.459 E11.95957
G1 X125.391 Y190.095 E12.04383
G1 X122.858 Y189.8 E12.12864
G1 X120.403 Y189.586 E12.21061
G1 X117.887 Y189.438 E12.29443
G1 X115.353 Y189.36 E12.37876
G1 X112.862 Y189.353 E12.46161
G1 X110.297 Y189.42 E12.54695
G1 X107.836 Y189.553 E12.62892
G1 X105.282 Y189.763 E12.71415
G1 X102.814 Y190.039 E12.79675
G1 X100.281 Y190.392 E12.88181
G1 X97.814 Y190.808 E12.96503
G1 X95.37 Y191.293 E13.0479
G1 X92.889 Y191.857 E13.13252
G1 X90.472 Y192.481 E13.21555
G1 X88.076 Y193.17 E13.29847
G1 X85.639 Y193.947 E13.38354
G1 X83.713 Y194.626 E13.45147
G1 X83.53 Y194.682 E13.45783
G1 X82.507 Y195.046 E13.49395
G1 X81.345 Y195.434 E13.53469
G1 X80.56 Y195.675 E13.562
G1 X79.53 Y195.965 E13.59759
G1 X79.059 Y196.087 E13.61378
G1 X77.843 Y196.375 E13.65534
G1 X77.019 Y196.551 E13.68336
G1 X76.262 Y196.695 E13.70899
G1 X75.423 Y196.838 E13.7373
G1 X74.254 Y197.007 E13.77659
G1 X73.431 Y197.106 E13.80416
G1 X72.492 Y197.199 E13.83554
G1 X71.752 Y197.255 E13.86022
G1 X70.892 Y197.306 E13.88888
G1 X69.939 Y197.339 E13.92059
G1 X69.128 Y197.352 E13.94757
G1 X67.912 Y197.34 E13.98802
G1 X67.08 Y197.309 E14.01571
G1 X65.838 Y197.233 E14.0571
G1 X64.552 Y197.114 E14.10005
G1 X63.842 Y197.033 E14.12382
G1 X62.039 Y196.762 E14.18446
G1 X60.99 Y196.57 E14.21993
G1 X60.519 Y196.471 E14.23594
G1 X58.903 Y196.098 E14.2911
G1 X58.428 Y195.976 E14.30741
G1 X57.089 Y195.597 E14.3537
G1 X56.394 Y195.38 E14.37791
G1 X55.406 Y195.047 E14.41259
G1 X54.639 Y194.77 E14.43971
G1 X53.513 Y194.33 E14.47992
G1 X53.083 Y194.151 E14.49541
G1 X51.638 Y193.508 E14.54802
G1 X50.447 Y192.933 E14.59201
G1 X49.198 Y192.273 E14.63899
G1 X48.782 Y192.041 E14.65483
G1 X47.661 Y191.384 E14.69805
G1 X47.269 Y191.142 E14.71337
G1 X46.144 Y190.415 E14.75792
G1 X45.752 Y190.148 E14.7737
G1 X44.606 Y189.332 E14.82049
G1 X44.219 Y189.043 E14.83655
G1 X43.187 Y188.235 E14.88015
G1 X42.831 Y187.943 E14.89546
G1 X41.834 Y187.091 E14.93908
G1 X41.481 Y186.776 E14.95482
G1 X40.439 Y185.803 E15.00223
G1 X40.09 Y185.461 E15.01849
G1 X39.179 Y184.529 E15.06183
G1 X38.865 Y184.191 E15.07718
G1 X37.94 Y183.156 E15.12335
G1 X37.626 Y182.789 E15.13941
G1 X36.777 Y181.747 E15.18411
G1 X36.492 Y181.383 E15.19949
G1 X35.691 Y180.308 E15.24408
G1 X35.421 Y179.928 E15.25958
G1 X34.691 Y178.851 E15.30286
G1 X34.351 Y178.328 E15.32361
G1 X33.637 Y177.161 E15.36911
G1 X33.423 Y176.793 E15.38327
G1 X32.808 Y175.683 E15.42547
G1 X32.593 Y175.275 E15.44081
G1 X31.992 Y174.07 E15.4856
G1 X31.793 Y173.647 E15.50115
G1 X31.23 Y172.382 E15.5472
G1 X31.048 Y171.944 E15.56298
G1 X30.57 Y170.729 E15.6064
G1 X30.41 Y170.287 E15.62204
G1 X29.942 Y168.92 E15.67009
G1 X29.799 Y168.47 E15.6858
G1 X29.439 Y167.239 E15.72846
G1 X29.313 Y166.775 E15.74445
G1 X28.992 Y165.454 E15.78966
G1 X28.892 Y165.006 E15.80493
G1 X28.626 Y163.671 E15.85021
G1 X28.544 Y163.195 E15.86627
G1 X28.34 Y161.863 E15.91109
G1 X28.281 Y161.412 E15.92622
G1 X28.139 Y160.102 E15.97004
G1 X28.1 Y159.623 E15.98603
G1 X28.014 Y158.264 E16.03132
G1 X27.996 Y157.787 E16.0472
G1 X27.963 Y155.816 E16.11276
G1 X27.971 Y78.164 E18.69548
G1 X28.006 Y76.837 E18.73963
G1 X28.028 Y76.409 E18.75388
G1 X28.123 Y75.066 E18.79866
G1 X28.166 Y74.601 E18.8142
G1 X28.32 Y73.258 E18.85916
G1 X28.384 Y72.789 E18.8749
G1 X28.595 Y71.471 E18.91929
G1 X28.682 Y70.996 E18.93536
G1 X28.963 Y69.641 E18.98138
G1 X29.068 Y69.187 E18.99688
G1 X29.398 Y67.887 E19.04149
G1 X29.52 Y67.449 E19.05661
G1 X29.893 Y66.202 E19.0999
G1 X30.039 Y65.751 E19.11567
G1 X30.514 Y64.399 E19.16333
G1 X30.68 Y63.958 E19.17901
G1 X31.162 Y62.755 E19.22211
G1 X31.348 Y62.321 E19.23781
G1 X31.924 Y61.051 E19.2842
G1 X32.131 Y60.624 E19.29998
G1 X32.706 Y59.492 E19.34221
G1 X32.925 Y59.085 E19.35758
G1 X33.637 Y57.825 E19.40572
G1 X33.884 Y57.412 E19.42172
G1 X34.618 Y56.241 E19.46769
G1 X34.879 Y55.845 E19.48346
G1 X35.587 Y54.819 E19.52492
G1 X35.855 Y54.451 E19.54007
G1 X36.7 Y53.334 E19.58665
G1 X37.005 Y52.949 E19.60299
G1 X37.905 Y51.868 E19.64977
G1 X38.208 Y51.521 E19.66509
G1 X39.058 Y50.586 E19.70712
G1 X39.373 Y50.256 E19.72229
G1 X40.538 Y49.086 E19.77721
G1 X41.012 Y48.639 E19.79888
G1 X41.872 Y47.86 E19.83747
G0 F6000 X42.131 Y48.165
G1 F1200 X43.329 Y47.15 E19.8897
G1 X43.669 Y46.877 E19.9042
G1 X44.707 Y46.079 E19.94775
G1 X45.073 Y45.81 E19.96286
G1 X46.225 Y45.001 E20.00967
G1 X46.613 Y44.743 E20.02517
G1 X47.683 Y44.061 E20.06738
G1 X48.09 Y43.814 E20.08321
G1 X49.381 Y43.073 E20.13272
G1 X49.785 Y42.853 E20.14802
G1 X50.826 Y42.315 E20.18699
G1 X51.222 Y42.121 E20.20166
G1 X52.492 Y41.532 E20.24822
G1 X52.916 Y41.346 E20.26362
G1 X54.13 Y40.847 E20.30728
G1 X54.574 Y40.676 E20.3231
G1 X55.856 Y40.216 E20.3684
G1 X56.289 Y40.071 E20.38359
G1 X57.543 Y39.681 E20.42727
G1 X57.992 Y39.553 E20.4428
G1 X59.324 Y39.204 E20.4886
G1 X59.793 Y39.093 E20.50463
G1 X61.117 Y38.81 E20.54966
G1 X61.552 Y38.727 E20.56439
G1 X62.796 Y38.516 E20.60635
G1 X63.25 Y38.45 E20.62161
G1 X64.636 Y38.278 E20.66806
G1 X65.113 Y38.23 E20.68401
G1 X66.423 Y38.129 E20.72771
G1 X66.866 Y38.103 E20.74247
G1 X68.254 Y38.055 E20.78866
G1 X68.717 Y38.049 E20.80406
G1 X69.966 Y38.061 E20.84561
G1 X70.431 Y38.077 E20.86108
G1 X71.853 Y38.154 E20.90845
G1 X72.321 Y38.19 E20.92406
G1 X73.623 Y38.32 E20.96758
G1 X74.079 Y38.376 E20.98286
G1 X75.38 Y38.565 E21.02659
G1 X75.823 Y38.639 E21.04152
G1 X77.144 Y38.889 E21.08624
G1 X77.611 Y38.989 E21.10212
G1 X78.981 Y39.314 E21.14896
G1 X79.432 Y39.431 E21.16445
G1 X80.678 Y39.787 E21.20755
G1 X81.113 Y39.922 E21.2227
G1 X82.591 Y40.416 E21.27453
G1 X85.188 Y41.337 E21.36618
G1 X87.594 Y42.113 E21.45026
G1 X90.037 Y42.827 E21.53492
G1 X92.482 Y43.465 E21.61896
G1 X94.959 Y44.039 E21.70353
G1 X97.417 Y44.534 E21.78692
G1 X99.917 Y44.966 E21.87131
G1 X102.435 Y45.327 E21.95591
G1 X104.925 Y45.613 E22.03928
G1 X107.442 Y45.831 E22.1233
G1 X109.951 Y45.975 E22.20689
G1 X112.519 Y46.05 E22.29234
G1 X115.031 Y46.054 E22.37589
G1 X117.563 Y45.985 E22.46014
G1 X120.081 Y45.846 E22.54401
G1 X122.598 Y45.635 E22.62802
G1 X125.118 Y45.351 E22.71237
G1 X127.595 Y45.001 E22.79557
G1 X130.119 Y44.572 E22.88072
G1 X132.541 Y44.09 E22.96286
G1 X135.075 Y43.508 E23.04933
G1 X137.478 Y42.886 E23.13189
G1 X139.955 Y42.17 E23.21765
G1 X142.347 Y41.403 E23.3012
G1 X145.65 Y40.243 E23.41764
G1 X146.918 Y39.831 E23.46198
G1 X148.417 Y39.404 E23.51382
G1 X148.866 Y39.29 E23.52923
G1 X150.629 Y38.888 E23.58937
G1 X151.496 Y38.715 E23.61878
G1 X151.967 Y38.632 E23.63468
G1 X153.766 Y38.364 E23.69518
G1 X154.393 Y38.29 E23.71618
G1 X155.455 Y38.186 E23.75167
G1 X155.922 Y38.15 E23.76725
G1 X157.153 Y38.081 E23.80825
G1 X157.773 Y38.061 E23.82889
G1 X158.938 Y38.049 E23.86764
G1 X159.855 Y38.061 E23.89814
G1 X160.504 Y38.083 E23.91974
G1 X161.375 Y38.129 E23.94875
G1 X162.572 Y38.222 E23.98868
G1 X163.259 Y38.292 E24.01165
G1 X164.291 Y38.419 E24.04623
G1 X165.011 Y38.524 E24.07043
G1 X166.055 Y38.699 E24.10564
G1 X167.058 Y38.893 E24.13962
G1 X167.802 Y39.055 E24.16494
G1 X168.607 Y39.247 E24.19247
G1 X169.301 Y39.425 E24.2163
G1 X170.567 Y39.786 E24.26008
G1 X171.298 Y40.017 E24.28558
G1 X172.243 Y40.334 E24.31873
G1 X172.776 Y40.525 E24.33756
G1 X173.958 Y40.978 E24.37967
G1 X174.655 Y41.267 E24.40476
G1 X175.406 Y41.595 E24.43202
G1 X176.274 Y41.996 E24.46382
G1 X177.083 Y42.392 E24.49378
G1 X177.966 Y42.852 E24.52689
G1 X178.955 Y43.4 E24.5645
G1 X179.337 Y43.623 E24.57921
G1 X180.643 Y44.428 E24.63024
G1 X181.934 Y45.281 E24.6817
G1 X182.387 Y45.598 E24.70009
G1 X183.651 Y46.539 E24.75251
G1 X184.384 Y47.117 E24.78355
G1 X184.718 Y47.392 E24.79794
G1 X185.739 Y48.268 E24.84269
