;FLAVOR:Marlin
;TIME:13770
;Filament used: 9.65907m
;Layer height: 0.2
;MINX:17.953
;MINY:16.179
;MINZ:0.2
;MAXX:220.72
;MAXY:192.672
;MAXZ:11
;TARGET_MACHINE.NAME:Creality Ender-3
;Generated with Cura_SteamEngine 5.8.1
M140 S50
M105
M190 S50
M104 S200
M105
M109 S200
M82 ;absolute extrusion mode
; Ender 3 Custom Start G-code
G92 E0 ; Reset Extruder
G28 ; Home all axes
G1 Z2.0 F3000 ; Move Z Axis up little to prevent scratching of Heat Bed
G1 X0.1 Y20 Z0.3 F5000.0 ; Move to start position
G1 X0.1 Y200.0 Z0.3 F1500.0 E15 ; Draw the first line
G1 X0.4 Y200.0 Z0.3 F5000.0 ; Move to side a little
G1 X0.4 Y20 Z0.3 F1500.0 E30 ; Draw the second line
G92 E0 ; Reset Extruder
G1 Z2.0 F3000 ; Move Z Axis up little to prevent scratching of Heat Bed
G1 X5 Y20 Z0.3 F5000.0 ; Move over to prevent blob squish
G92 E0
G92 E0
G1 F2700 E-5
;LAYER_COUNT:55
;LAYER:0
M107
G0 F6000 X29.483 Y29.708 Z0.2
;TYPE:SKIRT
G1 F2700 E0
G1 F1200 X30.105 Y29.114 E0.02861
G1 X30.81 Y28.503 E0.05964
G1 X31.351 Y28.101 E0.08205
G1 X31.75 Y27.824 E0.09821
G1 X32.907 Y27.123 E0.1432
G1 X33.61 Y26.758 E0.16955
G1 X34.94 Y26.088 E0.21908
G1 X37.146 Y24.897 E0.30246
G1 X39.308 Y23.649 E0.38549
G1 X41.482 Y22.312 E0.47038
G1 X43.003 Y21.327 E0.53065
G1 X43.642 Y20.94 E0.5555
G1 X44.501 Y20.484 E0.58784
G1 X45.36 Y20.118 E0.6189
G1 X46.109 Y19.851 E0.64535
G1 X46.933 Y19.605 E0.67395
G1 X48.244 Y19.263 E0.71901
G1 X48.869 Y19.115 E0.74037
G1 X49.758 Y18.954 E0.77042
G1 X50.759 Y18.86 E0.80386
G1 X51.312 Y18.836 E0.82227
G1 X52.347 Y18.84 E0.8567
G1 X54.542 Y18.951 E0.9298
G1 X57.103 Y19.017 E1.015
G1 X59.566 Y19.01 E1.09692
G1 X62.597 Y18.911 E1.19779
G1 X64.273 Y18.835 E1.25359
G1 X65.247 Y18.835 E1.28598
G1 X66.147 Y18.913 E1.31603
G1 X67.346 Y19.136 E1.35659
G1 X68.279 Y19.37 E1.38859
G1 X69.772 Y19.789 E1.44016
G1 X70.712 Y20.103 E1.47313
G1 X71.959 Y20.674 E1.51874
G1 X72.905 Y21.183 E1.55447
G1 X74.48 Y22.059 E1.61441
G1 X76.696 Y23.211 E1.69748
G1 X78.941 Y24.298 E1.78044
G1 X81.286 Y25.354 E1.86598
G1 X83.581 Y26.309 E1.94866
G1 X85.967 Y27.222 E2.03363
G1 X88.313 Y28.048 E2.11635
G1 X90.711 Y28.815 E2.20009
G1 X93.115 Y29.511 E2.28333
G1 X95.551 Y30.139 E2.367
G1 X98.051 Y30.711 E2.4523
G1 X100.498 Y31.198 E2.53529
G1 X102.949 Y31.614 E2.61797
G1 X105.451 Y31.965 E2.702
G1 X108.005 Y32.252 E2.78748
G1 X110.457 Y32.459 E2.86933
G1 X112.997 Y32.596 E2.95393
G1 X115.501 Y32.664 E3.03725
G1 X118.02 Y32.66 E3.12103
G1 X120.527 Y32.585 E3.20445
G1 X123.041 Y32.438 E3.28821
G1 X125.578 Y32.22 E3.3729
G1 X128.036 Y31.937 E3.45519
G1 X130.554 Y31.574 E3.53981
G1 X133.037 Y31.144 E3.62362
G1 X135.478 Y30.652 E3.70644
G1 X137.929 Y30.084 E3.79012
G1 X140.383 Y29.441 E3.8745
G1 X142.804 Y28.733 E3.9584
G1 X145.187 Y27.963 E4.04169
G1 X147.592 Y27.11 E4.12656
G1 X149.863 Y26.232 E4.20754
G1 X152.261 Y25.224 E4.29406
G1 X154.542 Y24.191 E4.37735
G1 X156.792 Y23.093 E4.46062
G1 X159.004 Y21.934 E4.54367
G1 X161.204 Y20.701 E4.62756
G1 X163.404 Y19.385 E4.71282
G1 X164.746 Y18.542 E4.76553
G1 X165.531 Y18.096 E4.79556
G1 X166.077 Y17.834 E4.8157
G1 X166.545 Y17.626 E4.83274
G1 X167.807 Y17.158 E4.8775
G1 X168.587 Y16.931 E4.90452
G1 X169.805 Y16.613 E4.94639
G1 X170.387 Y16.474 E4.96629
G1 X171.276 Y16.312 E4.99635
G1 X172.3 Y16.215 E5.03056
G1 X172.849 Y16.191 E5.04884
G1 X173.754 Y16.188 E5.07894
G1 X176.037 Y16.302 E5.15497
G1 X178.591 Y16.368 E5.23994
G1 X181.082 Y16.361 E5.32279
G1 X183.648 Y16.282 E5.40818
G1 X185.397 Y16.188 E5.46643
G1 X186.3 Y16.179 E5.49647
G1 X186.996 Y16.223 E5.51966
G1 X187.531 Y16.275 E5.53754
G1 X188.897 Y16.496 E5.58357
G1 X189.759 Y16.708 E5.61309
G1 X191.294 Y17.14 E5.66613
G1 X192.191 Y17.438 E5.69757
G1 X193.383 Y17.974 E5.74104
G1 X193.841 Y18.215 E5.75825
G1 X194.724 Y18.733 E5.7923
G1 X195.233 Y19.066 E5.81253
G1 X197.416 Y20.45 E5.8985
G1 X199.617 Y21.76 E5.98369
G1 X201.766 Y22.96 E6.06555
G1 X204.733 Y24.5 E6.17674
G1 X205.813 Y25.145 E6.21858
G1 X206.156 Y25.379 E6.23239
G1 X206.938 Y25.965 E6.26489
G1 X207.397 Y26.363 E6.28509
G1 X207.912 Y26.837 E6.30837
G1 X208.477 Y27.385 E6.33455
G1 X209.42 Y28.366 E6.37981
G1 X210.058 Y29.102 E6.41221
G1 X210.626 Y29.886 E6.44441
G1 X211.149 Y30.745 E6.47786
G1 X211.465 Y31.321 E6.49971
G1 X211.951 Y32.276 E6.53535
G1 X213.147 Y34.547 E6.62072
G1 X214.371 Y36.717 E6.70358
G1 X215.661 Y38.86 E6.78678
G1 X216.655 Y40.401 E6.84777
G1 X217.438 Y41.638 E6.89646
G1 X217.903 Y42.454 E6.9277
G1 X218.322 Y43.367 E6.96111
G1 X218.605 Y44.149 E6.98877
G1 X218.821 Y44.864 E7.01361
G1 X219.18 Y46.192 E7.05937
G1 X219.355 Y46.916 E7.08414
G1 X219.524 Y47.803 E7.11417
G1 X219.605 Y48.487 E7.13708
G1 X219.653 Y49.064 E7.15634
G1 X219.69 Y49.967 E7.1864
G1 X219.678 Y50.497 E7.20403
G1 X219.545 Y53.219 E7.29467
G1 X219.493 Y55.728 E7.37814
G1 X219.513 Y58.246 E7.46189
G1 X219.604 Y60.773 E7.54599
G1 X219.673 Y62.001 E7.5869
G1 X219.669 Y63.232 E7.62785
G1 X219.641 Y63.704 E7.64357
G1 X219.547 Y64.602 E7.6736
G1 X219.38 Y65.494 E7.70379
G1 X219.124 Y66.568 E7.74051
G1 X218.768 Y67.873 E7.7855
G1 X218.378 Y69.16 E7.83023
G1 X218.108 Y70.008 E7.85983
G1 X217.422 Y72.395 E7.94243
G1 X216.79 Y74.858 E8.02701
G1 X216.226 Y77.337 E8.11157
G1 X215.739 Y79.799 E8.19504
G1 X215.323 Y82.268 E8.27832
G1 X214.979 Y84.743 E8.36143
G1 X214.702 Y87.249 E8.44528
G1 X214.49 Y89.8 E8.53042
G1 X214.36 Y92.244 E8.61182
G1 X214.293 Y94.819 E8.6975
G1 X214.301 Y97.305 E8.78018
G1 X214.379 Y99.837 E8.86444
G1 X214.527 Y102.33 E8.9475
G1 X214.745 Y104.826 E9.03083
G1 X215.039 Y107.343 E9.11512
G1 X215.4 Y109.832 E9.19877
G1 X215.832 Y112.313 E9.28253
G1 X216.33 Y114.766 E9.36578
G1 X216.897 Y117.2 E9.4489
G1 X217.545 Y119.661 E9.53355
G1 X218.254 Y122.078 E9.61732
G1 X219.051 Y124.532 E9.70314
G1 X219.614 Y126.16 E9.76044
G1 X219.759 Y126.615 E9.77632
G1 X220.018 Y127.511 E9.80734
G1 X220.359 Y128.847 E9.8532
G1 X220.544 Y129.731 E9.88324
G1 X220.657 Y130.643 E9.9138
G1 X220.687 Y131.011 E9.92608
G1 X220.71 Y132.455 E9.97412
G1 X220.589 Y134.882 E10.05494
G1 X220.532 Y137.384 E10.13818
G1 X220.545 Y139.907 E10.2221
G1 X220.63 Y142.448 E10.30666
G1 X220.715 Y143.991 E10.35806
G1 X220.72 Y145.052 E10.39334
G1 X220.699 Y145.515 E10.40876
G1 X220.606 Y146.521 E10.44236
G1 X220.44 Y147.441 E10.47346
G1 X220.23 Y148.342 E10.50423
G1 X219.944 Y149.416 E10.54119
G1 X219.748 Y150.089 E10.56451
G1 X219.447 Y150.973 E10.59557
G1 X219.165 Y151.634 E10.61947
G1 X219.005 Y151.976 E10.63203
G1 X218.587 Y152.777 E10.66208
G1 X218.276 Y153.287 E10.68195
G1 X217.433 Y154.584 E10.7334
G1 X216.085 Y156.742 E10.81802
G1 X214.817 Y158.908 E10.9015
G1 X213.609 Y161.109 E10.98501
G1 X212.409 Y163.452 E11.07256
G1 X211.918 Y164.305 E11.1053
G1 X211.698 Y164.649 E11.11888
G1 X211.158 Y165.418 E11.15013
G1 X210.536 Y166.155 E11.18221
G1 X209.997 Y166.728 E11.20837
G1 X209.181 Y167.547 E11.24683
G1 X208.537 Y168.162 E11.27644
G1 X207.803 Y168.796 E11.3087
G1 X207.107 Y169.303 E11.33734
G1 X206.736 Y169.549 E11.35215
G1 X205.755 Y170.13 E11.39007
G1 X205.056 Y170.493 E11.41627
G1 X203.926 Y171.061 E11.45833
G1 X201.678 Y172.273 E11.54327
G1 X199.518 Y173.516 E11.62616
G1 X196.231 Y175.563 E11.75495
G1 X195.633 Y175.953 E11.7787
G1 X194.814 Y176.436 E11.81032
G1 X194.183 Y176.746 E11.83371
G1 X193.722 Y176.954 E11.85053
G1 X192.834 Y177.308 E11.88232
G1 X192.341 Y177.468 E11.89956
G1 X191.617 Y177.677 E11.92463
G1 X190.399 Y177.995 E11.9665
G1 X189.817 Y178.134 E11.9864
G1 X188.928 Y178.296 E12.01645
G1 X187.915 Y178.392 E12.0503
G1 X187.38 Y178.416 E12.06811
G1 X186.457 Y178.42 E12.09881
G1 X184.247 Y178.311 E12.1724
G1 X181.683 Y178.245 E12.25771
G1 X179.192 Y178.252 E12.34056
G1 X176.62 Y178.331 E12.42615
G1 X174.504 Y178.446 E12.49663
G1 X173.659 Y178.475 E12.52475
G1 X171.039 Y178.601 E12.61199
G1 X168.553 Y178.79 E12.69492
G1 X166.034 Y179.053 E12.77915
G1 X163.582 Y179.382 E12.86144
G1 X161.052 Y179.793 E12.94669
G1 X158.605 Y180.262 E13.02956
G1 X156.137 Y180.809 E13.11364
G1 X153.685 Y181.422 E13.1977
G1 X151.273 Y182.101 E13.28104
G1 X148.882 Y182.848 E13.36436
G1 X146.491 Y183.669 E13.44844
G1 X144.108 Y184.562 E13.53308
G1 X141.825 Y185.495 E13.61511
G1 X139.48 Y186.53 E13.70036
G1 X137.187 Y187.619 E13.78479
G1 X135.013 Y188.731 E13.86601
G1 X132.757 Y189.964 E13.95152
G1 X130.662 Y191.184 E14.03216
G1 X129.83 Y191.618 E14.06337
G1 X128.897 Y192.005 E14.09696
G1 X127.967 Y192.296 E14.12937
G1 X127.018 Y192.502 E14.16167
G1 X126.123 Y192.619 E14.19169
G1 X125.516 Y192.655 E14.21192
G1 X124.826 Y192.672 E14.23487
G1 X110.363 Y192.671 E14.71591
G1 X109.622 Y192.657 E14.74056
G1 X108.65 Y192.594 E14.77296
G1 X107.689 Y192.446 E14.8053
G1 X106.743 Y192.213 E14.83771
G1 X105.821 Y191.897 E14.87012
G1 X104.966 Y191.518 E14.90123
G1 X104.243 Y191.126 E14.92858
G1 X102.227 Y189.933 E15.0065
G1 X100.024 Y188.705 E15.09038
G1 X97.773 Y187.533 E15.17479
G1 X95.529 Y186.443 E15.25777
G1 X93.243 Y185.412 E15.34117
G1 X90.883 Y184.426 E15.42624
G1 X88.535 Y183.523 E15.50991
G1 X86.206 Y182.703 E15.59204
G1 X83.779 Y181.924 E15.67682
G1 X81.372 Y181.225 E15.76018
G1 X78.919 Y180.589 E15.84447
G1 X76.482 Y180.028 E15.92764
G1 X73.994 Y179.53 E16.01203
G1 X71.545 Y179.111 E16.09467
G1 X69.022 Y178.754 E16.17942
G1 X66.58 Y178.478 E16.26116
G1 X64.007 Y178.258 E16.34705
G1 X61.526 Y178.12 E16.4297
G1 X58.995 Y178.049 E16.51391
G1 X56.504 Y178.051 E16.59676
G1 X53.908 Y178.123 E16.68314
G1 X52.546 Y178.193 E16.7285
G1 X51.643 Y178.199 E16.75853
G1 X50.486 Y178.097 E16.79717
G1 X49.996 Y178.027 E16.81363
G1 X48.982 Y177.832 E16.84797
G1 X48.065 Y177.602 E16.87942
G1 X46.741 Y177.23 E16.92516
G1 X45.805 Y176.918 E16.95797
G1 X44.649 Y176.396 E17.00016
G1 X44.158 Y176.137 E17.01862
G1 X43.388 Y175.687 E17.04829
G1 X40.779 Y174.02 E17.15126
G1 X38.58 Y172.708 E17.23643
G1 X36.435 Y171.508 E17.31818
G1 X33.534 Y170.001 E17.42691
G1 X33.098 Y169.762 E17.44345
G1 X32.546 Y169.441 E17.46468
G1 X31.754 Y168.93 E17.49603
G1 X30.789 Y168.166 E17.53697
G1 X30.246 Y167.667 E17.5615
G1 X29.275 Y166.705 E17.60696
G1 X28.545 Y165.936 E17.64223
G1 X27.909 Y165.201 E17.67455
G1 X27.378 Y164.47 E17.70461
G1 X26.748 Y163.394 E17.74608
G1 X25.439 Y160.838 E17.84159
G1 X24.225 Y158.623 E17.9256
G1 X22.953 Y156.451 E18.00932
G1 X21.628 Y154.327 E18.09258
G1 X20.945 Y153.291 E18.13385
G1 X20.591 Y152.729 E18.15594
G1 X20.113 Y151.88 E18.18835
G1 X19.712 Y150.995 E18.22067
G1 X19.417 Y150.163 E18.25003
G1 X19.096 Y149.1 E18.28696
G1 X18.844 Y148.17 E18.31901
G1 X18.658 Y147.403 E18.34526
G1 X18.477 Y146.447 E18.37762
G1 X18.386 Y145.56 E18.40727
G1 X18.355 Y145.044 E18.42447
G1 X18.348 Y143.87 E18.46352
G1 X18.474 Y141.325 E18.54827
G1 X18.53 Y138.849 E18.63064
G1 X18.516 Y136.302 E18.71535
G1 X18.43 Y133.759 E18.79998
G1 X18.351 Y132.335 E18.84742
G1 X18.356 Y131.095 E18.88866
G1 X18.387 Y130.588 E18.90556
G1 X18.482 Y129.69 E18.93559
G1 X18.633 Y128.884 E18.96286
G1 X18.811 Y128.135 E18.98847
G1 X19.156 Y126.856 E19.03253
G1 X19.719 Y124.982 E19.09761
G1 X20.433 Y122.501 E19.18348
G1 X21.055 Y120.084 E19.26649
G1 X21.631 Y117.546 E19.35305
G1 X22.108 Y115.139 E19.43466
G1 X22.531 Y112.63 E19.51929
G1 X22.872 Y110.176 E19.60169
G1 X23.152 Y107.651 E19.68619
G1 X23.363 Y105.12 E19.77066
G1 X23.494 Y102.658 E19.85267
G1 X23.56 Y100.097 E19.93787
G1 X23.553 Y97.58 E20.02159
G1 X23.476 Y95.079 E20.10481
G1 X23.326 Y92.561 E20.18871
G1 X23.107 Y90.052 E20.27248
G1 X22.816 Y87.559 E20.35596
G1 X22.456 Y85.077 E20.43937
G1 X22.021 Y82.576 E20.52381
G1 X21.524 Y80.142 E20.60643
G1 X20.952 Y77.682 E20.69043
G1 X20.308 Y75.234 E20.77463
G1 X19.589 Y72.784 E20.85955
G1 X19.012 Y70.973 E20.92277
G1 X18.61 Y69.604 E20.97022
G1 X18.288 Y68.344 E21.01348
G1 X18.095 Y67.373 E21.0464
G1 X18 Y66.563 E21.07353
G1 X17.971 Y66.169 E21.08667
G1 X17.953 Y64.839 E21.13091
G1 X18.085 Y62.189 E21.21916
G1 X18.141 Y59.622 E21.30456
G1 X18.125 Y57.117 E21.38788
G1 X17.998 Y53.81 E21.49795
G1 X17.955 Y53.052 E21.5232
G1 X17.962 Y51.662 E21.56943
G1 X18.072 Y50.625 E21.60412
G1 X18.223 Y49.813 E21.63159
G1 X18.415 Y48.988 E21.65976
G1 X18.656 Y48.066 E21.69146
G1 X18.916 Y47.163 E21.72271
G1 X19.207 Y46.308 E21.75275
G1 X19.47 Y45.688 E21.77515
G1 X19.641 Y45.317 E21.78874
G1 X20.069 Y44.489 E21.81974
G1 X20.405 Y43.937 E21.84123
G1 X20.932 Y43.129 E21.87332
G1 X22.325 Y40.925 E21.96004
G1 X23.608 Y38.761 E22.04371
G1 X24.832 Y36.56 E22.12747
G1 X26.287 Y33.738 E22.23307
G1 X26.833 Y32.802 E22.26912
G1 X27.026 Y32.507 E22.28084
G1 X27.553 Y31.774 E22.31087
G1 X28.057 Y31.175 E22.3369
G1 X28.594 Y30.601 E22.36305
G1 X29.483 Y29.708 E22.40496
G0 F6000 X29.759 Y29.997
G1 F1200 X30.367 Y29.416 E22.43293
G1 X31.049 Y28.824 E22.46297
G1 X31.579 Y28.429 E22.48495
G1 X31.957 Y28.166 E22.50027
G1 X33.092 Y27.478 E22.54441
G1 X33.79 Y27.115 E22.57058
G1 X35.13 Y26.44 E22.62048
G1 X37.336 Y25.249 E22.70386
G1 X39.518 Y23.99 E22.78765
G1 X41.692 Y22.653 E22.87254
G1 X43.211 Y21.669 E22.93274
G1 X43.83 Y21.293 E22.95682
G1 X44.658 Y20.852 E22.98803
G1 X45.494 Y20.495 E23.01826
G1 X46.243 Y20.228 E23.04471
G1 X47.034 Y19.992 E23.07216
G1 X48.336 Y19.652 E23.11692
G1 X48.94 Y19.509 E23.13756
G1 X49.829 Y19.348 E23.16761
G1 X50.777 Y19.26 E23.19928
G1 X51.311 Y19.236 E23.21706
G1 X52.327 Y19.239 E23.25085
G1 X54.532 Y19.351 E23.32428
G1 X57.094 Y19.417 E23.40953
G1 X59.579 Y19.41 E23.49218
G1 X62.615 Y19.311 E23.59321
G1 X64.273 Y19.235 E23.64841
G1 X65.212 Y19.234 E23.67964
G1 X66.112 Y19.312 E23.70969
G1 X67.249 Y19.524 E23.74816
G1 X68.171 Y19.755 E23.77977
G1 X69.646 Y20.169 E23.83073
G1 X70.545 Y20.467 E23.86223
G1 X71.792 Y21.038 E23.90784
G1 X72.711 Y21.533 E23.94256
G1 X74.295 Y22.414 E24.00285
G1 X76.511 Y23.566 E24.08591
G1 X78.777 Y24.663 E24.16965
G1 X81.122 Y25.719 E24.25519
G1 X83.438 Y26.683 E24.33862
G1 X85.824 Y27.596 E24.42359
G1 X88.191 Y28.429 E24.50705
G1 X90.589 Y29.196 E24.59079
G1 X93.009 Y29.896 E24.67458
G1 X95.462 Y30.529 E24.75884
G1 X97.962 Y31.101 E24.84414
G1 X100.425 Y31.591 E24.92767
G1 X102.893 Y32.01 E25.01093
G1 X105.406 Y32.363 E25.09533
G1 X107.963 Y32.65 E25.18091
G1 X110.423 Y32.857 E25.26302
G1 X112.986 Y32.996 E25.34839
G1 X115.491 Y33.064 E25.43174
G1 X118.032 Y33.06 E25.51625
G1 X120.539 Y32.985 E25.59967
G1 X123.075 Y32.837 E25.68416
G1 X125.612 Y32.618 E25.76886
G1 X128.093 Y32.333 E25.85192
G1 X130.611 Y31.97 E25.93653
G1 X133.113 Y31.537 E26.02099
G1 X135.568 Y31.042 E26.10428
G1 X138.019 Y30.474 E26.18797
G1 X140.491 Y29.826 E26.27296
G1 X142.927 Y29.114 E26.35737
G1 X145.31 Y28.344 E26.44067
G1 X147.726 Y27.487 E26.52593
G1 X150.018 Y26.601 E26.60766
G1 X152.416 Y25.593 E26.69418
G1 X154.707 Y24.555 E26.77783
G1 X156.978 Y23.447 E26.86188
G1 X159.2 Y22.283 E26.94531
G1 X161.4 Y21.05 E27.02919
G1 X163.617 Y19.724 E27.11511
G1 X164.944 Y18.89 E27.16724
G1 X165.729 Y18.444 E27.19727
G1 X166.24 Y18.199 E27.21612
G1 X166.684 Y18.001 E27.23228
G1 X167.946 Y17.533 E27.27705
G1 X168.688 Y17.318 E27.30275
G1 X169.898 Y17.002 E27.34434
G1 X170.459 Y16.868 E27.36352
G1 X171.348 Y16.706 E27.39358
G1 X172.318 Y16.615 E27.42598
G1 X172.85 Y16.591 E27.4437
G1 X173.734 Y16.588 E27.4731
G1 X176.017 Y16.702 E27.54913
G1 X178.582 Y16.768 E27.63447
G1 X181.094 Y16.761 E27.71802
G1 X183.66 Y16.682 E27.8034
G1 X185.401 Y16.588 E27.86139
G1 X186.304 Y16.579 E27.89143
G1 X186.958 Y16.621 E27.91322
G1 X187.467 Y16.67 E27.93023
G1 X188.802 Y16.885 E27.97521
G1 X189.651 Y17.093 E28.00428
G1 X191.168 Y17.52 E28.0567
G1 X192.065 Y17.818 E28.08813
G1 X193.197 Y18.328 E28.12943
G1 X193.639 Y18.56 E28.14603
G1 X194.505 Y19.068 E28.17943
